EasonHuangkkq/HeimaFrameWork/heima_simulator/code/logs/observations_log.csv
timestamp_ms,roll,pitch,yaw,ang_vel_x,ang_vel_y,ang_vel_z,joint_pos_0,joint_pos_1,joint_pos_2,joint_pos_3,joint_pos_4,joint_pos_5,joint_pos_6,joint_pos_7,joint_pos_8,joint_pos_9,joint_pos_10,joint_pos_11,joint_vel_0,joint_vel_1,joint_vel_2,joint_vel_3,joint_vel_4,joint_vel_5,joint_vel_6,joint_vel_7,joint_vel_8,joint_vel_9,joint_vel_10,joint_vel_11,cmd_vx,cmd_vy,cmd_wz,action_0,action_1,action_2,action_3,action_4,action_5,action_6,action_7,action_8,action_9,action_10,action_11,torque_0,torque_1,torque_2,torque_3,torque_4,torque_5,torque_6,torque_7,torque_8,torque_9,torque_10,torque_11,obs_0,obs_1,obs_2,obs_3,obs_4,obs_5,obs_6,obs_7,obs_8,obs_9,obs_10,obs_11,obs_12,obs_13,obs_14,obs_15,obs_16,obs_17,obs_18,obs_19,obs_20,obs_21,obs_22,obs_23,obs_24,obs_25,obs_26,obs_27,obs_28,obs_29,obs_30,obs_31,obs_32,obs_33,obs_34,obs_35,obs_36,obs_37,obs_38,obs_39,obs_40,obs_41,obs_42,obs_43,obs_44
20,0.037048,-0.116285,-0.031338,-0.001498,0.000700,-0.000596,-0.019319,-0.003404,-0.249128,-0.468631,0.448450,0.415038,0.031686,0.057189,-0.244191,-0.513308,0.380427,0.446149,-0.000383,-0.000479,0.000623,-0.000240,-0.000048,-0.000000,0.000192,0.000240,-0.000288,-0.000048,-0.000000,0.000048,0.000000,0.000000,0.000000,0.000000,0.000000,0.000000,0.000000,0.000000,0.000000,0.000000,0.000000,0.000000,0.000000,0.000000,0.000000,0.775588,0.137486,-0.089128,-1.261350,-3.330562,-6.963246,-1.272756,-2.296927,-0.573586,0.541583,-2.188308,-7.485534,-0.000374,0.000175,-0.000149,-0.116023,-0.036789,-0.992565,0.000000,0.000000,0.000000,-0.019319,-0.003404,0.000872,0.031369,0.198450,0.415038,0.031686,0.057189,0.005809,-0.013308,0.130427,0.446149,-0.000019,-0.000024,0.000031,-0.000012,-0.000002,-0.000000,0.000010,0.000012,-0.000014,-0.000002,-0.000000,0.000002,0.000000,0.000000,0.000000,0.000000,0.000000,0.000000,0.000000,0.000000,0.000000,0.000000,0.000000,0.000000
40,0.037069,-0.116272,-0.031512,0.020281,0.006582,-0.048481,-0.020805,-0.003451,-0.244670,-0.464125,0.442745,0.393945,0.027851,0.052443,-0.246060,-0.499455,0.369258,0.432151,-0.479800,-0.000959,0.459140,0.528025,-0.086430,-1.330537,-0.421653,-0.555445,-0.524382,1.626691,-0.712774,-0.759177,0.000000,0.000000,0.000000,-0.186011,0.009106,0.234648,0.601070,-0.503794,-0.866568,-0.164833,-0.222117,-0.261115,0.651524,-0.431675,-1.124243,-13.019285,0.874899,23.306190,45.502514,-10.303457,-17.640030,-13.423214,-18.663885,-26.801647,48.607296,-7.593663,-22.825487,0.005070,0.001646,-0.012120,-0.116010,-0.036810,-0.992566,0.000000,0.000000,0.000000,-0.020805,-0.003451,0.005330,0.035875,0.192745,0.393945,0.027851,0.052443,0.003940,0.000545,0.119258,0.432151,-0.023990,-0.000048,0.022957,0.026401,-0.004322,-0.066527,-0.021083,-0.027772,-0.026219,0.081335,-0.035639,-0.037959,-0.186011,0.009106,0.234648,0.601070,-0.503794,-0.866568,-0.164833,-0.222117,-0.261115,0.651524,-0.431675,-1.124243
60,0.040237,-0.112352,-0.034271,0.296293,0.470142,-0.235403,-0.036576,-0.004266,-0.229138,-0.448641,0.436178,0.382632,0.010930,0.032070,-0.257086,-0.474240,0.354637,0.423043,-1.016742,-0.065817,0.946514,0.907350,-0.388241,-0.657742,-1.191520,-1.256426,-0.493271,0.632959,-0.809319,-0.372230,0.000000,0.000000,0.000000,-0.202921,-0.028945,0.345322,0.666267,-0.572854,-1.075267,-0.399124,-0.304191,-0.300302,0.262667,-0.520118,-1.176545,-12.364397,-1.973105,30.950203,49.021999,-11.121217,-21.632746,-29.584663,-22.781275,-30.006920,18.099449,-8.688654,-24.422848,0.074073,0.117536,-0.058851,-0.112116,-0.039973,-0.992891,0.000000,0.000000,0.000000,-0.036576,-0.004266,0.020862,0.051359,0.186178,0.382632,0.010930,0.032070,-0.007086,0.025760,0.104637,0.423043,-0.050837,-0.003291,0.047326,0.045367,-0.019412,-0.032887,-0.059576,-0.062821,-0.024664,0.031648,-0.040466,-0.018612,-0.202921,-0.028945,0.345322,0.666267,-0.572854,-1.075267,-0.399124,-0.304191,-0.300302,0.262667,-0.520118,-1.176545
80,0.050197,-0.101604,-0.034594,0.488385,0.328189,0.203732,-0.059346,-0.001342,-0.212984,-0.422564,0.424721,0.383735,-0.004314,0.004554,-0.261160,-0.471699,0.335798,0.384885,-1.132941,0.059010,0.729024,1.541459,-1.199094,0.107858,-0.415517,-1.453974,0.042472,-0.107475,-0.749637,-2.319235,0.000000,0.000000,0.000000,-0.202955,-0.044794,0.344010,0.748592,-0.575171,-1.105713,-0.319887,-0.239833,-0.187598,0.083173,-0.537162,-1.060375,-10.893669,-3.675139,30.245256,53.033543,-10.399072,-23.151623,-24.265867,-15.771807,-19.991430,5.700136,-8.700947,-20.164263,0.122096,0.082047,0.050933,-0.101430,-0.049917,-0.993590,0.000000,0.000000,0.000000,-0.059346,-0.001342,0.037016,0.077436,0.174721,0.383735,-0.004314,0.004554,-0.011160,0.028301,0.085798,0.384885,-0.056647,0.002951,0.036451,0.077073,-0.059955,0.005393,-0.020776,-0.072699,0.002124,-0.005374,-0.037482,-0.115962,-0.202955,-0.044794,0.344010,0.748592,-0.575171,-1.105713,-0.319887,-0.239833,-0.187598,0.083173,-0.537162,-1.060375
101,0.059847,-0.101961,-0.021018,0.340302,-0.091222,0.943243,-0.072241,-0.000000,-0.201191,-0.393754,0.407847,0.377455,-0.014237,-0.029961,-0.258380,-0.478075,0.323958,0.324485,-0.418202,0.010642,0.436993,1.309780,-1.067938,-0.396918,-0.405594,-1.872655,0.207902,-0.460242,-0.406601,-3.160672,0.000000,0.000000,0.000000,-0.213257,-0.112474,0.212763,0.753896,-0.581158,-1.059749,-0.087479,-0.191054,-0.081050,0.133906,-0.552327,-1.014573,-12.779080,-8.935931,16.247850,52.454971,-10.622733,-21.694540,-5.270220,-10.027820,-9.370939,10.663981,-8.935445,-17.541067,0.085075,-0.022806,0.235811,-0.101785,-0.059500,-0.993025,0.000000,0.000000,0.000000,-0.072241,-0.000000,0.048809,0.106246,0.157847,0.377455,-0.014237,-0.029961,-0.008380,0.021925,0.073958,0.324485,-0.020910,0.000532,0.021850,0.065489,-0.053397,-0.019846,-0.020280,-0.093633,0.010395,-0.023012,-0.020330,-0.158034,-0.213257,-0.112474,0.212763,0.753896,-0.581158,-1.059749,-0.087479,-0.191054,-0.081050,0.133906,-0.552327,-1.014573
121,0.063892,-0.108523,-0.004697,0.284730,-0.299206,0.625406,-0.075501,-0.001103,-0.195055,-0.374867,0.391692,0.364704,-0.018456,-0.072960,-0.255983,-0.480567,0.303968,0.268638,-0.043910,-0.163369,0.097887,0.845847,-0.740146,-1.026377,0.082451,-2.102992,0.261304,0.240212,-1.287250,-2.475989,0.000000,0.000000,0.000000,-0.182671,-0.181714,0.001026,0.695108,-0.513908,-0.958800,0.099045,-0.145270,0.056392,0.278359,-0.637325,-1.032744,-11.395883,-14.178086,-6.211175,48.543873,-9.348948,-19.801357,8.769150,-3.693258,5.546985,21.303171,-9.201175,-17.085489,0.071183,-0.074802,0.156351,-0.108310,-0.063473,-0.992089,0.000000,0.000000,0.000000,-0.075501,-0.001103,0.054945,0.125133,0.141692,0.364704,-0.018456,-0.072960,-0.005983,0.019433,0.053968,0.268638,-0.002196,-0.008168,0.004894,0.042292,-0.037007,-0.051319,0.004123,-0.105150,0.013065,0.012011,-0.064362,-0.123799,-0.182671,-0.181714,0.001026,0.695108,-0.513908,-0.958800,0.099045,-0.145270,0.056392,0.278359,-0.637325,-1.032744
141,0.068709,-0.112816,0.004495,0.431639,-0.108498,0.389055,-0.077322,-0.004506,-0.192275,-0.359143,0.381913,0.348933,-0.014669,-0.113754,-0.247978,-0.469254,0.281198,0.223290,-0.076555,-0.147406,-0.116678,0.768093,-0.558129,-0.833239,0.498112,-2.025142,0.373860,0.766943,-0.934865,-2.122167,0.000000,0.000000,0.000000,-0.107093,-0.106158,-0.050678,0.607875,-0.401979,-0.856337,0.153035,-0.081946,0.049298,0.402933,-0.619802,-0.992818,-5.384514,-7.988205,-10.908112,41.042904,-7.967102,-18.103001,11.672884,3.049064,3.270595,29.270502,-8.630640,-16.379686,0.107910,-0.027124,0.097264,-0.112577,-0.068218,-0.991299,0.000000,0.000000,0.000000,-0.077322,-0.004506,0.057725,0.140857,0.131913,0.348933,-0.014669,-0.113754,0.002022,0.030746,0.031198,0.223290,-0.003828,-0.007370,-0.005834,0.038405,-0.027906,-0.041662,0.024906,-0.101257,0.018693,0.038347,-0.046743,-0.106108,-0.107093,-0.106158,-0.050678,0.607875,-0.401979,-0.856337,0.153035,-0.081946,0.049298,0.402933,-0.619802,-0.992818
161,0.074050,-0.114849,0.010711,0.024675,0.019287,0.231031,-0.079431,-0.008629,-0.195535,-0.346584,0.371080,0.336613,-0.011697,-0.150234,-0.238726,-0.450415,0.278801,0.197931,0.001294,-0.239589,-0.134942,0.599307,-0.436801,-0.704289,-0.102201,-1.672327,0.530134,1.140946,-0.168402,-0.918471,0.000000,0.000000,0.000000,-0.012144,-0.090411,-0.023074,0.577980,-0.225449,-0.814488,0.116431,-0.031551,0.050549,0.410124,-0.523390,-0.893943,2.258638,-6.331532,-7.120873,38.594063,-5.018624,-17.324366,9.995770,7.633552,1.319256,28.193157,-8.205490,-15.748499,0.006169,0.004822,0.057758,-0.114596,-0.073495,-0.990690,0.000000,0.000000,0.000000,-0.079431,-0.008629,0.054465,0.153416,0.121080,0.336613,-0.011697,-0.150234,0.011274,0.049585,0.028801,0.197931,0.000065,-0.011979,-0.006747,0.029965,-0.021840,-0.035214,-0.005110,-0.083616,0.026507,0.057047,-0.008420,-0.045924,-0.012144,-0.090411,-0.023074,0.577980,-0.225449,-0.814488,0.116431,-0.031551,0.050549,0.410124,-0.523390,-0.893943
181,0.072332,-0.112187,0.012161,-0.083683,0.225679,0.019385,-0.077035,-0.015771,-0.197884,-0.334312,0.364608,0.321992,-0.012751,-0.176552,-0.229234,-0.417770,0.274199,0.196302,0.133696,-0.397541,-0.107762,0.554726,-0.171950,-0.378989,-0.066728,-1.155327,0.497441,1.832724,-0.104934,0.036720,0.000000,0.000000,0.000000,0.008849,-0.101934,-0.020961,0.461066,-0.094481,-0.731857,0.033999,0.006414,0.065567,0.449634,-0.458511,-0.852519,3.514923,-6.615820,-6.825086,28.747831,-3.226258,-16.026562,3.400720,10.742554,2.337373,28.294052,-7.100730,-16.059752,-0.020921,0.056420,0.004846,-0.111951,-0.071814,-0.991115,0.000000,0.000000,0.000000,-0.077035,-0.015771,0.052116,0.165688,0.114608,0.321992,-0.012751,-0.176552,0.020766,0.082230,0.024199,0.196302,0.006685,-0.019877,-0.005388,0.027736,-0.008597,-0.018949,-0.003336,-0.057766,0.024872,0.091636,-0.005247,0.001836,0.008849,-0.101934,-0.020961,0.461066,-0.094481,-0.731857,0.033999,0.006414,0.065567,0.449634,-0.458511,-0.852519
201,0.071408,-0.107195,0.011756,-0.025759,0.255468,-0.201939,-0.074542,-0.024783,-0.199370,-0.329518,0.357993,0.315185,-0.015723,-0.191748,-0.217154,-0.373620,0.274343,0.208094,0.361684,-0.479177,-0.016778,0.041034,-0.218784,-0.155699,-0.167875,-0.492648,0.548782,2.336828,0.012368,0.716321,0.000000,0.000000,0.000000,0.064809,-0.101494,0.035155,0.327249,-0.037260,-0.655491,0.052679,0.024794,0.062492,0.488669,-0.382095,-0.874130,7.507275,-6.062029,-0.754111,18.863632,-1.947715,-14.801470,5.162661,11.365994,0.959058,28.957432,-6.154157,-17.204456,-0.006440,0.063867,-0.050485,-0.106990,-0.070938,-0.991726,0.000000,0.000000,0.000000,-0.074542,-0.024783,0.050630,0.170482,0.107993,0.315185,-0.015723,-0.191748,0.032846,0.126380,0.024343,0.208094,0.018084,-0.023959,-0.000839,0.002052,-0.010939,-0.007785,-0.008394,-0.024632,0.027439,0.116841,0.000618,0.035816,0.064809,-0.101494,0.035155,0.327249,-0.037260,-0.655491,0.052679,0.024794,0.062492,0.488669,-0.382095,-0.874130
221,0.071385,-0.101531,0.007670,-0.029623,0.330836,-0.220926,-0.065338,-0.033029,-0.202150,-0.331627,0.354014,0.311063,-0.017113,-0.193186,-0.203876,-0.324293,0.276979,0.234603,0.727203,-0.380811,0.045684,-0.199226,-0.140407,-0.051772,0.061839,0.126601,0.699783,2.486151,0.203492,1.390602,0.000000,0.000000,0.000000,0.141567,-0.094839,0.103489,0.181729,-0.027309,-0.568626,0.164124,0.021649,0.021196,0.523016,-0.256152,-0.902128,12.315218,-5.294044,6.690286,8.126368,-1.971732,-13.647775,13.770146,9.532126,-6.194487,28.799156,-4.484800,-18.576918,-0.007406,0.082709,-0.055232,-0.101357,-0.070957,-0.992316,0.000000,0.000000,0.000000,-0.065338,-0.033029,0.047850,0.168373,0.104014,0.311063,-0.017113,-0.193186,0.046124,0.175707,0.026979,0.234603,0.036360,-0.019041,0.002284,-0.009961,-0.007020,-0.002589,0.003092,0.006330,0.034989,0.124308,0.010175,0.069530,0.141567,-0.094839,0.103489,0.181729,-0.027309,-0.568626,0.164124,0.021649,0.021196,0.523016,-0.256152,-0.902128
241,0.069618,-0.094712,0.004392,0.021910,0.128043,0.030530,-0.048800,-0.037630,-0.202198,-0.336277,0.347159,0.309193,-0.015436,-0.188009,-0.187242,-0.283067,0.228947,0.242561,0.820776,-0.087293,-0.014429,-0.339537,-0.637369,-0.023345,0.088348,0.315712,0.895509,1.329818,-2.720227,-1.655405,0.000000,0.000000,0.000000,0.164669,-0.078152,0.197363,0.065822,-0.091592,-0.499700,0.296026,-0.037692,-0.017293,0.544922,-0.028307,-0.967738,13.106924,-4.428035,17.439245,-0.410974,-2.440905,-12.644135,24.036608,3.735374,-13.316508,30.922909,3.422775,-17.739937,0.005478,0.032011,0.007633,-0.094571,-0.069250,-0.993107,0.000000,0.000000,0.000000,-0.048800,-0.037630,0.047802,0.163723,0.097159,0.309193,-0.015436,-0.188009,0.062758,0.216933,-0.021053,0.242561,0.041039,-0.004365,-0.000721,-0.016977,-0.031868,-0.001167,0.004417,0.015786,0.044775,0.066491,-0.136011,-0.082770,0.164669,-0.078152,0.197363,0.065822,-0.091592,-0.499700,0.296026,-0.037692,-0.017293,0.544922,-0.028307,-0.967738
261,0.076247,-0.099369,0.008543,0.191572,-0.326347,0.197918,-0.042137,-0.036624,-0.200376,-0.340640,0.341071,0.300469,-0.016394,-0.183742,-0.171422,-0.276117,0.246444,0.219168,-0.069269,0.130053,0.269118,-0.256271,-0.084369,-0.953034,0.094627,0.068166,0.566374,0.287286,0.412593,-1.353498,0.000000,0.000000,0.000000,0.059327,-0.079011,0.266088,0.071117,-0.065079,-0.469227,0.430415,-0.095065,-0.144031,0.551663,0.435395,-0.896248,6.484128,-5.210954,23.659130,-0.078219,-2.383472,-11.452327,35.040401,-0.509399,-27.834190,34.557430,5.444000,-16.030573,0.047893,-0.081587,0.049479,-0.099205,-0.075797,-0.992176,0.000000,0.000000,0.000000,-0.042137,-0.036624,0.049624,0.159360,0.091071,0.300469,-0.016394,-0.183742,0.078578,0.223883,-0.003556,0.219168,-0.003463,0.006503,0.013456,-0.012814,-0.004218,-0.047652,0.004731,0.003408,0.028319,0.014364,0.020630,-0.067675,0.059327,-0.079011,0.266088,0.071117,-0.065079,-0.469227,0.430415,-0.095065,-0.144031,0.551663,0.435395,-0.896248
281,0.074423,-0.107147,0.013880,-0.154883,-0.431461,0.167983,-0.042089,-0.037247,-0.191029,-0.343516,0.346632,0.276596,-0.012272,-0.184701,-0.169217,-0.267104,0.246396,0.203588,0.045396,-0.140743,0.542646,-0.061024,0.660571,-1.276320,0.194480,-0.057860,-0.205745,0.264180,0.159630,-0.312836,0.000000,0.000000,0.000000,0.029569,-0.099235,0.195709,0.151401,0.090271,-0.488112,0.506794,-0.075204,-0.236996,0.551326,0.708943,-0.713935,3.940495,-6.082205,12.749647,5.980701,-0.972739,-10.599152,40.538898,1.552799,-33.369278,34.072563,10.523933,-13.790501,-0.038721,-0.107865,0.041996,-0.106942,-0.073928,-0.991513,0.000000,0.000000,0.000000,-0.042089,-0.037247,0.058971,0.156484,0.096632,0.276596,-0.012272,-0.184701,0.080783,0.232896,-0.003604,0.203588,0.002270,-0.007037,0.027132,-0.003051,0.033029,-0.063816,0.009724,-0.002893,-0.010287,0.013209,0.007981,-0.015642,0.029569,-0.099235,0.195709,0.151401,0.090271,-0.488112,0.506794,-0.075204,-0.236996,0.551326,0.708943,-0.713935
301,0.069796,-0.113851,0.017418,-0.193652,-0.292491,0.319293,-0.039404,-0.040555,-0.180291,-0.343516,0.358472,0.249176,-0.008389,-0.183215,-0.176312,-0.270316,0.247115,0.197548,0.075213,-0.175880,0.480232,0.092326,0.481718,-1.038457,0.248601,0.044102,-0.470309,-0.232734,0.448498,-0.267344,0.000000,0.000000,0.000000,-0.007161,-0.094315,0.193690,0.142039,0.172398,-0.450361,0.454012,-0.086408,-0.268561,0.622334,0.957265,-0.613106,0.837959,-5.508423,11.791870,4.892800,0.237944,-9.670181,36.191097,0.365667,-35.102970,40.930183,13.961997,-12.383241,-0.048413,-0.073123,0.079823,-0.113606,-0.069287,-0.991107,0.000000,0.000000,0.000000,-0.039404,-0.040555,0.069709,0.156484,0.108472,0.249176,-0.008389,-0.183215,0.073688,0.229684,-0.002885,0.197548,0.003761,-0.008794,0.024012,0.004616,0.024086,-0.051923,0.012430,0.002205,-0.023515,-0.011637,0.022425,-0.013367,-0.007161,-0.094315,0.193690,0.142039,0.172398,-0.450361,0.454012,-0.086408,-0.268561,0.622334,0.957265,-0.613106
321,0.064683,-0.120206,0.025026,-0.225051,-0.224097,0.401954,-0.036288,-0.043335,-0.173580,-0.339777,0.359623,0.240499,-0.003643,-0.181106,-0.185899,-0.282300,0.261352,0.189399,0.094627,-0.140311,0.257373,0.143331,-0.015052,-0.170847,0.237575,0.038110,-0.433254,-0.733626,0.874896,-0.421557,0.000000,0.000000,0.000000,0.003387,-0.094626,0.193433,0.143143,0.131919,-0.379126,0.444262,-0.113229,-0.248024,0.645240,1.049350,-0.572958,1.546132,-5.473063,12.341517,4.679555,-0.066596,-9.414933,35.161789,-1.892370,-31.688736,44.357300,14.896671,-11.452962,-0.056263,-0.056024,0.100489,-0.119917,-0.064171,-0.990708,0.000000,0.000000,0.000000,-0.036288,-0.043335,0.076420,0.160223,0.109623,0.240499,-0.003643,-0.181106,0.064101,0.217700,0.011352,0.189399,0.004731,-0.007016,0.012869,0.007167,-0.000753,-0.008542,0.011879,0.001905,-0.021663,-0.036681,0.043745,-0.021078,0.003387,-0.094626,0.193433,0.143143,0.131919,-0.379126,0.444262,-0.113229,-0.248024,0.645240,1.049350,-0.572958
341,0.058683,-0.124888,0.034004,-0.189550,-0.246049,0.404021,-0.032645,-0.044629,-0.171087,-0.335702,0.347399,0.238486,0.001726,-0.181058,-0.196254,-0.299222,0.282300,0.177462,0.038350,-0.018168,0.027899,0.242561,-0.707309,-0.126218,0.254737,-0.025886,-0.567094,-0.899057,1.191232,-0.520595,0.000000,0.000000,0.000000,-0.023356,-0.099004,0.180000,0.154109,0.078770,-0.329058,0.422441,-0.122420,-0.220369,0.646974,1.045581,-0.542112,-0.659181,-6.049788,12.161168,5.165144,0.241321,-8.818795,33.101444,-2.460992,-26.732784,45.783737,13.801745,-10.505816,-0.047388,-0.061512,0.101005,-0.124563,-0.058193,-0.990504,0.000000,0.000000,0.000000,-0.032645,-0.044629,0.078913,0.164298,0.097399,0.238486,0.001726,-0.181058,0.053746,0.200778,0.032300,0.177462,0.001917,-0.000908,0.001395,0.012128,-0.035365,-0.006311,0.012737,-0.001294,-0.028355,-0.044953,0.059562,-0.026030,-0.023356,-0.099004,0.180000,0.154109,0.078770,-0.329058,0.422441,-0.122420,-0.220369,0.646974,1.045581,-0.542112
361,0.054312,-0.130623,0.039599,-0.182118,-0.263835,0.209862,-0.031974,-0.044869,-0.171470,-0.331196,0.340304,0.234603,0.005896,-0.181201,-0.208717,-0.318109,0.301859,0.167539,-0.014189,-0.013039,-0.076268,0.359143,-0.160972,-0.316767,0.180339,0.017593,-0.650312,-0.936543,0.925278,-0.427262,0.000000,0.000000,0.000000,-0.066009,-0.103642,0.146430,0.209562,0.119119,-0.321498,0.393515,-0.111929,-0.194355,0.626161,1.003291,-0.502572,-3.981422,-6.458652,9.152781,9.116579,0.510746,-8.471563,30.820284,-1.716190,-22.152159,45.127449,13.188181,-9.904979,-0.045529,-0.065959,0.052465,-0.130252,-0.053823,-0.990019,0.000000,0.000000,0.000000,-0.031974,-0.044869,0.078530,0.168804,0.090304,0.234603,0.005896,-0.181201,0.041283,0.181891,0.051859,0.167539,-0.000709,-0.000652,-0.003813,0.017957,-0.008049,-0.015838,0.009017,0.000880,-0.032516,-0.046827,0.046264,-0.021363,-0.066009,-0.103642,0.146430,0.209562,0.119119,-0.321498,0.393515,-0.111929,-0.194355,0.626161,1.003291,-0.502572
382,0.050265,-0.136263,0.042088,-0.166419,-0.295669,0.048485,-0.032789,-0.044917,-0.173867,-0.322376,0.341407,0.228132,0.009108,-0.180626,-0.221948,-0.337763,0.319020,0.161595,-0.121568,-0.000192,-0.163992,0.515370,0.211737,-0.230289,0.079288,0.047122,-0.589001,-0.995937,0.677780,-0.137579,0.000000,0.000000,0.000000,-0.119307,-0.097652,0.116923,0.285271,0.241715,-0.338082,0.335372,-0.076498,-0.165670,0.597943,0.935560,-0.471934,-7.916097,-6.006899,6.643772,14.366471,1.865893,-8.652781,26.260813,1.017076,-17.701735,43.864273,12.151232,-9.643184,-0.041605,-0.073917,0.012121,-0.135841,-0.049778,-0.989479,0.000000,0.000000,0.000000,-0.032789,-0.044917,0.076133,0.177624,0.091407,0.228132,0.009108,-0.180626,0.028052,0.162237,0.069020,0.161595,-0.006078,-0.000010,-0.008200,0.025768,0.010587,-0.011514,0.003964,0.002356,-0.029450,-0.049797,0.033889,-0.006879,-0.119307,-0.097652,0.116923,0.285271,0.241715,-0.338082,0.335372,-0.076498,-0.165670,0.597943,0.935560,-0.471934
402,0.047446,-0.142751,0.041661,-0.122662,-0.374733,-0.039956,-0.037774,-0.044917,-0.178853,-0.310200,0.348118,0.223194,0.011361,-0.179668,-0.233213,-0.358041,0.337524,0.156993,-0.358808,0.007814,-0.360869,0.757787,0.584974,-0.182304,0.075453,0.107810,-0.468344,-1.050058,0.694270,-0.194768,0.000000,0.000000,0.000000,-0.175518,-0.091815,0.072153,0.373086,0.407290,-0.364742,0.260425,-0.043437,-0.127632,0.555301,0.824991,-0.461063,-11.776640,-5.570619,2.943154,20.473505,4.022167,-9.057205,20.192074,3.543567,-13.086246,41.100700,10.230388,-9.320962,-0.030666,-0.093683,-0.009989,-0.142267,-0.046946,-0.988714,0.000000,0.000000,0.000000,-0.037774,-0.044917,0.071147,0.189800,0.098118,0.223194,0.011361,-0.179668,0.016787,0.141959,0.087524,0.156993,-0.017940,0.000391,-0.018043,0.037889,0.029249,-0.009115,0.003773,0.005391,-0.023417,-0.052503,0.034714,-0.009738,-0.175518,-0.091815,0.072153,0.373086,0.407290,-0.364742,0.260425,-0.043437,-0.127632,0.555301,0.824991,-0.461063
422,0.045292,-0.151287,0.041049,-0.187717,-0.458449,0.013882,-0.047458,-0.044198,-0.185372,-0.309241,0.346823,0.220654,0.014765,-0.178086,-0.240979,-0.378270,0.354014,0.152200,-0.459955,0.028475,-0.418921,-0.378845,-0.282013,-0.045924,0.199178,0.289491,-0.338914,-0.890668,0.567189,-0.280335,0.000000,0.000000,0.000000,-0.216939,-0.086130,0.012646,0.467850,0.579324,-0.399574,0.184397,-0.017479,-0.089339,0.516616,0.662835,-0.464294,-14.290155,-5.181771,-2.457076,30.098974,7.185510,-9.605774,13.815066,5.142629,-8.858495,38.796089,7.630836,-9.244270,-0.046929,-0.114612,0.003470,-0.150711,-0.044759,-0.987564,0.000000,0.000000,0.000000,-0.047458,-0.044198,0.064628,0.190759,0.096823,0.220654,0.014765,-0.178086,0.009021,0.121730,0.104014,0.152200,-0.022998,0.001424,-0.020946,-0.018942,-0.014101,-0.002296,0.009959,0.014475,-0.016946,-0.044533,0.028359,-0.014017,-0.216939,-0.086130,0.012646,0.467850,0.579324,-0.399574,0.184397,-0.017479,-0.089339,0.516616,0.662835,-0.464294
442,0.042004,-0.159392,0.040711,-0.103010,-0.284519,0.019959,-0.053546,-0.043575,-0.197596,-0.322999,0.353391,0.211066,0.020469,-0.171087,-0.246683,-0.391309,0.365902,0.140551,-0.161835,0.020277,-0.603957,-0.656640,0.545857,-0.571024,0.134175,0.313651,-0.193473,-0.391501,0.319835,-0.529415,0.000000,0.000000,0.000000,-0.219671,-0.084133,-0.053239,0.531742,0.704667,-0.402056,0.120033,-0.027989,-0.062613,0.524859,0.506560,-0.481291,-14.850973,-4.965310,-8.016912,37.029152,8.360338,-9.003431,8.245650,3.855080,-6.073881,38.866882,5.275385,-8.843456,-0.025753,-0.071130,0.004990,-0.158718,-0.041459,-0.986453,0.000000,0.000000,0.000000,-0.053546,-0.043575,0.052404,0.177001,0.103391,0.211066,0.020469,-0.171087,0.003317,0.108691,0.115902,0.140551,-0.008092,0.001014,-0.030198,-0.032832,0.027293,-0.028551,0.006709,0.015683,-0.009674,-0.019575,0.015992,-0.026471,-0.219671,-0.084133,-0.053239,0.531742,0.704667,-0.402056,0.120033,-0.027989,-0.062613,0.524859,0.506560,-0.481291
463,0.042519,-0.163621,0.037335,0.092595,-0.220652,-0.231245,-0.052635,-0.043335,-0.208861,-0.336277,0.371559,0.196302,0.019223,-0.166389,-0.248888,-0.393850,0.361348,0.134415,0.190693,0.026030,-0.660043,-0.671356,0.989226,-0.816126,-0.112700,0.169984,-0.073631,0.049854,-0.525340,-0.346823,0.000000,0.000000,0.000000,-0.166644,-0.065933,-0.036911,0.538521,0.739383,-0.381573,0.103896,-0.052033,-0.047447,0.513099,0.376429,-0.475428,-11.590425,-3.640277,-4.182748,38.078579,8.217526,-8.217897,7.788733,2.045264,-4.866726,36.883327,4.149168,-8.933258,0.023149,-0.055163,-0.057811,-0.162892,-0.041938,-0.985752,0.000000,0.000000,0.000000,-0.052635,-0.043335,0.041139,0.163723,0.121559,0.196302,0.019223,-0.166389,0.001112,0.106150,0.111348,0.134415,0.009535,0.001301,-0.033002,-0.033568,0.049461,-0.040806,-0.005635,0.008499,-0.003682,0.002493,-0.026267,-0.017341,-0.166644,-0.065933,-0.036911,0.538521,0.739383,-0.381573,0.103896,-0.052033,-0.047447,0.513099,0.376429,-0.475428
483,0.045593,-0.165963,0.033065,0.103520,-0.044152,-0.149679,-0.048992,-0.043287,-0.222811,-0.348933,0.408806,0.169026,0.017737,-0.163896,-0.250806,-0.391213,0.349891,0.127464,0.162123,0.006711,-0.655489,-0.610716,1.807509,-1.662787,-0.047697,0.112748,-0.112316,0.120226,-0.475103,-0.447491,0.000000,0.000000,0.000000,-0.145730,-0.035266,0.000589,0.546079,0.758594,-0.371120,0.121844,-0.026633,-0.069214,0.461792,0.279666,-0.448472,-10.097454,-1.096053,1.342680,39.143089,6.990157,-6.907913,9.165424,4.183009,-7.161515,32.319305,3.032548,-8.372848,0.025880,-0.011038,-0.037420,-0.165203,-0.044951,-0.985235,0.000000,0.000000,0.000000,-0.048992,-0.043287,0.027189,0.151067,0.158806,0.169026,0.017737,-0.163896,-0.000806,0.108787,0.099891,0.127464,0.008106,0.000336,-0.032774,-0.030536,0.090375,-0.083139,-0.002385,0.005637,-0.005616,0.006011,-0.023755,-0.022375,-0.145730,-0.035266,0.000589,0.546079,0.758594,-0.371120,0.121844,-0.026633,-0.069214,0.461792,0.279666,-0.448472
503,0.048995,-0.165792,0.030188,0.169059,0.043305,-0.116546,-0.047074,-0.043287,-0.236377,-0.360677,0.448114,0.133217,0.016586,-0.162938,-0.254689,-0.384214,0.334600,0.115911,0.049087,0.003547,-0.491881,-0.595856,1.965701,-1.810816,-0.080965,-0.018600,-0.227125,0.419783,-0.806011,-0.682861,0.000000,0.000000,0.000000,-0.167671,-0.026882,0.033730,0.526573,0.676275,-0.306346,0.113554,-0.044615,-0.044982,0.403261,0.199391,-0.444233,-11.647760,-0.420430,5.547820,38.051975,4.720593,-4.896261,8.624950,3.025105,-3.162901,26.534735,2.432211,-7.878837,0.042265,0.010826,-0.029136,-0.165033,-0.048304,-0.985104,0.000000,0.000000,0.000000,-0.047074,-0.043287,0.013623,0.139323,0.198114,0.133217,0.016586,-0.162938,-0.004689,0.115786,0.084600,0.115911,0.002454,0.000177,-0.024594,-0.029793,0.098285,-0.090541,-0.004048,-0.000930,-0.011356,0.020989,-0.040301,-0.034143,-0.167671,-0.026882,0.033730,0.526573,0.676275,-0.306346,0.113554,-0.044615,-0.044982,0.403261,0.199391,-0.444233
523,0.052380,-0.164269,0.029282,0.125661,0.113799,0.047478,-0.046403,-0.043287,-0.245341,-0.367676,0.475103,0.104694,0.012799,-0.163609,-0.258572,-0.373285,0.313603,0.105413,0.051964,0.019990,-0.368060,-0.252100,1.172824,-1.195355,-0.208909,-0.064379,-0.171902,0.531333,-0.966696,-0.535072,0.000000,0.000000,0.000000,-0.153360,-0.008792,0.070484,0.467824,0.532710,-0.153548,0.120050,-0.065349,-0.038884,0.341150,0.116366,-0.427446,-10.491221,1.002524,9.740372,32.910778,2.914137,-2.734140,9.595464,1.488127,-2.408875,20.843447,1.697362,-7.728341,0.031415,0.028450,0.011870,-0.163531,-0.051652,-0.985185,0.000000,0.000000,0.000000,-0.046403,-0.043287,0.004659,0.132324,0.225103,0.104694,0.012799,-0.163609,-0.008572,0.126715,0.063603,0.105413,0.002598,0.000999,-0.018403,-0.012605,0.058641,-0.059768,-0.010445,-0.003219,-0.008595,0.026567,-0.048335,-0.026754,-0.153360,-0.008792,0.070484,0.467824,0.532710,-0.153548,0.120050,-0.065349,-0.038884,0.341150,0.116366,-0.427446
543,0.054913,-0.161821,0.032352,0.136566,0.141164,0.214886,-0.045396,-0.042712,-0.251333,-0.368731,0.473329,0.100332,0.009827,-0.164519,-0.260968,-0.360869,0.294620,0.094723,0.027036,0.063085,-0.213751,0.048416,-0.612777,0.155651,-0.091799,-0.078185,-0.076220,0.621023,-1.015927,-0.520163,0.000000,0.000000,0.000000,-0.128379,-0.005850,0.100948,0.366037,0.344742,0.052002,0.142806,-0.108303,-0.023107,0.319208,0.075990,-0.425639,-8.566983,1.118190,12.934765,24.003571,1.700685,-0.860974,11.329818,-1.883325,-1.012003,18.514805,1.289287,-7.378999,0.034142,0.035291,0.053721,-0.161115,-0.054169,-0.985448,0.000000,0.000000,0.000000,-0.045396,-0.042712,-0.001333,0.131269,0.223329,0.100332,0.009827,-0.164519,-0.010968,0.139131,0.044620,0.094723,0.001352,0.003154,-0.010688,0.002421,-0.030639,0.007783,-0.004590,-0.003909,-0.003811,0.031051,-0.050796,-0.026008,-0.128379,-0.005850,0.100948,0.366037,0.344742,0.052002,0.142806,-0.108303,-0.023107,0.319208,0.075990,-0.425639
563,0.057189,-0.160126,0.037833,0.153372,0.091302,0.289108,-0.045444,-0.040938,-0.253826,-0.364800,0.448306,0.106228,0.008725,-0.165574,-0.262023,-0.348357,0.272905,0.087725,-0.004650,0.112748,-0.032118,0.221133,-1.393046,0.479417,0.001917,-0.174490,-0.045157,0.566758,-1.248708,-0.290977,0.000000,0.000000,0.000000,-0.073619,-0.009292,0.127579,0.273771,0.204832,0.202407,0.189368,-0.145965,-0.024518,0.333534,0.124384,-0.420933,-4.071379,0.633029,15.055268,15.956100,1.235662,0.853623,14.805058,-4.601099,-1.266959,19.196909,2.793836,-7.472578,0.038343,0.022825,0.072277,-0.159442,-0.056426,-0.985593,0.000000,0.000000,0.000000,-0.045444,-0.040938,-0.003826,0.135200,0.198306,0.106228,0.008725,-0.165574,-0.012023,0.151643,0.022905,0.087725,-0.000232,0.005637,-0.001606,0.011057,-0.069652,0.023971,0.000096,-0.008725,-0.002258,0.028338,-0.062435,-0.014549,-0.073619,-0.009292,0.127579,0.273771,0.204832,0.202407,0.189368,-0.145965,-0.024518,0.333534,0.124384,-0.420933
583,0.059001,-0.159044,0.043605,0.108250,0.065273,0.262623,-0.045780,-0.037487,-0.253203,-0.357513,0.412066,0.126697,0.008677,-0.170320,-0.263078,-0.337092,0.249080,0.086670,0.033604,0.208478,0.101626,0.409285,-1.860911,1.380918,0.000336,-0.360965,-0.063468,0.611387,-0.950876,-0.046259,0.000000,0.000000,0.000000,-0.015824,-0.016440,0.147072,0.209093,0.170046,0.289869,0.221829,-0.162222,-0.054194,0.373426,0.282412,-0.407481,0.502096,-0.291805,16.267212,10.043968,1.728947,0.771519,17.378494,-5.290431,-4.422657,21.809048,5.217540,-7.537043,0.027063,0.016318,0.065656,-0.158374,-0.058223,-0.985661,0.000000,0.000000,0.000000,-0.045780,-0.037487,-0.003203,0.142487,0.162066,0.126697,0.008677,-0.170320,-0.013078,0.162908,-0.000920,0.086670,0.001680,0.010424,0.005081,0.020464,-0.093046,0.069046,0.000017,-0.018048,-0.003173,0.030569,-0.047544,-0.002313,-0.015824,-0.016440,0.147072,0.209093,0.170046,0.289869,0.221829,-0.162222,-0.054194,0.373426,0.282412,-0.407481
604,0.059433,-0.158360,0.049098,0.029780,0.062204,0.298308,-0.044533,-0.033029,-0.250902,-0.348453,0.367484,0.156658,0.008485,-0.178421,-0.264612,-0.327697,0.232206,0.083842,0.110734,0.197644,0.113131,0.504967,-2.051747,1.418741,-0.030632,-0.405354,-0.113898,0.454010,-0.439725,-0.108002,0.000000,0.000000,0.000000,0.017319,-0.025524,0.156044,0.187241,0.238707,0.305670,0.205942,-0.155781,-0.080805,0.409508,0.500371,-0.391361,2.891582,-1.220388,16.930441,7.598469,3.800644,0.441335,16.212729,-4.256751,-6.923953,24.676149,8.273591,-7.161653,0.007445,0.015551,0.074577,-0.157699,-0.058655,-0.985744,0.000000,0.000000,0.000000,-0.044533,-0.033029,-0.000902,0.151547,0.117484,0.156658,0.008485,-0.178421,-0.014612,0.172303,-0.017794,0.083842,0.005537,0.009882,0.005657,0.025248,-0.102587,0.070937,-0.001532,-0.020268,-0.005695,0.022701,-0.021986,-0.005400,0.017319,-0.025524,0.156044,0.187241,0.238707,0.305670,0.205942,-0.155781,-0.080805,0.409508,0.500371,-0.391361
624,0.058701,-0.157458,0.054582,0.012353,0.073877,0.244821,-0.041178,-0.030296,-0.249032,-0.337140,0.335271,0.177558,0.007718,-0.186379,-0.267776,-0.323095,0.231343,0.070132,0.191076,0.076268,0.016538,0.597006,-1.301775,0.750452,-0.077274,-0.379133,-0.199609,0.121760,0.186475,-0.643121,0.000000,0.000000,0.000000,0.010255,-0.042329,0.124632,0.230953,0.388726,0.254975,0.162980,-0.142999,-0.075200,0.401090,0.694449,-0.373045,2.032107,-2.419947,13.599018,10.515398,6.192036,-0.126236,12.893624,-3.006972,-5.574833,24.556490,10.739794,-6.153462,0.003088,0.018469,0.061205,-0.156808,-0.057942,-0.985928,0.000000,0.000000,0.000000,-0.041178,-0.030296,0.000968,0.162860,0.085271,0.177558,0.007718,-0.186379,-0.017776,0.176905,-0.018657,0.070132,0.009554,0.003813,0.000827,0.029850,-0.065089,0.037523,-0.003864,-0.018957,-0.009980,0.006088,0.009324,-0.032156,0.010255,-0.042329,0.124632,0.230953,0.388726,0.254975,0.162980,-0.142999,-0.075200,0.401090,0.694449,-0.373045
644,0.057742,-0.156637,0.059816,-0.026167,0.083940,0.260160,-0.040650,-0.029385,-0.250854,-0.323382,0.332682,0.179524,0.006999,-0.192946,-0.273576,-0.322807,0.242800,0.053689,0.004985,0.017257,-0.172093,0.810182,0.299414,-0.343324,0.000144,-0.272953,-0.205314,-0.056805,0.713637,-0.924942,0.000000,0.000000,0.000000,-0.057901,-0.043574,0.064094,0.336839,0.599105,0.161551,0.119456,-0.100105,-0.030895,0.303633,0.763487,-0.327558,-3.159041,-2.395489,8.157590,17.854401,7.549382,-0.398738,9.375056,0.505985,0.061285,17.277422,11.073959,-5.011158,-0.006542,0.020985,0.065040,-0.155998,-0.057004,-0.986111,0.000000,0.000000,0.000000,-0.040650,-0.029385,-0.000854,0.176618,0.082682,0.179524,0.006999,-0.192946,-0.023576,0.177193,-0.007200,0.053689,0.000249,0.000863,-0.008605,0.040509,0.014971,-0.017166,0.000007,-0.013648,-0.010266,-0.002840,0.035682,-0.046247,-0.057901,-0.043574,0.064094,0.336839,0.599105,0.161551,0.119456,-0.100105,-0.030895,0.303633,0.763487,-0.327558
664,0.055522,-0.155339,0.066119,-0.117017,0.087611,0.365060,-0.042760,-0.028475,-0.254785,-0.313459,0.337380,0.165766,0.007430,-0.196158,-0.277507,-0.326450,0.259962,0.033364,-0.389679,0.068981,-0.247738,0.287382,0.101962,-1.023884,0.018552,-0.029961,-0.056757,-0.328895,0.769339,-0.948384,0.000000,0.000000,0.000000,-0.170509,-0.041925,-0.020855,0.453866,0.776026,0.080251,0.078285,-0.048671,0.058448,0.164182,0.676003,-0.284481,-11.051616,-2.380499,-0.316760,27.975323,10.071081,-0.610709,5.961170,4.124600,9.681230,6.992828,9.272646,-3.732758,-0.029254,0.021903,0.091265,-0.154716,-0.054825,-0.986437,0.000000,0.000000,0.000000,-0.042760,-0.028475,-0.004785,0.186541,0.087380,0.165766,0.007430,-0.196158,-0.027507,0.173550,0.009962,0.033364,-0.019484,0.003449,-0.012387,0.014369,0.005098,-0.051194,0.000928,-0.001498,-0.002838,-0.016445,0.038467,-0.047419,-0.170509,-0.041925,-0.020855,0.453866,0.776026,0.080251,0.078285,-0.048671,0.058448,0.164182,0.676003,-0.284481
684,0.050921,-0.156302,0.072104,-0.088331,-0.088570,0.159660,-0.052635,-0.029289,-0.261256,-0.311782,0.356219,0.139976,0.008341,-0.196110,-0.278561,-0.331580,0.277986,0.011697,-0.361205,-0.057476,-0.393562,-0.001246,1.204606,-0.930407,-0.003787,0.181825,0.018456,-0.292942,0.833767,-1.017221,0.000000,0.000000,0.000000,-0.290364,-0.043771,-0.101267,0.535597,0.894505,0.046650,0.066221,-0.017419,0.151840,0.057794,0.504233,-0.258418,-19.843452,-2.274931,-8.112299,35.146008,10.595678,-0.651899,4.846908,6.150032,19.955492,-1.411145,6.325420,-2.992833,-0.022083,-0.022142,0.039915,-0.155666,-0.050279,-0.986529,0.000000,0.000000,0.000000,-0.052635,-0.029289,-0.011256,0.188218,0.106219,0.139976,0.008341,-0.196110,-0.028561,0.168420,0.027986,0.011697,-0.018060,-0.002874,-0.019678,-0.000062,0.060230,-0.046520,-0.000189,0.009091,0.000923,-0.014647,0.041688,-0.050861,-0.290364,-0.043771,-0.101267,0.535597,0.894505,0.046650,0.066221,-0.017419,0.151840,0.057794,0.504233,-0.258418
704,0.052612,-0.159693,0.073854,0.136412,-0.138438,0.079140,-0.053258,-0.027851,-0.268495,-0.316192,0.376784,0.124061,0.007143,-0.190405,-0.277363,-0.333928,0.285608,-0.003260,-0.046451,0.107427,-0.490778,-0.303920,1.092051,-0.534832,-0.056997,0.371223,0.108961,-0.289874,0.143859,-0.574572,0.000000,0.000000,0.000000,-0.341604,-0.006040,-0.124148,0.558698,0.932016,0.092977,0.114886,-0.001913,0.151820,0.048875,0.354112,-0.215743,-25.111269,0.422484,-9.133348,38.020008,10.788504,0.013699,9.051296,6.598659,19.159698,-2.017656,4.500178,-2.477204,0.034103,-0.034609,0.019785,-0.159015,-0.051919,-0.985910,0.000000,0.000000,0.000000,-0.053258,-0.027851,-0.018495,0.183808,0.126784,0.124061,0.007143,-0.190405,-0.027363,0.166072,0.035608,-0.003260,-0.002323,0.005371,-0.024539,-0.015196,0.054603,-0.026742,-0.002850,0.018561,0.005448,-0.014494,0.007193,-0.028729,-0.341604,-0.006040,-0.124148,0.558698,0.932016,0.092977,0.114886,-0.001913,0.151820,0.048875,0.354112,-0.215743
724,0.054722,-0.161577,0.074766,0.128445,-0.062467,0.024750,-0.053593,-0.024831,-0.277363,-0.325444,0.404252,0.122191,0.005992,-0.181106,-0.275445,-0.336613,0.284697,-0.004890,0.004314,0.176312,-0.400465,-0.537564,1.050777,0.074350,0.017018,0.493606,0.075213,-0.046930,-0.058675,-0.019606,0.000000,0.000000,0.000000,-0.370862,0.014950,-0.103120,0.566445,0.935110,0.132807,0.209808,0.003445,0.133585,0.026995,0.290214,-0.175690,-27.519051,1.801346,-6.212649,39.362720,10.130781,-0.130450,16.641685,6.471262,16.951210,-4.124953,3.780076,-2.475425,0.032111,-0.015617,0.006188,-0.160875,-0.053982,-0.985497,0.000000,0.000000,0.000000,-0.053593,-0.024831,-0.027363,0.174556,0.154252,0.122191,0.005992,-0.181106,-0.025445,0.163387,0.034697,-0.004890,0.000216,0.008816,-0.020023,-0.026878,0.052539,0.003718,0.000851,0.024680,0.003761,-0.002347,-0.002934,-0.000980,-0.370862,0.014950,-0.103120,0.566445,0.935110,0.132807,0.209808,0.003445,0.133585,0.026995,0.290214,-0.175690
744,0.057015,-0.162935,0.073508,0.083280,-0.035799,-0.069518,-0.053641,-0.021476,-0.283307,-0.337763,0.428268,0.123294,0.006232,-0.170559,-0.274918,-0.335846,0.278513,-0.004123,-0.030248,0.161739,-0.193809,-0.660810,1.354984,0.104167,0.011217,0.545762,-0.021044,0.098319,-0.492935,0.060928,0.000000,0.000000,0.000000,-0.393799,0.019224,-0.044479,0.518332,0.868743,0.168717,0.248464,-0.007811,0.111748,0.065373,0.257379,-0.169059,-29.274483,2.035380,-0.291187,36.494946,8.908077,0.404278,19.513330,4.919478,15.146287,-1.607553,3.749457,-2.489743,0.020820,-0.008950,-0.017380,-0.162215,-0.056230,-0.985152,0.000000,0.000000,0.000000,-0.053641,-0.021476,-0.033307,0.162237,0.178268,0.123294,0.006232,-0.170559,-0.024918,0.164154,0.028513,-0.004123,-0.001512,0.008087,-0.009690,-0.033041,0.067749,0.005208,0.000561,0.027288,-0.001052,0.004916,-0.024647,0.003046,-0.393799,0.019224,-0.044479,0.518332,0.868743,0.168717,0.248464,-0.007811,0.111748,0.065373,0.257379,-0.169059
764,0.058594,-0.163838,0.071647,0.054051,-0.013215,-0.080269,-0.054360,-0.016826,-0.285225,-0.349316,0.451901,0.131491,0.006855,-0.160732,-0.275541,-0.334935,0.271371,0.004266,-0.032837,0.289251,0.087005,-0.549932,0.895893,0.569922,0.042137,0.408183,-0.078329,0.196733,-0.332682,0.583584,0.000000,0.000000,0.000000,-0.357957,0.022611,0.031935,0.438128,0.751112,0.218895,0.271841,-0.038018,0.051083,0.140418,0.278309,-0.177130,-26.403284,1.868867,6.785157,30.395641,6.751439,0.681752,21.380501,2.359335,8.728485,4.175430,4.187528,-3.243086,0.013513,-0.003304,-0.020067,-0.163106,-0.057776,-0.984915,0.000000,0.000000,0.000000,-0.054360,-0.016826,-0.035225,0.150684,0.201901,0.131491,0.006855,-0.160732,-0.025541,0.165065,0.021371,0.004266,-0.001642,0.014463,0.004350,-0.027497,0.044795,0.028496,0.002107,0.020409,-0.003916,0.009837,-0.016634,0.029179,-0.357957,0.022611,0.031935,0.438128,0.751112,0.218895,0.271841,-0.038018,0.051083,0.140418,0.278309,-0.177130
784,0.059159,-0.164142,0.070944,-0.002636,0.011686,-0.017474,-0.054744,-0.010690,-0.283882,-0.357753,0.460961,0.146687,0.007191,-0.156514,-0.278322,-0.330381,0.267152,0.009827,0.012655,0.317007,0.270412,-0.368012,0.169169,0.723943,0.031974,0.073727,-0.190357,0.478746,-0.179859,0.219263,0.000000,0.000000,0.000000,-0.264008,0.015822,0.106980,0.345837,0.585009,0.259921,0.276705,-0.080391,-0.011361,0.234440,0.333965,-0.209602,-19.005777,0.930347,13.723806,22.918993,4.963596,0.727735,21.764711,-0.439402,2.653901,10.812396,4.902121,-3.535244,-0.000659,0.002921,-0.004369,-0.163406,-0.058330,-0.984833,0.000000,0.000000,0.000000,-0.054744,-0.010690,-0.033882,0.142247,0.210961,0.146687,0.007191,-0.156514,-0.028322,0.169619,0.017152,0.009827,0.000633,0.015850,0.013521,-0.018401,0.008458,0.036197,0.001599,0.003686,-0.009518,0.023937,-0.008993,0.010963,-0.264008,0.015822,0.106980,0.345837,0.585009,0.259921,0.276705,-0.080391,-0.011361,0.234440,0.333965,-0.209602
804,0.059013,-0.164127,0.071578,-0.013738,0.079060,0.089333,-0.054888,-0.004554,-0.276452,-0.360725,0.455544,0.162985,0.006999,-0.158911,-0.279808,-0.326259,0.260345,0.017449,0.062893,0.279232,0.467816,-0.068166,-0.546768,0.678787,-0.067160,-0.219647,-0.218544,0.037918,-0.441259,0.422420,0.000000,0.000000,0.000000,-0.148164,-0.002566,0.165025,0.251836,0.408688,0.268155,0.271787,-0.122432,-0.060731,0.328019,0.424792,-0.249353,-9.800658,-0.731661,18.455591,14.815496,3.193154,0.604376,21.630541,-2.888751,-2.485899,19.033386,6.650543,-4.417210,-0.003434,0.019765,0.022333,-0.163392,-0.058187,-0.984844,0.000000,0.000000,0.000000,-0.054888,-0.004554,-0.026452,0.139275,0.205544,0.162985,0.006999,-0.158911,-0.029808,0.173741,0.010345,0.017449,0.003145,0.013962,0.023391,-0.003408,-0.027338,0.033939,-0.003358,-0.010982,-0.010927,0.001896,-0.022063,0.021121,-0.148164,-0.002566,0.165025,0.251836,0.408688,0.268155,0.271787,-0.122432,-0.060731,0.328019,0.424792,-0.249353
824,0.058696,-0.162767,0.074340,0.002108,0.088505,0.146859,-0.053593,0.000527,-0.265475,-0.358712,0.437616,0.175209,0.006951,-0.165286,-0.282636,-0.326786,0.258188,0.022914,0.121376,0.234316,0.553288,0.151337,-1.294248,0.484930,0.067591,-0.384070,-0.213415,-0.016826,-0.012607,0.140743,0.000000,0.000000,0.000000,-0.037928,-0.029421,0.199156,0.184694,0.271983,0.241157,0.264440,-0.149367,-0.086387,0.404296,0.525627,-0.289215,-1.029557,-3.005284,20.704744,8.823450,1.580465,0.024932,20.811609,-4.562163,-5.156598,25.413284,7.818288,-5.024118,0.000527,0.022126,0.036715,-0.162049,-0.057887,-0.985083,0.000000,0.000000,0.000000,-0.053593,0.000527,-0.015475,0.141288,0.187616,0.175209,0.006951,-0.165286,-0.032636,0.173214,0.008188,0.022914,0.006069,0.011716,0.027664,0.007567,-0.064712,0.024246,0.003380,-0.019204,-0.010671,-0.000841,-0.000630,0.007037,-0.037928,-0.029421,0.199156,0.184694,0.271983,0.241157,0.264440,-0.149367,-0.086387,0.404296,0.525627,-0.289215
844,0.057509,-0.162128,0.079526,-0.058652,0.063439,0.356565,-0.049902,0.002780,-0.253826,-0.353199,0.396870,0.181777,0.007430,-0.171902,-0.285177,-0.328703,0.259914,0.028714,0.249895,0.065817,0.535551,0.220989,-2.142828,0.011313,0.029913,-0.513979,-0.075405,-0.116007,0.101387,0.144194,0.000000,0.000000,0.000000,0.011895,-0.052602,0.196545,0.185330,0.235721,0.200911,0.245943,-0.152160,-0.096448,0.433655,0.613258,-0.309145,2.382309,-4.570118,19.174074,8.440596,3.171454,-0.146841,19.376842,-4.030792,-6.737450,28.070705,8.911618,-5.364587,-0.014663,0.015860,0.089141,-0.161419,-0.056724,-0.985255,0.000000,0.000000,0.000000,-0.049902,0.002780,-0.003826,0.146801,0.146870,0.181777,0.007430,-0.171902,-0.035177,0.171297,0.009914,0.028714,0.012495,0.003291,0.026778,0.011049,-0.107141,0.000566,0.001496,-0.025699,-0.003770,-0.005800,0.005069,0.007210,0.011895,-0.052602,0.196545,0.185330,0.235721,0.200911,0.245943,-0.152160,-0.096448,0.433655,0.613258,-0.309145
865,0.055057,-0.161580,0.087506,-0.065169,0.050283,0.386290,-0.047266,0.002205,-0.244334,-0.346488,0.352384,0.179620,0.008197,-0.182160,-0.285177,-0.331627,0.268830,0.030919,0.218353,-0.086622,0.381817,0.436753,-1.920113,-0.132498,-0.009731,-0.513021,0.055127,-0.201958,0.482773,0.045061,0.000000,0.000000,0.000000,-0.004806,-0.078186,0.135922,0.257234,0.335849,0.161628,0.203580,-0.157807,-0.068591,0.409538,0.676199,-0.317170,0.988591,-6.190489,12.417438,13.443936,5.406033,-0.466255,15.973399,-4.124714,-4.529366,26.378849,9.263275,-5.370354,-0.016292,0.012571,0.096573,-0.160877,-0.054312,-0.985479,0.000000,0.000000,0.000000,-0.047266,0.002205,0.005666,0.153512,0.102384,0.179620,0.008197,-0.182160,-0.035177,0.168373,0.018830,0.030919,0.010918,-0.004331,0.019091,0.021838,-0.096006,-0.006625,-0.000487,-0.025651,0.002756,-0.010098,0.024139,0.002253,-0.004806,-0.078186,0.135922,0.257234,0.335849,0.161628,0.203580,-0.157807,-0.068591,0.409538,0.676199,-0.317170
885,0.053280,-0.161620,0.094357,0.038098,0.000602,0.272883,-0.045492,-0.000288,-0.238965,-0.335414,0.338674,0.176887,0.008197,-0.190789,-0.284314,-0.337140,0.278993,0.034706,0.069748,-0.176887,0.105030,0.739906,-0.162842,-0.157377,-0.015052,-0.371319,0.078281,-0.379708,0.799252,0.219311,0.000000,0.000000,0.000000,-0.055739,-0.084413,0.053527,0.374282,0.542966,0.115456,0.155767,-0.127066,-0.019128,0.319307,0.672834,-0.297907,-2.867929,-6.342865,4.014318,21.607809,7.039007,-1.109718,12.198421,-1.510569,0.746149,19.925442,8.842620,-5.274577,0.009524,0.000151,0.068221,-0.160917,-0.052561,-0.985567,0.000000,0.000000,0.000000,-0.045492,-0.000288,0.011035,0.164586,0.088674,0.176887,0.008197,-0.190789,-0.034314,0.162860,0.028993,0.034706,0.003487,-0.008844,0.005251,0.036995,-0.008142,-0.007869,-0.000753,-0.018566,0.003914,-0.018985,0.039963,0.010966,-0.055739,-0.084413,0.053527,0.374282,0.542966,0.115456,0.155767,-0.127066,-0.019128,0.319307,0.672834,-0.297907
905,0.053322,-0.162291,0.099023,0.039418,-0.014271,0.216008,-0.044006,-0.002876,-0.240116,-0.319979,0.353918,0.167012,0.009204,-0.194144,-0.285129,-0.347638,0.295483,0.035234,-0.298072,-0.090409,-0.268782,0.758506,0.730894,-0.899009,0.033987,-0.011792,0.153494,-0.679026,0.950445,0.019702,0.000000,0.000000,0.000000,-0.143756,-0.072248,-0.047574,0.526216,0.767444,0.041439,0.111091,-0.055326,0.047401,0.178174,0.578391,-0.273082,-9.066208,-5.365159,-4.684778,32.664761,8.841023,-1.430786,8.441538,3.511426,7.900454,9.750221,6.987700,-4.702054,0.009854,-0.003568,0.054002,-0.161580,-0.052596,-0.985457,0.000000,0.000000,0.000000,-0.044006,-0.002876,0.009884,0.180021,0.103918,0.167012,0.009204,-0.194144,-0.035129,0.152362,0.045483,0.035234,-0.014904,-0.004520,-0.013439,0.037925,0.036545,-0.044950,0.001699,-0.000590,0.007675,-0.033951,0.047522,0.000985,-0.143756,-0.072248,-0.047574,0.526216,0.767444,0.041439,0.111091,-0.055326,0.047401,0.178174,0.578391,-0.273082
925,0.051864,-0.163059,0.103832,-0.067224,-0.074868,0.302597,-0.049279,-0.004458,-0.244526,-0.318828,0.360342,0.143811,0.011361,-0.190981,-0.282732,-0.360150,0.313795,0.036049,-0.158911,-0.037391,-0.401759,-0.126410,1.104370,-0.804477,0.072624,0.348357,0.204163,-0.727586,0.863919,-0.082691,0.000000,0.000000,0.000000,-0.285738,-0.060663,-0.138000,0.647702,0.939410,-0.031522,0.053017,0.014054,0.137345,0.039416,0.385635,-0.261640,-20.111765,-4.695079,-14.138402,44.644585,12.130916,-1.541072,3.517914,8.368598,17.592548,-0.867602,3.683531,-4.613381,-0.016806,-0.018717,0.075649,-0.162337,-0.051153,-0.985408,0.000000,0.000000,0.000000,-0.049279,-0.004458,0.005474,0.181172,0.110342,0.143811,0.011361,-0.190981,-0.032732,0.139850,0.063795,0.036049,-0.007946,-0.001870,-0.020088,-0.006320,0.055219,-0.040224,0.003631,0.017418,0.010208,-0.036379,0.043196,-0.004135,-0.285738,-0.060663,-0.138000,0.647702,0.939410,-0.031522,0.053017,0.014054,0.137345,0.039416,0.385635,-0.261640
945,0.050507,-0.165128,0.108590,0.023274,-0.084644,0.151313,-0.049615,-0.003020,-0.255312,-0.328607,0.392747,0.145536,0.010930,-0.183023,-0.278561,-0.370984,0.321321,0.033987,-0.070084,0.048944,-0.591493,-0.741057,1.501048,0.006376,-0.048081,0.630946,0.243855,-0.649497,0.082691,0.098654,0.000000,0.000000,0.000000,-0.384425,-0.059247,-0.201678,0.710578,1.040734,-0.030934,0.045038,0.016212,0.187902,0.010566,0.184949,-0.275149,-28.611677,-4.687202,-18.650999,51.396641,11.819877,-3.014054,3.284320,7.150326,22.560324,-2.575736,1.397426,-4.654230,0.005818,-0.021161,0.037828,-0.164379,-0.049799,-0.985139,0.000000,0.000000,0.000000,-0.049615,-0.003020,-0.005312,0.171393,0.142747,0.145536,0.010930,-0.183023,-0.028561,0.129016,0.071321,0.033987,-0.003504,0.002447,-0.029575,-0.037053,0.075052,0.000319,-0.002404,0.031547,0.012193,-0.032475,0.004135,0.004933,-0.384425,-0.059247,-0.201678,0.710578,1.040734,-0.030934,0.045038,0.016212,0.187902,0.010566,0.184949,-0.275149
965,0.052071,-0.165085,0.108428,0.144612,0.075507,-0.108909,-0.050957,-0.002205,-0.267200,-0.345050,0.431097,0.142660,0.010594,-0.168546,-0.273528,-0.377743,0.320506,0.041801,-0.144050,0.064811,-0.573229,-0.860324,2.217417,-0.105030,-0.006280,0.728593,0.231391,-0.104263,-0.228755,0.502379,0.000000,0.000000,0.000000,-0.426306,-0.038650,-0.168000,0.728636,1.067696,-0.039297,0.092322,0.019945,0.165293,0.039988,0.049247,-0.269241,-31.749708,-3.164194,-13.542431,54.087513,10.757710,-2.889670,6.915886,6.572082,19.472290,-1.311773,-0.253105,-5.167609,0.036153,0.018877,-0.027227,-0.164336,-0.051339,-0.985067,0.000000,0.000000,0.000000,-0.050957,-0.002205,-0.017200,0.154950,0.181097,0.142660,0.010594,-0.168546,-0.023528,0.122257,0.070506,0.041801,-0.007203,0.003241,-0.028661,-0.043016,0.110871,-0.005251,-0.000314,0.036430,0.011570,-0.005213,-0.011438,0.025119,-0.426306,-0.038650,-0.168000,0.728636,1.067696,-0.039297,0.092322,0.019945,0.165293,0.039988,0.049247,-0.269241
985,0.056708,-0.163158,0.104415,0.212291,0.079431,-0.290138,-0.052203,-0.001822,-0.275302,-0.366909,0.473425,0.131922,0.007718,-0.153877,-0.271754,-0.375586,0.308474,0.059634,-0.044198,0.006136,-0.196350,-1.206236,2.014021,-0.740290,-0.165526,0.745227,-0.012847,0.244814,-0.953369,1.131934,0.000000,0.000000,0.000000,-0.406227,-0.015546,-0.055175,0.656325,0.980498,-0.033993,0.151977,0.015161,0.114974,0.102405,-0.049790,-0.269448,-30.338696,-1.195995,-2.276174,50.122620,9.038467,-1.923777,12.262809,5.556170,15.077328,2.619255,-0.932416,-6.274936,0.053073,0.019858,-0.072534,-0.162435,-0.055925,-0.985133,0.000000,0.000000,0.000000,-0.052203,-0.001822,-0.025302,0.133091,0.223425,0.131922,0.007718,-0.153877,-0.021754,0.124414,0.058474,0.059634,-0.002210,0.000307,-0.009817,-0.060312,0.100701,-0.037014,-0.008276,0.037261,-0.000642,0.012241,-0.047668,0.056597,-0.406227,-0.015546,-0.055175,0.656325,0.980498,-0.033993,0.151977,0.015161,0.114974,0.102405,-0.049790,-0.269448
1005,0.062104,-0.161549,0.098651,0.218713,0.040188,-0.205856,-0.055367,-0.001822,-0.277507,-0.387905,0.516568,0.127656,0.005992,-0.140887,-0.271850,-0.371799,0.286279,0.085280,-0.130628,0.000815,0.077945,-0.962909,1.711060,0.016778,0.034275,0.556787,-0.065865,0.484690,-1.124648,1.194060,0.000000,0.000000,0.000000,-0.321266,-0.003860,0.051169,0.555624,0.755804,0.017586,0.208098,-0.017051,0.028730,0.191178,-0.084623,-0.308409,-23.142355,-0.237687,7.990620,42.408932,5.036942,-1.895944,16.319281,2.872351,5.812957,8.903276,-0.676881,-7.332127,0.054678,0.010047,-0.051464,-0.160847,-0.061256,-0.985077,0.000000,0.000000,0.000000,-0.055367,-0.001822,-0.027507,0.112095,0.266568,0.127656,0.005992,-0.140887,-0.021850,0.128201,0.036279,0.085280,-0.006531,0.000041,0.003897,-0.048145,0.085553,0.000839,0.001714,0.027839,-0.003293,0.024235,-0.056232,0.059703,-0.321266,-0.003860,0.051169,0.555624,0.755804,0.017586,0.208098,-0.017051,0.028730,0.191178,-0.084623,-0.308409
1025,0.065908,-0.160411,0.097534,0.132880,0.115650,0.070413,-0.057428,-0.001822,-0.275158,-0.404396,0.528265,0.134703,0.006663,-0.133025,-0.271898,-0.364464,0.264947,0.111166,0.010882,0.002109,0.380427,-0.749350,0.030344,0.546577,0.016394,0.244478,-0.077035,0.263126,-1.003847,1.291132,0.000000,0.000000,0.000000,-0.162409,-0.007108,0.135433,0.441870,0.426233,0.088430,0.205017,-0.084892,-0.044814,0.287559,-0.026180,-0.399508,-10.634452,-0.480881,15.840361,33.453117,1.244112,-1.186003,16.045813,-2.234730,-2.474087,16.726852,0.267026,-9.184151,0.033220,0.028913,0.017603,-0.159724,-0.065015,-0.985018,0.000000,0.000000,0.000000,-0.057428,-0.001822,-0.025158,0.095604,0.278265,0.134703,0.006663,-0.133025,-0.021898,0.135536,0.014947,0.111166,0.000544,0.000105,0.019021,-0.037467,0.001517,0.027329,0.000820,0.012224,-0.003852,0.013156,-0.050192,0.064557,-0.162409,-0.007108,0.135433,0.441870,0.426233,0.088430,0.205017,-0.084892,-0.044814,0.287559,-0.026180,-0.399508
1045,0.067816,-0.156479,0.100670,0.103347,0.263120,0.168912,-0.055079,-0.002253,-0.263653,-0.412833,0.509905,0.164519,0.006903,-0.132833,-0.271898,-0.358999,0.241698,0.136908,0.294189,-0.010354,0.675047,-0.309864,-1.636901,1.497405,-0.023201,-0.162027,-0.150090,0.344810,-0.848196,1.282887,0.000000,0.000000,0.000000,0.032164,-0.027907,0.188826,0.306402,0.082717,0.129253,0.165052,-0.159697,-0.076955,0.399563,0.121083,-0.500539,4.184610,-2.107975,18.946619,22.031662,-1.959766,-2.477696,12.967653,-7.250454,-5.580589,25.416298,3.160253,-10.960167,0.025837,0.065780,0.042228,-0.155841,-0.066936,-0.985512,0.000000,0.000000,0.000000,-0.055079,-0.002253,-0.013653,0.087167,0.259905,0.164519,0.006903,-0.132833,-0.021898,0.141001,-0.008302,0.136908,0.014709,-0.000518,0.033752,-0.015493,-0.081845,0.074870,-0.001160,-0.008101,-0.007505,0.017241,-0.042410,0.064144,0.032164,-0.027907,0.188826,0.306402,0.082717,0.129253,0.165052,-0.159697,-0.076955,0.399563,0.121083,-0.500539
1066,0.068809,-0.152011,0.106597,0.071027,0.220539,0.401719,-0.050046,-0.002061,-0.249895,-0.412497,0.453627,0.198075,0.005752,-0.136716,-0.273576,-0.355164,0.233405,0.154788,0.604868,0.032262,0.711911,0.149803,-3.367232,1.741883,-0.100620,-0.501516,-0.044438,0.107475,-0.214326,0.621885,0.000000,0.000000,0.000000,0.124588,-0.049921,0.230571,0.251060,-0.161418,0.082204,0.151556,-0.178650,-0.098479,0.497546,0.348085,-0.578026,10.524533,-3.951067,21.415560,16.282505,-2.660156,-3.897194,12.127094,-7.593476,-8.393067,33.605007,5.798963,-11.993078,0.017757,0.055135,0.100430,-0.151426,-0.067962,-0.986129,0.000000,0.000000,0.000000,-0.050046,-0.002061,0.000105,0.087503,0.203627,0.198075,0.005752,-0.136716,-0.023576,0.144836,-0.016595,0.154788,0.030243,0.001613,0.035596,0.007490,-0.168362,0.087094,-0.005031,-0.025076,-0.002222,0.005374,-0.010716,0.031094,0.124588,-0.049921,0.230571,0.251060,-0.161418,0.082204,0.151556,-0.178650,-0.098479,0.497546,0.348085,-0.578026
1086,0.068452,-0.149815,0.116741,-0.013300,0.140015,0.564057,-0.034275,-0.001965,-0.236137,-0.405211,0.387953,0.249703,0.003979,-0.147694,-0.273192,-0.355500,0.241746,0.162123,0.772359,-0.037822,0.608080,0.491881,-3.031434,2.498759,-0.034227,-0.549261,0.053306,-0.014429,0.642163,0.159774,0.000000,0.000000,0.000000,0.103912,-0.091330,0.192539,0.319409,-0.132623,0.005179,0.169002,-0.185329,-0.113496,0.547100,0.595905,-0.615146,7.694509,-7.137141,16.499763,20.671444,-1.153622,-6.728968,13.493979,-7.496311,-10.773193,37.985165,8.483841,-12.159203,-0.003325,0.035004,0.141014,-0.149255,-0.067632,-0.986483,0.000000,0.000000,0.000000,-0.034275,-0.001965,0.013863,0.094789,0.137953,0.249703,0.003979,-0.147694,-0.023192,0.144500,-0.008254,0.162123,0.038618,-0.001891,0.030404,0.024594,-0.151572,0.124938,-0.001711,-0.027463,0.002665,-0.000721,0.032108,0.007989,0.103912,-0.091330,0.192539,0.319409,-0.132623,0.005179,0.169002,-0.185329,-0.113496,0.547100,0.595905,-0.615146
1106,0.067500,-0.147667,0.127087,-0.018686,0.137978,0.350349,-0.024688,-0.002013,-0.225879,-0.391021,0.346488,0.283307,0.002732,-0.157377,-0.271850,-0.358520,0.257948,0.162171,0.092374,-0.007286,0.365902,0.863248,-1.126901,1.019714,-0.131779,-0.377551,0.129573,-0.244191,0.781324,0.007286,0.000000,0.000000,0.000000,-0.052023,-0.130642,0.087966,0.540406,0.186472,-0.207650,0.140861,-0.142943,-0.073135,0.477649,0.781315,-0.612797,-3.406216,-10.351783,5.197259,36.645397,2.381682,-8.957074,11.496119,-4.146381,-6.879789,33.151825,10.751680,-11.920458,-0.004672,0.034494,0.087587,-0.147131,-0.066715,-0.986865,0.000000,0.000000,0.000000,-0.024688,-0.002013,0.024121,0.108979,0.096488,0.283307,0.002732,-0.157377,-0.021850,0.141480,0.007948,0.162171,0.004619,-0.000364,0.018295,0.043162,-0.056345,0.050986,-0.006589,-0.018878,0.006479,-0.012210,0.039066,0.000364,-0.052023,-0.130642,0.087966,0.540406,0.186472,-0.207650,0.140861,-0.142943,-0.073135,0.477649,0.781315,-0.612797
1126,0.064982,-0.144965,0.130500,-0.013124,0.084950,-0.030863,-0.032837,-0.002013,-0.221612,-0.368395,0.373524,0.278418,0.002972,-0.163321,-0.269597,-0.365615,0.278561,0.160684,-0.749398,-0.013950,-0.045013,1.432834,2.023800,-0.908404,0.009587,-0.119938,0.194192,-0.525724,1.233512,-0.100332,0.000000,0.000000,0.000000,-0.222893,-0.141019,-0.045074,0.789758,0.631919,-0.485020,0.062826,-0.010414,0.022710,0.264037,0.756046,-0.555734,-15.152821,-11.182185,-8.424215,54.581497,5.674541,-11.671036,4.772544,6.326194,3.566185,16.716425,9.854983,-10.968783,-0.003281,0.021237,-0.007716,-0.144458,-0.064255,-0.987422,0.000000,0.000000,0.000000,-0.032837,-0.002013,0.028388,0.131605,0.123524,0.278418,0.002972,-0.163321,-0.019597,0.134385,0.028561,0.160684,-0.037470,-0.000697,-0.002251,0.071642,0.101190,-0.045420,0.000479,-0.005997,0.009710,-0.026286,0.061676,-0.005017,-0.222893,-0.141019,-0.045074,0.789758,0.631919,-0.485020,0.062826,-0.010414,0.022710,0.264037,0.756046,-0.555734
1146,0.062442,-0.144894,0.128704,-0.283632,-0.087543,-0.103042,-0.056566,0.000048,-0.223578,-0.355021,0.402286,0.255360,0.004123,-0.160349,-0.267056,-0.381050,0.309385,0.154836,-1.653344,0.118979,-0.386132,0.018216,1.031410,-0.661146,-0.078856,0.594801,0.331340,-0.838704,1.489016,-0.074877,0.000000,0.000000,0.000000,-0.341183,-0.100653,-0.139003,0.897001,0.913333,-0.639841,-0.005560,0.105330,0.104216,0.111509,0.476987,-0.491583,-21.828712,-8.445559,-16.347221,64.984329,9.977117,-13.204762,-0.334037,13.866758,11.579992,5.847450,4.938025,-9.729597,-0.070908,-0.021886,-0.025760,-0.144387,-0.061748,-0.987593,0.000000,0.000000,0.000000,-0.056566,0.000048,0.026422,0.144979,0.152286,0.255360,0.004123,-0.160349,-0.017056,0.118950,0.059385,0.154836,-0.082667,0.005949,-0.019307,0.000911,0.051571,-0.033057,-0.003943,0.029740,0.016567,-0.041935,0.074451,-0.003744,-0.341183,-0.100653,-0.139003,0.897001,0.913333,-0.639841,-0.005560,0.105330,0.104216,0.111509,0.476987,-0.491583
1166,0.057574,-0.147810,0.126096,0.017745,-0.338493,-0.151158,-0.072529,0.000096,-0.232398,-0.360677,0.442026,0.236041,0.001438,-0.144578,-0.262359,-0.390063,0.329662,0.148988,-0.058243,-0.065098,-0.457797,-0.615462,2.170056,-0.854523,0.015292,0.827391,0.181345,-0.170607,0.540872,-0.628357,0.000000,0.000000,0.000000,-0.360466,-0.069377,-0.152453,0.821429,0.948346,-0.592556,0.020330,0.048717,0.110669,0.223079,0.175733,-0.502916,-24.808287,-5.255508,-16.063925,60.851395,8.741450,-11.971294,1.535915,7.791514,12.601102,14.329348,0.527182,-9.756920,0.004436,-0.084623,-0.037789,-0.147272,-0.056915,-0.987457,0.000000,0.000000,0.000000,-0.072529,0.000096,0.017602,0.139323,0.192026,0.236041,0.001438,-0.144578,-0.012359,0.109937,0.079662,0.148988,-0.002912,-0.003255,-0.022890,-0.030773,0.108503,-0.042726,0.000765,0.041370,0.009067,-0.008530,0.027044,-0.031418,-0.360466,-0.069377,-0.152453,0.821429,0.948346,-0.592556,0.020330,0.048717,0.110669,0.223079,0.175733,-0.502916
1186,0.060489,-0.148830,0.117516,0.175942,0.033545,-0.664437,-0.069461,0.001774,-0.239828,-0.379277,0.470692,0.234268,0.003116,-0.129526,-0.258284,-0.383112,0.336565,0.139736,0.303824,0.110015,-0.211833,-0.914636,1.671368,-0.115720,0.234843,0.673226,0.077274,0.708987,0.064140,-0.109776,0.000000,0.000000,0.000000,-0.163440,-0.046643,-0.068159,0.678240,0.752704,-0.520688,0.152418,-0.021509,0.002414,0.393599,-0.003600,-0.535822,-11.087544,-4.161110,-7.312816,51.864674,6.040273,-11.669375,11.490349,1.692697,0.611051,24.979464,-1.621471,-10.181858,0.043986,0.008386,-0.166109,-0.148281,-0.059784,-0.987137,0.000000,0.000000,0.000000,-0.069461,0.001774,0.010172,0.120723,0.220692,0.234268,0.003116,-0.129526,-0.008284,0.116888,0.086565,0.139736,0.015191,0.005501,-0.010592,-0.045732,0.083568,-0.005786,0.011742,0.033661,0.003864,0.035449,0.003207,-0.005489,-0.163440,-0.046643,-0.068159,0.678240,0.752704,-0.520688,0.152418,-0.021509,0.002414,0.393599,-0.003600,-0.535822
1206,0.066693,-0.147793,0.103938,0.125813,0.035201,-0.628290,-0.064811,-0.001150,-0.241890,-0.394664,0.517862,0.213655,0.004027,-0.119555,-0.253874,-0.375442,0.317534,0.159726,0.282972,-0.018360,0.187865,-0.775811,1.773330,-1.348273,0.018552,0.416859,0.069461,0.113131,-1.184329,1.012763,0.000000,0.000000,0.000000,-0.010546,-0.008366,0.156761,0.462912,0.426735,-0.495845,0.192776,-0.021944,-0.091173,0.458849,-0.078806,-0.540064,1.135375,-0.614842,15.956455,34.790672,-0.212490,-9.561304,15.277589,1.934037,-10.357452,31.250513,-1.142594,-11.930121,0.031453,0.008800,-0.157073,-0.147256,-0.065917,-0.986899,0.000000,0.000000,0.000000,-0.064811,-0.001150,0.008110,0.105336,0.267862,0.213655,0.004027,-0.119555,-0.003874,0.124558,0.067534,0.159726,0.014149,-0.000918,0.009393,-0.038791,0.088666,-0.067414,0.000928,0.020843,0.003473,0.005657,-0.059216,0.050638,-0.010546,-0.008366,0.156761,0.462912,0.426735,-0.495845,0.192776,-0.021944,-0.091173,0.458849,-0.078806,-0.540064
1226,0.069180,-0.144558,0.095388,0.016060,0.117770,-0.238760,-0.057476,-0.001630,-0.234747,-0.408950,0.531141,0.199849,0.008916,-0.113610,-0.253922,-0.371990,0.289107,0.183071,0.548734,-0.041513,0.666946,-0.709898,-0.212217,-0.371080,0.304783,0.225447,-0.116343,0.345913,-1.226705,0.955670,0.000000,0.000000,0.000000,0.066446,-0.019783,0.245537,0.316361,-0.022806,-0.395116,0.149354,-0.068379,-0.153643,0.513596,-0.078297,-0.610817,6.565474,-1.418365,23.048347,23.339596,-5.919812,-8.334037,10.943275,-1.588154,-16.614862,35.531906,-0.289973,-13.339464,0.004015,0.029443,-0.059690,-0.144055,-0.068404,-0.987203,0.000000,0.000000,0.000000,-0.057476,-0.001630,0.015253,0.091050,0.281141,0.199849,0.008916,-0.113610,-0.003922,0.128010,0.039107,0.183071,0.027437,-0.002076,0.033347,-0.035495,-0.010611,-0.018554,0.015239,0.011272,-0.005817,0.017296,-0.061335,0.047784,0.066446,-0.019783,0.245537,0.316361,-0.022806,-0.395116,0.149354,-0.068379,-0.153643,0.513596,-0.078297,-0.610817
1246,0.070401,-0.140864,0.091733,0.072269,0.090683,-0.140791,-0.047553,-0.001198,-0.218880,-0.418633,0.490395,0.219647,0.010450,-0.110159,-0.255695,-0.365663,0.270987,0.204019,0.751267,-0.140503,0.866172,-0.413695,-2.791510,1.419555,-0.134175,-0.109967,-0.022962,0.255024,-0.966216,1.093489,0.000000,0.000000,0.000000,0.093820,-0.056576,0.268879,0.257856,-0.418019,-0.283449,0.071225,-0.129354,-0.145996,0.532196,0.023528,-0.698995,7.739431,-4.124492,21.906755,18.568272,-8.152452,-8.898634,5.423839,-5.747711,-15.420848,36.510891,0.780040,-15.190631,0.018067,0.022671,-0.035198,-0.140399,-0.069646,-0.987642,0.000000,0.000000,0.000000,-0.047553,-0.001198,0.031120,0.081367,0.240395,0.219647,0.010450,-0.110159,-0.005695,0.134337,0.020987,0.204019,0.037563,-0.007025,0.043309,-0.020685,-0.139575,0.070978,-0.006709,-0.005498,-0.001148,0.012751,-0.048311,0.054674,0.093820,-0.056576,0.268879,0.257856,-0.418019,-0.283449,0.071225,-0.129354,-0.145996,0.532196,0.023528,-0.698995
1266,0.069854,-0.141372,0.093015,-0.101110,-0.110078,0.377076,-0.033556,-0.002349,-0.203780,-0.419927,0.429706,0.260825,0.008725,-0.111214,-0.253347,-0.364560,0.261783,0.218305,0.538475,-0.047458,0.638184,0.102058,-2.662272,2.031326,-0.003499,-0.011121,0.201047,-0.076555,0.146112,0.520595,0.000000,0.000000,0.000000,0.061088,-0.085951,0.257318,0.315951,-0.511984,-0.283118,0.087720,-0.114355,-0.165539,0.527898,0.203153,-0.726721,4.716528,-6.633830,20.259830,22.055098,-7.509665,-10.642185,6.868549,-4.532536,-19.339287,36.865360,3.055763,-15.271651,-0.025278,-0.027519,0.094269,-0.140902,-0.069101,-0.987609,0.000000,0.000000,0.000000,-0.033556,-0.002349,0.046220,0.080073,0.179706,0.260825,0.008725,-0.111214,-0.003347,0.135440,0.011783,0.218305,0.026924,-0.002373,0.031909,0.005103,-0.133114,0.101566,-0.000175,-0.000556,0.010052,-0.003828,0.007306,0.026030,0.061088,-0.085951,0.257318,0.315951,-0.511984,-0.283118,0.087720,-0.114355,-0.165539,0.527898,0.203153,-0.726721
1286,0.066772,-0.144670,0.101048,-0.029106,-0.093617,0.575923,-0.028810,-0.004746,-0.193665,-0.411874,0.403293,0.299222,0.011025,-0.110734,-0.249751,-0.369354,0.273480,0.217634,-0.060065,-0.184701,0.378654,0.687128,-0.859988,1.554066,0.168115,0.035234,0.160493,-0.226885,0.772407,-0.119507,0.000000,0.000000,0.000000,-0.090952,-0.130019,0.115593,0.487314,-0.296437,-0.375699,0.105976,-0.128884,-0.143913,0.538035,0.479412,-0.766220,-6.144724,-9.827727,5.066530,33.974571,-6.085929,-12.220535,7.637852,-5.982899,-17.349115,38.369385,6.021587,-15.107145,-0.007277,-0.023404,0.143981,-0.144166,-0.066026,-0.987348,0.000000,0.000000,0.000000,-0.028810,-0.004746,0.056335,0.088126,0.153293,0.299222,0.011025,-0.110734,0.000249,0.130646,0.023480,0.217634,-0.003003,-0.009235,0.018933,0.034356,-0.042999,0.077703,0.008406,0.001762,0.008025,-0.011344,0.038620,-0.005975,-0.090952,-0.130019,0.115593,0.487314,-0.296437,-0.375699,0.105976,-0.128884,-0.143913,0.538035,0.479412,-0.766220
1307,0.066217,-0.144990,0.111450,0.022762,-0.078225,0.383433,-0.038685,-0.011553,-0.189590,-0.389871,0.382536,0.316479,0.012559,-0.110207,-0.247690,-0.372853,0.285800,0.211737,-0.761382,-0.490299,0.028522,1.327900,0.164376,0.190597,-0.005369,0.055894,0.109248,-0.254114,0.679458,-0.144722,0.000000,0.000000,0.000000,-0.171588,-0.143496,0.018153,0.661223,-0.007771,-0.546634,0.092234,-0.095217,-0.077941,0.461593,0.608368,-0.747330,-10.507648,-9.858938,-4.371747,45.298431,-2.012974,-13.904312,6.854952,-3.302481,-9.676901,32.392857,7.816552,-14.646996,0.005691,-0.019556,0.095858,-0.144483,-0.065474,-0.987339,0.000000,0.000000,0.000000,-0.038685,-0.011553,0.060410,0.110129,0.132536,0.316479,0.012559,-0.110207,0.002310,0.127147,0.035800,0.211737,-0.038069,-0.024515,0.001426,0.066395,0.008219,0.009530,-0.000268,0.002795,0.005462,-0.012706,0.033973,-0.007236,-0.171588,-0.143496,0.018153,0.661223,-0.007771,-0.546634,0.092234,-0.095217,-0.077941,0.461593,0.608368,-0.747330
1327,0.065678,-0.144891,0.116021,0.030251,-0.024961,0.043396,-0.055799,-0.021188,-0.188440,-0.364320,0.395767,0.309385,0.011984,-0.109152,-0.246731,-0.378654,0.300612,0.203300,-1.198614,-0.386995,-0.238294,1.064007,0.709035,-0.146447,-0.094004,0.103688,0.059154,-0.320314,0.665556,-0.169361,0.000000,0.000000,0.000000,-0.194304,-0.129500,-0.040234,0.720807,0.284397,-0.651912,0.054861,-0.029806,-0.018045,0.377192,0.519138,-0.674830,-10.839563,-8.323352,-9.345477,48.639919,1.373468,-14.385550,4.091595,1.812267,-2.658898,25.992195,6.121799,-13.167227,0.007563,-0.006240,0.010849,-0.144385,-0.064943,-0.987388,0.000000,0.000000,0.000000,-0.055799,-0.021188,0.061560,0.135680,0.145767,0.309385,0.011984,-0.109152,0.003269,0.121346,0.050612,0.203300,-0.059931,-0.019350,-0.011915,0.053200,0.035452,-0.007322,-0.004700,0.005184,0.002958,-0.016016,0.033278,-0.008468,-0.194304,-0.129500,-0.040234,0.720807,0.284397,-0.651912,0.054861,-0.029806,-0.018045,0.377192,0.519138,-0.674830
1347,0.062554,-0.146424,0.117047,-0.209583,0.057618,0.072465,-0.073439,-0.028906,-0.194001,-0.358952,0.399938,0.306652,0.012032,-0.106899,-0.247930,-0.382057,0.305742,0.200712,-0.466953,-0.420886,-0.236952,-0.028570,0.238774,-0.388768,0.083602,0.174299,0.048416,-0.044006,0.213415,-0.124828,0.000000,0.000000,0.000000,-0.164318,-0.076603,-0.012046,0.653628,0.377947,-0.658706,0.056195,-0.014475,0.007615,0.368882,0.298939,-0.627716,-8.267404,-4.027071,-5.577359,46.420879,3.097050,-14.641212,3.845750,2.744666,0.182956,25.081207,3.401177,-12.674433,-0.052396,0.014404,0.018116,-0.145901,-0.061845,-0.987364,0.000000,0.000000,0.000000,-0.073439,-0.028906,0.055999,0.141048,0.149938,0.306652,0.012032,-0.106899,0.002070,0.117943,0.055742,0.200712,-0.023348,-0.021044,-0.011848,-0.001429,0.011939,-0.019438,0.004180,0.008715,0.002421,-0.002200,0.010671,-0.006241,-0.164318,-0.076603,-0.012046,0.653628,0.377947,-0.658706,0.056195,-0.014475,0.007615,0.368882,0.298939,-0.627716
1367,0.062175,-0.144218,0.113852,-0.096856,0.082378,-0.216479,-0.072960,-0.033364,-0.197548,-0.364704,0.406313,0.300181,0.012847,-0.104742,-0.244862,-0.374195,0.309337,0.191843,0.179428,-0.089498,-0.131059,-0.417578,-0.017833,-0.166101,0.009779,0.114617,0.031207,0.664310,0.104359,-0.461009,0.000000,0.000000,0.000000,-0.047799,-0.066138,0.037612,0.445878,0.247138,-0.527065,0.077077,-0.075461,-0.000536,0.508675,0.149431,-0.675425,-1.296050,-3.542698,-0.102742,31.262505,1.004953,-12.544060,5.530897,-2.261305,-0.670687,34.126671,1.151976,-12.664495,-0.024214,0.020595,-0.054120,-0.143719,-0.061490,-0.987706,0.000000,0.000000,0.000000,-0.072960,-0.033364,0.052452,0.135296,0.156313,0.300181,0.012847,-0.104742,0.005138,0.125805,0.059337,0.191843,0.008971,-0.004475,-0.006553,-0.020879,-0.000892,-0.008305,0.000489,0.005731,0.001560,0.033215,0.005218,-0.023050,-0.047799,-0.066138,0.037612,0.445878,0.247138,-0.527065,0.077077,-0.075461,-0.000536,0.508675,0.149431,-0.675425
1387,0.065560,-0.140962,0.105289,0.219744,0.251338,-0.531994,-0.069461,-0.034131,-0.200856,-0.370504,0.406601,0.297353,0.012224,-0.106899,-0.243759,-0.362786,0.290689,0.195726,0.417770,0.012128,0.122431,-0.254449,-0.477979,-0.140024,0.006567,-0.143283,0.009779,0.588905,-1.269561,0.286998,0.000000,0.000000,0.000000,0.095050,-0.043893,0.163282,0.247158,0.034034,-0.454118,0.168051,-0.077094,-0.099594,0.634502,0.138225,-0.691408,9.469076,-2.154626,12.888503,15.195191,-1.771200,-11.629890,12.907752,-1.537060,-11.913246,43.907990,2.657814,-13.877724,0.054936,0.062834,-0.132999,-0.140496,-0.064863,-0.987954,0.000000,0.000000,0.000000,-0.069461,-0.034131,0.049144,0.129496,0.156601,0.297353,0.012224,-0.106899,0.006241,0.137214,0.040689,0.195726,0.020889,0.000606,0.006122,-0.012722,-0.023899,-0.007001,0.000328,-0.007164,0.000489,0.029445,-0.063478,0.014350,0.095050,-0.043893,0.163282,0.247158,0.034034,-0.454118,0.168051,-0.077094,-0.099594,0.634502,0.138225,-0.691408
1407,0.070404,-0.135977,0.096608,0.135374,0.077078,-0.241415,-0.059298,-0.034419,-0.197021,-0.373620,0.394856,0.295004,0.011553,-0.110207,-0.243184,-0.351953,0.270077,0.206368,0.853804,0.001390,0.335462,-0.185851,-0.249224,0.054840,0.053018,-0.173196,0.011505,0.381002,-0.941433,0.487662,0.000000,0.000000,0.000000,0.148731,-0.034662,0.294784,0.175632,-0.098376,-0.447871,0.259379,-0.048838,-0.164458,0.633274,0.263562,-0.655618,12.096936,-1.393596,25.796494,9.448053,-3.639833,-11.726079,20.150414,0.964023,-19.249453,43.738659,4.621965,-13.817347,0.033844,0.019270,-0.060354,-0.135559,-0.069697,-0.988315,0.000000,0.000000,0.000000,-0.059298,-0.034419,0.052979,0.126380,0.144856,0.295004,0.011553,-0.110207,0.006816,0.148047,0.020077,0.206368,0.042690,0.000070,0.016773,-0.009293,-0.012461,0.002742,0.002651,-0.008660,0.000575,0.019050,-0.047072,0.024383,0.148731,-0.034662,0.294784,0.175632,-0.098376,-0.447871,0.259379,-0.048838,-0.164458,0.633274,0.263562,-0.655618
1427,0.070850,-0.134669,0.094927,-0.033869,-0.015654,0.008170,-0.040363,-0.033843,-0.190214,-0.374100,0.388481,0.295291,0.015484,-0.112987,-0.243040,-0.349796,0.260681,0.212696,0.818475,0.036096,0.307515,0.081637,-0.241890,0.000431,0.261831,-0.135374,-0.017305,-0.025311,-0.090745,0.179955,0.000000,0.000000,0.000000,0.052100,-0.066560,0.251053,0.282390,-0.084238,-0.461926,0.246935,-0.072238,-0.175835,0.604859,0.497739,-0.661874,3.591750,-4.064493,20.246269,17.519068,-3.282349,-11.885459,18.761272,-0.936555,-20.439585,42.223476,7.901402,-13.793181,-0.008467,-0.003913,0.002043,-0.134262,-0.070150,-0.988460,0.000000,0.000000,0.000000,-0.040363,-0.033843,0.059786,0.125900,0.138481,0.295291,0.015484,-0.112987,0.006960,0.150204,0.010681,0.212696,0.040924,0.001805,0.015376,0.004082,-0.012094,0.000022,0.013092,-0.006769,-0.000865,-0.001266,-0.004537,0.008998,0.052100,-0.066560,0.251053,0.282390,-0.084238,-0.461926,0.246935,-0.072238,-0.175835,0.604859,0.497739,-0.661874
1447,0.068579,-0.137193,0.098431,-0.189316,-0.177135,0.372773,-0.032885,-0.033604,-0.187721,-0.368443,0.387762,0.291936,0.020086,-0.112652,-0.242992,-0.354637,0.268686,0.210203,0.008868,-0.049375,-0.034898,0.488094,0.155603,-0.226742,0.134271,-0.041130,0.016586,-0.385509,0.486751,-0.208813,0.000000,0.000000,0.000000,-0.119679,-0.090790,0.154286,0.478612,0.082804,-0.552289,0.132809,-0.058427,-0.137323,0.502510,0.699932,-0.654179,-8.691374,-5.828871,11.158402,32.051537,-1.117804,-13.052804,9.375700,0.074449,-16.385527,35.143196,9.642009,-13.308860,-0.047329,-0.044284,0.093193,-0.136763,-0.067882,-0.988275,0.000000,0.000000,0.000000,-0.032885,-0.033604,0.062279,0.131557,0.137762,0.291936,0.020086,-0.112652,0.007008,0.145363,0.018686,0.210203,0.000443,-0.002469,-0.001745,0.024405,0.007780,-0.011337,0.006714,-0.002056,0.000829,-0.019275,0.024338,-0.010441,-0.119679,-0.090790,0.154286,0.478612,0.082804,-0.552289,0.132809,-0.058427,-0.137323,0.502510,0.699932,-0.654179
1467,0.064601,-0.141348,0.106079,-0.161012,-0.154864,0.456881,-0.041034,-0.036240,-0.189447,-0.357226,0.404300,0.279089,0.020373,-0.110638,-0.242992,-0.362930,0.287573,0.197117,-0.710089,-0.189495,-0.262838,0.593219,1.153793,-0.743549,-0.138442,0.157904,0.028618,-0.480376,1.125127,-0.879642,0.000000,0.000000,0.000000,-0.224036,-0.121447,-0.006529,0.637753,0.298504,-0.609464,0.004324,-0.039922,-0.058905,0.402619,0.700914,-0.643480,-14.723130,-7.828773,-5.204519,43.624027,0.721204,-12.957058,-0.186782,0.917258,-7.501810,27.875641,8.747725,-12.218748,-0.040253,-0.038716,0.114220,-0.140878,-0.063912,-0.987962,0.000000,0.000000,0.000000,-0.041034,-0.036240,0.060553,0.142774,0.154300,0.279089,0.020373,-0.110638,0.007008,0.137070,0.037573,0.197117,-0.035504,-0.009475,-0.013142,0.029661,0.057690,-0.037177,-0.006922,0.007895,0.001431,-0.024019,0.056256,-0.043982,-0.224036,-0.121447,-0.006529,0.637753,0.298504,-0.609464,0.004324,-0.039922,-0.058905,0.402619,0.700914,-0.643480
1487,0.060345,-0.145084,0.112577,-0.145557,-0.224816,0.174524,-0.057428,-0.037439,-0.192467,-0.354254,0.411442,0.276788,0.017209,-0.108002,-0.243711,-0.372949,0.310391,0.181633,-1.182460,0.003931,-0.315856,-0.053881,-0.374723,-0.149228,-0.307611,0.161979,0.030296,-0.502810,1.014393,-0.829500,0.000000,0.000000,0.000000,-0.218724,-0.108983,-0.059667,0.681967,0.380855,-0.614851,-0.021013,-0.043260,0.013221,0.359189,0.503542,-0.627099,-12.264499,-7.186852,-10.509145,48.805256,3.209681,-13.697493,-1.556738,0.432559,0.639192,24.935720,5.437133,-11.529989,-0.036389,-0.056204,0.043631,-0.144575,-0.059675,-0.987693,0.000000,0.000000,0.000000,-0.057428,-0.037439,0.057533,0.145746,0.161442,0.276788,0.017209,-0.108002,0.006289,0.127051,0.060391,0.181633,-0.059123,0.000197,-0.015793,-0.002694,-0.018736,-0.007461,-0.015381,0.008099,0.001515,-0.025141,0.050720,-0.041475,-0.218724,-0.108983,-0.059667,0.681967,0.380855,-0.614851,-0.021013,-0.043260,0.013221,0.359189,0.503542,-0.627099
1507,0.060896,-0.147454,0.111879,0.325501,-0.036584,-0.118207,-0.069173,-0.037103,-0.199322,-0.358185,0.411586,0.276979,0.010882,-0.107283,-0.245916,-0.375969,0.324485,0.166725,-0.080390,0.066632,-0.319068,-0.350563,0.001678,0.016155,-0.189686,0.041274,-0.029673,0.117445,0.462208,-1.016933,0.000000,0.000000,0.000000,-0.146859,-0.065012,-0.032566,0.598145,0.360566,-0.541493,0.031451,-0.060001,-0.005843,0.423281,0.286707,-0.607973,-8.763747,-3.880605,-6.672775,43.050049,2.695505,-12.786650,2.564080,-0.595108,-0.874815,28.578417,2.557180,-10.830629,0.081375,-0.009146,-0.029552,-0.146920,-0.060198,-0.987315,0.000000,0.000000,0.000000,-0.069173,-0.037103,0.050678,0.141815,0.161586,0.276979,0.010882,-0.107283,0.004084,0.124031,0.074485,0.166725,-0.004020,0.003332,-0.015953,-0.017528,0.000084,0.000808,-0.009484,0.002064,-0.001484,0.005872,0.023110,-0.050847,-0.146859,-0.065012,-0.032566,0.598145,0.360566,-0.541493,0.031451,-0.060001,-0.005843,0.423281,0.286707,-0.607973
1527,0.065746,-0.148382,0.106642,0.231182,-0.090622,-0.382359,-0.067975,-0.035282,-0.204978,-0.368012,0.415709,0.276500,0.008772,-0.107762,-0.243088,-0.371223,0.326978,0.156130,0.216052,0.097264,-0.166053,-0.496099,0.393706,-0.070132,0.144913,-0.018887,-0.011553,0.251813,-0.415325,-0.192371,0.000000,0.000000,0.000000,0.014665,-0.031939,0.063662,0.506418,0.294800,-0.495957,0.175700,-0.055833,-0.026351,0.430722,0.099219,-0.564351,3.500233,-1.413180,3.951947,36.455650,1.275040,-12.074531,13.484038,-0.144411,-3.466391,28.739901,0.186834,-10.702431,0.057796,-0.022656,-0.095590,-0.147838,-0.064977,-0.986875,0.000000,0.000000,0.000000,-0.067975,-0.035282,0.045022,0.131988,0.165709,0.276500,0.008772,-0.107762,0.006912,0.128777,0.076978,0.156130,0.010803,0.004863,-0.008303,-0.024805,0.019685,-0.003507,0.007246,-0.000944,-0.000578,0.012591,-0.020766,-0.009619,0.014665,-0.031939,0.063662,0.506418,0.294800,-0.495957,0.175700,-0.055833,-0.026351,0.430722,0.099219,-0.564351
1547,0.071231,-0.148858,0.098097,0.205244,0.016184,-0.383182,-0.063612,-0.034898,-0.207663,-0.374291,0.422372,0.267392,0.014669,-0.109344,-0.242992,-0.365567,0.308234,0.161451,0.315808,-0.002876,0.150714,-0.293614,0.126937,-0.432966,0.375873,-0.063277,-0.017593,0.247642,-1.037355,0.300229,0.000000,0.000000,0.000000,0.027409,-0.020160,0.127747,0.421739,0.197955,-0.480516,0.205194,-0.044171,-0.089671,0.487826,0.049482,-0.550373,3.955377,-0.250886,9.572309,29.407719,-0.144738,-11.143795,14.920696,0.972674,-10.639267,32.962566,0.525201,-11.171747,0.051311,0.004046,-0.095795,-0.148309,-0.070384,-0.986433,0.000000,0.000000,0.000000,-0.063612,-0.034898,0.042337,0.125709,0.172372,0.267392,0.014669,-0.109344,0.007008,0.134433,0.058234,0.161451,0.015790,-0.000144,0.007536,-0.014681,0.006347,-0.021648,0.018794,-0.003164,-0.000880,0.012382,-0.051868,0.015011,0.027409,-0.020160,0.127747,0.421739,0.197955,-0.480516,0.205194,-0.044171,-0.089671,0.487826,0.049482,-0.550373
1568,0.072925,-0.147989,0.093950,-0.043072,0.006903,-0.089115,-0.058819,-0.034946,-0.203780,-0.377695,0.419927,0.263126,0.018647,-0.111022,-0.242992,-0.362115,0.286663,0.174874,0.398499,-0.015915,0.234987,-0.072624,-0.306652,-0.164376,0.061359,-0.092518,-0.016155,0.179524,-1.018995,0.559424,0.000000,0.000000,0.000000,0.017672,-0.027824,0.179650,0.413065,0.121217,-0.477217,0.166591,-0.048753,-0.111722,0.466036,0.151658,-0.546523,2.741316,-0.776431,14.153770,28.417988,-0.791253,-11.358141,12.443398,0.771333,-13.203220,31.292694,2.770062,-11.811936,-0.010768,0.001726,-0.022279,-0.147450,-0.072064,-0.986441,0.000000,0.000000,0.000000,-0.058819,-0.034946,0.046220,0.122305,0.169927,0.263126,0.018647,-0.111022,0.007008,0.137885,0.036663,0.174874,0.019925,-0.000796,0.011749,-0.003631,-0.015333,-0.008219,0.003068,-0.004626,-0.000808,0.008976,-0.050950,0.027971,0.017672,-0.027824,0.179650,0.413065,0.121217,-0.477217,0.166591,-0.048753,-0.111722,0.466036,0.151658,-0.546523
1588,0.071845,-0.149364,0.094751,-0.075448,-0.078995,0.155890,-0.052299,-0.034946,-0.200424,-0.376448,0.406601,0.261783,0.020133,-0.112220,-0.243424,-0.359814,0.276404,0.178469,0.250135,-0.010211,0.112220,0.126314,-0.744077,-0.028043,0.027803,-0.106036,-0.025454,0.011313,-0.244574,0.042376,0.000000,0.000000,0.000000,-0.033354,-0.057502,0.139384,0.430100,0.078186,-0.445669,0.081843,-0.073467,-0.099004,0.469876,0.301546,-0.577867,-1.268035,-3.189554,9.941056,29.167696,-0.655734,-11.040956,5.647178,-1.106535,-11.635101,31.861467,4.381112,-11.765120,-0.018862,-0.019749,0.038972,-0.148809,-0.070984,-0.986315,0.000000,0.000000,0.000000,-0.052299,-0.034946,0.049576,0.123552,0.156601,0.261783,0.020133,-0.112220,0.006576,0.140186,0.026404,0.178469,0.012507,-0.000511,0.005611,0.006316,-0.037204,-0.001402,0.001390,-0.005302,-0.001273,0.000566,-0.012229,0.002119,-0.033354,-0.057502,0.139384,0.430100,0.078186,-0.445669,0.081843,-0.073467,-0.099004,0.469876,0.301546,-0.577867
1608,0.069291,-0.152625,0.099781,-0.106534,-0.181920,0.354504,-0.050621,-0.034946,-0.199753,-0.371559,0.395144,0.259866,0.020373,-0.111549,-0.243951,-0.359958,0.275733,0.172477,-0.030584,-0.026941,-0.061120,0.325539,-0.236760,-0.133265,-0.011265,-0.067255,-0.013806,-0.006328,0.010978,-0.276931,0.000000,0.000000,0.000000,-0.062767,-0.076635,0.079160,0.494450,0.160614,-0.426296,0.055024,-0.083904,-0.088189,0.455769,0.442229,-0.584541,-2.909211,-4.657717,4.311657,33.562408,0.226797,-10.612026,3.612132,-2.058330,-10.433547,30.850740,6.189829,-11.366006,-0.026633,-0.045480,0.088626,-0.152033,-0.068430,-0.986004,0.000000,0.000000,0.000000,-0.050621,-0.034946,0.050247,0.128441,0.145144,0.259866,0.020373,-0.111549,0.006049,0.140042,0.025733,0.172477,-0.001529,-0.001347,-0.003056,0.016277,-0.011838,-0.006663,-0.000563,-0.003363,-0.000690,-0.000316,0.000549,-0.013847,-0.062767,-0.076635,0.079160,0.494450,0.160614,-0.426296,0.055024,-0.083904,-0.088189,0.455769,0.442229,-0.584541
1628,0.066583,-0.155535,0.106409,-0.051890,-0.094486,0.270970,-0.048752,-0.035473,-0.200232,-0.365950,0.399410,0.257565,0.020469,-0.111645,-0.245101,-0.359910,0.276740,0.163225,-0.169121,-0.035329,-0.070899,0.263653,0.492216,-0.025359,0.012080,0.044390,-0.060065,0.000671,0.145201,-0.454586,0.000000,0.000000,0.000000,-0.079373,-0.089663,0.014667,0.545890,0.309009,-0.404772,0.042681,-0.091701,-0.068955,0.452037,0.525179,-0.576787,-4.020251,-5.659860,-2.962964,37.532387,1.766131,-10.332051,2.571153,-2.940138,-7.960983,30.534323,7.360272,-10.988350,-0.012973,-0.023622,0.067742,-0.154909,-0.065731,-0.985740,0.000000,0.000000,0.000000,-0.048752,-0.035473,0.049768,0.134050,0.149410,0.257565,0.020469,-0.111645,0.004899,0.140090,0.026740,0.163225,-0.008456,-0.001766,-0.003545,0.013183,0.024611,-0.001268,0.000604,0.002219,-0.003003,0.000034,0.007260,-0.022729,-0.079373,-0.089663,0.014667,0.545890,0.309009,-0.404772,0.042681,-0.091701,-0.068955,0.452037,0.525179,-0.576787
1648,0.065067,-0.156358,0.109947,-0.040118,-0.005414,0.058609,-0.051101,-0.035953,-0.202438,-0.362547,0.400513,0.247882,0.021380,-0.110830,-0.247738,-0.359862,0.277603,0.151864,-0.102729,-0.001534,-0.105749,0.113419,0.126458,-0.667138,0.060976,0.054313,-0.151672,0.032309,0.052443,-0.442410,0.000000,0.000000,0.000000,-0.093939,-0.077266,0.015047,0.571028,0.416542,-0.420649,0.042444,-0.072686,-0.046878,0.414653,0.529249,-0.548231,-5.108732,-4.715957,-2.502974,39.772575,3.742982,-9.741355,2.423038,-1.514413,-4.745938,27.502893,7.394290,-10.407139,-0.010030,-0.001354,0.014652,-0.155721,-0.064228,-0.985711,0.000000,0.000000,0.000000,-0.051101,-0.035953,0.047562,0.137453,0.150513,0.247882,0.021380,-0.110830,0.002262,0.140138,0.027603,0.151864,-0.005136,-0.000077,-0.005287,0.005671,0.006323,-0.033357,0.003049,0.002716,-0.007584,0.001615,0.002622,-0.022120,-0.093939,-0.077266,0.015047,0.571028,0.416542,-0.420649,0.042444,-0.072686,-0.046878,0.414653,0.529249,-0.548231
1668,0.064873,-0.156380,0.109977,0.021812,0.011576,-0.033962,-0.050525,-0.035521,-0.206368,-0.361972,0.408279,0.231296,0.022147,-0.110159,-0.251429,-0.358041,0.283163,0.135757,0.090888,0.033556,-0.213127,0.000144,0.421845,-0.894598,-0.002541,0.014956,-0.197644,0.052922,0.286567,-0.743022,0.000000,0.000000,0.000000,-0.100532,-0.058652,0.027448,0.563928,0.495111,-0.408276,0.034314,-0.046727,-0.031668,0.374421,0.471172,-0.505611,-6.224207,-3.334881,0.018019,39.568558,4.447635,-9.154293,1.824251,0.628939,-2.230201,24.088264,6.220433,-9.186833,0.005453,0.002894,-0.008491,-0.155744,-0.064036,-0.985720,0.000000,0.000000,0.000000,-0.050525,-0.035521,0.043632,0.138028,0.158279,0.231296,0.022147,-0.110159,-0.001429,0.141959,0.033163,0.135757,0.004544,0.001678,-0.010656,0.000007,0.021092,-0.044730,-0.000127,0.000748,-0.009882,0.002646,0.014328,-0.037151,-0.100532,-0.058652,0.027448,0.563928,0.495111,-0.408276,0.034314,-0.046727,-0.031668,0.374421,0.471172,-0.505611
1688,0.065468,-0.156118,0.108163,0.004173,0.016335,-0.103749,-0.048320,-0.034898,-0.210922,-0.361972,0.418441,0.214709,0.022147,-0.110207,-0.255120,-0.357513,0.288388,0.121520,0.117733,0.036720,-0.200856,-0.000431,0.454921,-0.879930,0.011025,0.001438,-0.169217,0.003451,0.259003,-0.620975,0.000000,0.000000,0.000000,-0.106646,-0.045223,0.029085,0.572325,0.539701,-0.375097,0.040830,-0.037506,-0.017451,0.321040,0.395321,-0.458620,-6.847566,-2.313045,0.626608,40.240883,4.781633,-8.306332,2.350947,1.435047,-0.397162,19.974749,5.041222,-8.284984,0.001043,0.004084,-0.025937,-0.155485,-0.064626,-0.985722,0.000000,0.000000,0.000000,-0.048320,-0.034898,0.039078,0.138028,0.168441,0.214709,0.022147,-0.110207,-0.005120,0.142487,0.038388,0.121520,0.005887,0.001836,-0.010043,-0.000022,0.022746,-0.043996,0.000551,0.000072,-0.008461,0.000173,0.012950,-0.031049,-0.106646,-0.045223,0.029085,0.572325,0.539701,-0.375097,0.040830,-0.037506,-0.017451,0.321040,0.395321,-0.458620
1708,0.065557,-0.155960,0.106505,-0.028343,-0.016779,-0.053772,-0.045732,-0.034419,-0.215428,-0.361972,0.428029,0.199801,0.022195,-0.110159,-0.258668,-0.357897,0.293374,0.108673,0.101962,0.012991,-0.245341,-0.012368,0.472658,-0.857399,0.000863,0.015052,-0.078329,-0.040746,0.204499,-0.527018,0.000000,0.000000,0.000000,-0.139639,-0.032256,0.025144,0.576838,0.557089,-0.332144,0.027214,-0.028861,0.000571,0.265389,0.317020,-0.423064,-9.601770,-1.240072,0.892029,40.627903,4.827966,-7.479485,1.294693,2.077389,1.434696,15.651672,3.817225,-7.593367,-0.007086,-0.004195,-0.013443,-0.155328,-0.064715,-0.985741,0.000000,0.000000,0.000000,-0.045732,-0.034419,0.034572,0.138028,0.178029,0.199801,0.022195,-0.110159,-0.008668,0.142103,0.043374,0.108673,0.005098,0.000650,-0.012267,-0.000618,0.023633,-0.042870,0.000043,0.000753,-0.003916,-0.002037,0.010225,-0.026351,-0.139639,-0.032256,0.025144,0.576838,0.557089,-0.332144,0.027214,-0.028861,0.000571,0.265389,0.317020,-0.423064
1728,0.065123,-0.155948,0.105392,-0.025620,0.018734,-0.030528,-0.043766,-0.034323,-0.220318,-0.362067,0.432439,0.188728,0.022674,-0.110734,-0.261160,-0.358041,0.294476,0.098558,0.040938,0.000863,-0.264516,-0.003691,0.152775,-0.413120,-0.001246,-0.007718,0.029481,-0.024208,0.007430,-0.460098,0.000000,0.000000,0.000000,-0.178311,-0.026968,0.003614,0.586055,0.557874,-0.276201,0.012271,-0.032711,0.021885,0.211281,0.238478,-0.401613,-12.714293,-0.775285,-1.260274,41.368942,5.042214,-6.868043,0.032244,1.807423,3.555871,11.273037,2.786502,-7.152044,-0.006405,0.004683,-0.007632,-0.155317,-0.064287,-0.985771,0.000000,0.000000,0.000000,-0.043766,-0.034323,0.029682,0.137933,0.182439,0.188728,0.022674,-0.110734,-0.011160,0.141959,0.044476,0.098558,0.002047,0.000043,-0.013226,-0.000185,0.007639,-0.020656,-0.000062,-0.000386,0.001474,-0.001210,0.000372,-0.023005,-0.178311,-0.026968,0.003614,0.586055,0.557874,-0.276201,0.012271,-0.032711,0.021885,0.211281,0.238478,-0.401613
1748,0.065024,-0.156638,0.105014,-0.005705,-0.048950,-0.032713,-0.043766,-0.034323,-0.225303,-0.362163,0.433685,0.181633,0.022626,-0.112796,-0.261064,-0.357849,0.292415,0.091703,-0.016922,-0.002780,-0.263078,-0.005896,0.054504,-0.286327,-0.015723,0.002349,-0.011313,0.012895,-0.212696,-0.249416,0.000000,0.000000,0.000000,-0.205980,-0.019415,-0.008161,0.593299,0.563197,-0.222230,-0.001711,-0.029996,0.048985,0.151730,0.163049,-0.382279,-14.630842,-0.181151,-1.587671,41.934193,5.290204,-6.036403,-0.994959,2.093881,6.599426,6.435579,1.954705,-6.985989,-0.001426,-0.012238,-0.008178,-0.155998,-0.064183,-0.985670,0.000000,0.000000,0.000000,-0.043766,-0.034323,0.024697,0.137837,0.183685,0.181633,0.022626,-0.112796,-0.011064,0.142151,0.042415,0.091703,-0.000846,-0.000139,-0.013154,-0.000295,0.002725,-0.014316,-0.000786,0.000117,-0.000566,0.000645,-0.010635,-0.012471,-0.205980,-0.019415,-0.008161,0.593299,0.563197,-0.222230,-0.001711,-0.029996,0.048985,0.151730,0.163049,-0.382279
1768,0.065349,-0.158248,0.103703,-0.000733,-0.091957,-0.065806,-0.043862,-0.034227,-0.228803,-0.362259,0.433445,0.177031,0.022626,-0.112939,-0.261112,-0.357226,0.288197,0.087725,-0.006471,0.015627,-0.304447,-0.006759,-0.002109,-0.176072,-0.013039,0.005992,0.001774,-0.001007,-0.241171,-0.185516,0.000000,0.000000,0.000000,-0.219353,-0.011567,-0.034585,0.610332,0.600748,-0.169797,-0.010540,-0.022849,0.058752,0.113854,0.106192,-0.366390,-15.775873,0.423997,-4.325974,43.296970,5.929145,-5.347476,-1.730700,2.696781,7.744035,3.390315,1.222894,-6.771247,-0.000183,-0.022989,-0.016451,-0.157589,-0.064486,-0.985397,0.000000,0.000000,0.000000,-0.043862,-0.034227,0.021197,0.137741,0.183445,0.177031,0.022626,-0.112939,-0.011112,0.142774,0.038197,0.087725,-0.000324,0.000781,-0.015222,-0.000338,-0.000105,-0.008804,-0.000652,0.000300,0.000089,-0.000050,-0.012059,-0.009276,-0.219353,-0.011567,-0.034585,0.610332,0.600748,-0.169797,-0.010540,-0.022849,0.058752,0.113854,0.106192,-0.366390
1789,0.065630,-0.160046,0.102192,-0.017939,-0.041040,-0.085213,-0.043910,-0.033748,-0.234364,-0.362978,0.433589,0.171614,0.023681,-0.112891,-0.261160,-0.357178,0.284218,0.086238,0.010115,0.029865,-0.287190,-0.040075,0.059873,-0.225016,-0.049950,0.006424,-0.018887,-0.014956,-0.224393,-0.100476,0.000000,0.000000,0.000000,-0.233328,-0.002545,-0.050903,0.627055,0.657582,-0.125541,-0.017767,-0.015090,0.064795,0.083327,0.081941,-0.354248,-16.918257,1.073020,-5.431075,44.744572,6.725654,-4.541775,-2.254921,3.313427,8.490378,0.978528,0.865561,-6.657436,-0.004485,-0.010260,-0.021303,-0.159364,-0.064745,-0.985095,0.000000,0.000000,0.000000,-0.043910,-0.033748,0.015636,0.137022,0.183589,0.171614,0.023681,-0.112891,-0.011160,0.142822,0.034218,0.086238,0.000506,0.001493,-0.014359,-0.002004,0.002994,-0.011251,-0.002498,0.000321,-0.000944,-0.000748,-0.011220,-0.005024,-0.233328,-0.002545,-0.050903,0.627055,0.657582,-0.125541,-0.017767,-0.015090,0.064795,0.083327,0.081941,-0.354248
1810,0.066126,-0.160575,0.099675,0.012581,0.008180,-0.118653,-0.043910,-0.033029,-0.240356,-0.364416,0.435171,0.167923,0.023249,-0.112891,-0.261927,-0.357034,0.276884,0.085951,0.000288,0.052587,-0.205266,-0.060305,0.071857,-0.115001,-0.033843,-0.001822,-0.036240,-0.014860,-0.458660,-0.003260,0.000000,0.000000,0.000000,-0.248527,0.003197,-0.048636,0.623933,0.700067,-0.086207,-0.028591,-0.011306,0.075003,0.062573,0.069927,-0.348204,-18.112020,1.481518,-5.100340,44.624096,7.318637,-3.940235,-3.096508,3.632776,9.819530,-0.701905,1.012048,-6.658742,0.003145,0.002045,-0.029663,-0.159886,-0.065227,-0.984978,0.000000,0.000000,0.000000,-0.043910,-0.033029,0.009644,0.135584,0.185171,0.167923,0.023249,-0.112891,-0.011927,0.142966,0.026884,0.085951,0.000014,0.002629,-0.010263,-0.003015,0.003593,-0.005750,-0.001692,-0.000091,-0.001812,-0.000743,-0.022933,-0.000163,-0.248527,0.003197,-0.048636,0.623933,0.700067,-0.086207,-0.028591,-0.011306,0.075003,0.062573,0.069927,-0.348204
1830,0.067064,-0.160002,0.097292,0.012773,0.039797,-0.113763,-0.043910,-0.031351,-0.243615,-0.365615,0.437232,0.163752,0.023106,-0.112891,-0.262742,-0.354350,0.270460,0.085471,-0.012607,0.095011,-0.139257,-0.040075,0.186762,-0.196350,-0.003835,0.015963,-0.037055,-0.034754,-0.307132,-0.055032,0.000000,0.000000,0.000000,-0.251310,0.009637,-0.041556,0.621718,0.724152,-0.055504,-0.024470,-0.005724,0.079884,0.048196,0.062757,-0.342638,-18.308292,1.800546,-4.473051,44.447186,7.563117,-3.373431,-2.879212,4.042737,10.483690,-1.894224,0.924061,-6.526035,0.003193,0.009949,-0.028441,-0.159320,-0.066158,-0.985008,0.000000,0.000000,0.000000,-0.043910,-0.031351,0.006385,0.134385,0.187232,0.163752,0.023106,-0.112891,-0.012742,0.145650,0.020460,0.085471,-0.000630,0.004751,-0.006963,-0.002004,0.009338,-0.009817,-0.000192,0.000798,-0.001853,-0.001738,-0.015357,-0.002752,-0.251310,0.009637,-0.041556,0.621718,0.724152,-0.055504,-0.024470,-0.005724,0.079884,0.048196,0.062757,-0.342638
1851,0.067647,-0.159481,0.095473,-0.008071,0.039701,-0.062189,-0.044102,-0.029146,-0.247115,-0.366334,0.442649,0.159870,0.023058,-0.112412,-0.263413,-0.354206,0.264468,0.085040,0.000096,0.118979,-0.162650,-0.049231,0.251285,-0.115480,0.005896,0.035953,-0.034419,-0.007191,-0.298743,-0.018024,0.000000,0.000000,0.000000,-0.251454,0.010130,-0.036283,0.611830,0.723895,-0.020328,-0.023594,-0.006875,0.083718,0.033469,0.064215,-0.340005,-18.343088,1.712517,-3.336371,43.699177,7.330280,-2.861932,-2.825691,3.883948,10.949993,-3.130430,1.037359,-6.515313,-0.002018,0.009925,-0.015547,-0.158806,-0.066737,-0.985052,0.000000,0.000000,0.000000,-0.044102,-0.029146,0.002885,0.133666,0.192649,0.159870,0.023058,-0.112412,-0.013413,0.145794,0.014468,0.085040,0.000005,0.005949,-0.008132,-0.002462,0.012564,-0.005774,0.000295,0.001798,-0.001721,-0.000360,-0.014937,-0.000901,-0.251454,0.010130,-0.036283,0.611830,0.723895,-0.020328,-0.023594,-0.006875,0.083718,0.033469,0.064215,-0.340005
1871,0.067849,-0.158746,0.094869,-0.006889,0.058856,-0.005410,-0.044150,-0.026845,-0.250231,-0.366765,0.444998,0.157760,0.023058,-0.111789,-0.264468,-0.354158,0.260873,0.083794,-0.010882,0.113179,-0.109344,-0.010786,0.061359,-0.072241,-0.016394,0.025119,-0.054265,-0.000767,-0.187913,-0.054792,0.000000,0.000000,0.000000,-0.248293,0.009314,-0.034855,0.601889,0.700882,0.013625,-0.032096,-0.015397,0.084019,0.036794,0.069159,-0.346456,-18.086979,1.551783,-3.129544,42.849213,7.107720,-2.323972,-3.471186,3.158178,11.108150,-2.940016,1.074180,-6.531433,-0.001722,0.014714,-0.001353,-0.158080,-0.066945,-0.985154,0.000000,0.000000,0.000000,-0.044150,-0.026845,-0.000231,0.133235,0.194998,0.157760,0.023058,-0.111789,-0.014468,0.145842,0.010873,0.083794,-0.000544,0.005659,-0.005467,-0.000539,0.003068,-0.003612,-0.000820,0.001256,-0.002713,-0.000038,-0.009396,-0.002740,-0.248293,0.009314,-0.034855,0.601889,0.700882,0.013625,-0.032096,-0.015397,0.084019,0.036794,0.069159,-0.346456
1891,0.068008,-0.157983,0.095060,0.002414,0.048344,0.013359,-0.044725,-0.025263,-0.251429,-0.366909,0.444998,0.157569,0.022530,-0.111693,-0.265762,-0.354110,0.258859,0.083123,-0.032118,0.053593,-0.047553,-0.000575,-0.008725,-0.000623,-0.054408,-0.017928,-0.100236,0.004218,-0.081445,-0.029673,0.000000,0.000000,0.000000,-0.232956,0.006923,-0.028429,0.585945,0.671565,0.041734,-0.035388,-0.026280,0.085253,0.043033,0.074298,-0.352708,-16.782000,1.412831,-2.736022,41.528511,6.810557,-2.016098,-3.631230,2.437162,11.716733,-2.438509,1.069839,-6.646896,0.000603,0.012086,0.003340,-0.157326,-0.067109,-0.985264,0.000000,0.000000,0.000000,-0.044725,-0.025263,-0.001429,0.133091,0.194998,0.157569,0.022530,-0.111693,-0.015762,0.145890,0.008859,0.083123,-0.001606,0.002680,-0.002378,-0.000029,-0.000436,-0.000031,-0.002720,-0.000896,-0.005012,0.000211,-0.004072,-0.001484,-0.232956,0.006923,-0.028429,0.585945,0.671565,0.041734,-0.035388,-0.026280,0.085253,0.043033,0.074298,-0.352708
1911,0.068165,-0.157531,0.095701,0.012326,0.032644,0.051254,-0.045684,-0.024448,-0.252627,-0.367005,0.444087,0.157904,0.020996,-0.111741,-0.267776,-0.354014,0.258332,0.082739,-0.037678,0.045924,-0.047362,-0.027995,-0.078089,0.031159,-0.093333,0.000288,-0.098654,-0.000383,-0.002205,-0.039884,0.000000,0.000000,0.000000,-0.213064,0.006598,-0.025506,0.574436,0.645855,0.062262,-0.034338,-0.033512,0.081339,0.053068,0.081881,-0.356045,-15.118344,1.405350,-2.376851,40.662796,6.494009,-1.731017,-3.374230,1.812618,11.509766,-1.624730,1.095074,-6.691988,0.003081,0.008161,0.012813,-0.156881,-0.067268,-0.985324,0.000000,0.000000,0.000000,-0.045684,-0.024448,-0.002627,0.132995,0.194087,0.157904,0.020996,-0.111741,-0.017776,0.145986,0.008332,0.082739,-0.001884,0.002296,-0.002368,-0.001400,-0.003904,0.001558,-0.004667,0.000014,-0.004933,-0.000019,-0.000110,-0.001994,-0.213064,0.006598,-0.025506,0.574436,0.645855,0.062262,-0.034338,-0.033512,0.081339,0.053068,0.081881,-0.356045
1931,0.068272,-0.157021,0.097291,0.004364,0.061670,0.096302,-0.046930,-0.023345,-0.253874,-0.368060,0.443608,0.158911,0.019127,-0.111741,-0.269597,-0.354014,0.258428,0.082547,-0.037055,0.038254,-0.066297,-0.073487,-0.003068,0.074782,-0.084417,-0.005033,-0.097647,0.005704,0.004027,-0.000959,0.000000,0.000000,0.000000,-0.192946,0.004950,-0.024667,0.564984,0.624565,0.078827,-0.023315,-0.044920,0.079426,0.068873,0.092979,-0.360251,-13.457569,1.228846,-2.021991,40.058743,6.125421,-1.557685,-2.429314,0.912254,11.473804,-0.378841,1.246286,-6.786240,0.001091,0.015418,0.024076,-0.156377,-0.067379,-0.985397,0.000000,0.000000,0.000000,-0.046930,-0.023345,-0.003874,0.131940,0.193608,0.158911,0.019127,-0.111741,-0.019597,0.145986,0.008428,0.082547,-0.001853,0.001913,-0.003315,-0.003674,-0.000153,0.003739,-0.004221,-0.000252,-0.004882,0.000285,0.000201,-0.000048,-0.192946,0.004950,-0.024667,0.564984,0.624565,0.078827,-0.023315,-0.044920,0.079426,0.068873,0.092979,-0.360251
1951,0.068126,-0.156037,0.099606,0.010940,0.068948,0.115063,-0.048129,-0.023058,-0.254880,-0.369785,0.443608,0.162027,0.016826,-0.111741,-0.271275,-0.354014,0.258907,0.082931,-0.056134,-0.000096,-0.036288,-0.078089,-0.000192,0.139880,-0.081349,-0.021380,-0.099517,0.030009,0.053018,0.040219,0.000000,0.000000,0.000000,-0.171645,0.001284,-0.012865,0.542726,0.589694,0.092075,-0.004951,-0.060763,0.078510,0.096365,0.106217,-0.367398,-11.654169,1.029367,-0.734700,38.385670,5.597078,-1.486775,-0.864065,-0.316672,11.568448,1.766806,1.387149,-6.945225,0.002735,0.017237,0.028766,-0.155404,-0.067246,-0.985559,0.000000,0.000000,0.000000,-0.048129,-0.023058,-0.004880,0.130215,0.193608,0.162027,0.016826,-0.111741,-0.021275,0.145986,0.008907,0.082931,-0.002807,-0.000005,-0.001814,-0.003904,-0.000010,0.006994,-0.004067,-0.001069,-0.004976,0.001500,0.002651,0.002011,-0.171645,0.001284,-0.012865,0.542726,0.589694,0.092075,-0.004951,-0.060763,0.078510,0.096365,0.106217,-0.367398
1971,0.068149,-0.155251,0.101979,0.010675,0.052668,0.117170,-0.049471,-0.022962,-0.255456,-0.371511,0.443177,0.165574,0.015579,-0.112364,-0.273432,-0.354733,0.261496,0.084513,-0.053881,-0.000288,0.025119,-0.083458,-0.070707,0.127081,-0.009012,-0.052635,-0.113131,0.139496,0.183167,0.108385,0.000000,0.000000,0.000000,-0.143583,-0.000555,0.004138,0.517517,0.544383,0.096911,0.022571,-0.076396,0.067531,0.135477,0.127405,-0.374420,-9.324039,0.883322,0.907352,36.437267,4.980099,-1.447419,1.265918,-1.489213,10.617741,4.739948,1.560148,-7.114994,0.002669,0.013167,0.029293,-0.154628,-0.067277,-0.985679,0.000000,0.000000,0.000000,-0.049471,-0.022962,-0.005456,0.128489,0.193177,0.165574,0.015579,-0.112364,-0.023432,0.145267,0.011496,0.084513,-0.002694,-0.000014,0.001256,-0.004173,-0.003535,0.006354,-0.000451,-0.002632,-0.005657,0.006975,0.009158,0.005419,-0.143583,-0.000555,0.004138,0.517517,0.544383,0.096911,0.022571,-0.076396,0.067531,0.135477,0.127405,-0.374420
1991,0.067933,-0.154834,0.104450,0.005208,0.033080,0.099001,-0.050238,-0.022962,-0.254785,-0.372278,0.440684,0.170416,0.014525,-0.113946,-0.274918,-0.352672,0.263222,0.087533,-0.015244,0.001103,0.066728,-0.026893,-0.198363,0.350946,0.088396,-0.128711,-0.049471,0.146927,-0.005465,0.237671,0.000000,0.000000,0.000000,-0.113924,-0.002825,0.021515,0.494314,0.500182,0.094366,0.040973,-0.090113,0.049744,0.177334,0.162687,-0.382305,-7.068360,0.699058,2.539233,34.490822,4.472717,-1.780227,2.495981,-2.310543,8.517405,7.779731,2.133766,-7.373395,0.001302,0.008270,0.024750,-0.154216,-0.067069,-0.985758,0.000000,0.000000,0.000000,-0.050238,-0.022962,-0.004785,0.127722,0.190684,0.170416,0.014525,-0.113946,-0.024918,0.147328,0.013222,0.087533,-0.000762,0.000055,0.003336,-0.001345,-0.009918,0.017547,0.004420,-0.006436,-0.002474,0.007346,-0.000273,0.011884,-0.113924,-0.002825,0.021515,0.494314,0.500182,0.094366,0.040973,-0.090113,0.049744,0.177334,0.162687,-0.382305
2011,0.067633,-0.154346,0.106406,-0.016619,0.044949,0.099365,-0.051101,-0.022962,-0.253586,-0.372805,0.437999,0.176887,0.015627,-0.113467,-0.275014,-0.352720,0.262167,0.092087,-0.058771,-0.002732,0.092279,-0.043766,-0.126937,0.273144,0.083746,-0.071474,0.016730,0.006328,0.012416,0.131395,0.000000,0.000000,0.000000,-0.088396,-0.006116,0.039120,0.471428,0.468495,0.088634,0.056895,-0.098888,0.029966,0.214287,0.215141,-0.388922,-4.882053,0.440536,4.201576,32.708733,4.011894,-1.938019,3.695001,-3.156795,5.739014,11.222859,3.034689,-7.537854,-0.004155,0.011237,0.024841,-0.153734,-0.066778,-0.985853,0.000000,0.000000,0.000000,-0.051101,-0.022962,-0.003586,0.127195,0.187999,0.176887,0.015627,-0.113467,-0.025014,0.147280,0.012167,0.092087,-0.002939,-0.000137,0.004614,-0.002188,-0.006347,0.013657,0.004187,-0.003574,0.000836,0.000316,0.000621,0.006570,-0.088396,-0.006116,0.039120,0.471428,0.468495,0.088634,0.056895,-0.098888,0.029966,0.214287,0.215141,-0.388922
2031,0.067214,-0.153868,0.107826,0.012157,0.028823,0.039828,-0.052683,-0.022962,-0.252627,-0.373428,0.436705,0.181825,0.016107,-0.114665,-0.274822,-0.352864,0.264132,0.095011,-0.071618,0.000671,0.180434,-0.017066,-0.091272,0.186139,-0.010930,-0.088444,-0.002684,-0.005033,0.114857,0.141174,0.000000,0.000000,0.000000,-0.065795,-0.010707,0.056113,0.453095,0.440619,0.069968,0.052733,-0.105086,0.014502,0.252276,0.274371,-0.400474,-2.962720,0.069187,5.537905,31.221655,3.573844,-2.203693,3.583351,-3.600428,4.115520,14.270659,3.745269,-7.736965,0.003039,0.007206,0.009957,-0.153261,-0.066370,-0.985954,0.000000,0.000000,0.000000,-0.052683,-0.022962,-0.002627,0.126572,0.186705,0.181825,0.016107,-0.114665,-0.024822,0.147136,0.014132,0.095011,-0.003581,0.000034,0.009022,-0.000853,-0.004564,0.009307,-0.000546,-0.004422,-0.000134,-0.000252,0.005743,0.007059,-0.065795,-0.010707,0.056113,0.453095,0.440619,0.069968,0.052733,-0.105086,0.014502,0.252276,0.274371,-0.400474
