EasonHuangkkq/HeimaFrameWork/heima_simulator/code/build/observations_log.csv
timestamp_ms,roll,pitch,yaw,ang_vel_x,ang_vel_y,ang_vel_z,joint_pos_0,joint_pos_1,joint_pos_2,joint_pos_3,joint_pos_4,joint_pos_5,joint_pos_6,joint_pos_7,joint_pos_8,joint_pos_9,joint_pos_10,joint_pos_11,joint_vel_0,joint_vel_1,joint_vel_2,joint_vel_3,joint_vel_4,joint_vel_5,joint_vel_6,joint_vel_7,joint_vel_8,joint_vel_9,joint_vel_10,joint_vel_11,cmd_vx,cmd_vy,cmd_wz,action_0,action_1,action_2,action_3,action_4,action_5,action_6,action_7,action_8,action_9,action_10,action_11,torque_0,torque_1,torque_2,torque_3,torque_4,torque_5,torque_6,torque_7,torque_8,torque_9,torque_10,torque_11,obs_0,obs_1,obs_2,obs_3,obs_4,obs_5,obs_6,obs_7,obs_8,obs_9,obs_10,obs_11,obs_12,obs_13,obs_14,obs_15,obs_16,obs_17,obs_18,obs_19,obs_20,obs_21,obs_22,obs_23,obs_24,obs_25,obs_26,obs_27,obs_28,obs_29,obs_30,obs_31,obs_32,obs_33,obs_34,obs_35,obs_36,obs_37,obs_38,obs_39,obs_40,obs_41,obs_42,obs_43,obs_44
20,0.035022,-0.099077,-0.006861,0.000562,-0.001142,-0.001823,-0.108625,0.000431,0.234124,-0.573661,0.521218,0.567717,-0.036816,-0.013279,0.249176,-0.559807,0.516472,0.494373,0.000479,-0.000144,-0.000192,0.000000,-0.000240,0.000096,-0.000096,-0.000144,-0.000000,-0.000671,-0.000000,-0.000144,0.000000,0.000000,0.000000,0.000000,0.000000,0.000000,0.000000,0.000000,0.000000,0.000000,0.000000,0.000000,0.000000,0.000000,0.000000,4.365794,-0.017948,1.572390,2.959622,-4.550495,-9.524946,1.483994,0.536215,0.074397,2.399679,-4.471126,-8.294199,0.000000,0.000000,0.000000,0.000140,-0.000286,-0.000456,-0.098915,-0.034843,-0.994486,-0.108625,0.000431,-0.015876,-0.073661,0.271218,0.567717,-0.036816,-0.013279,-0.000824,-0.059807,0.266472,0.494373,0.000024,-0.000007,-0.000010,0.000000,-0.000012,0.000005,-0.000005,-0.000007,-0.000000,-0.000034,-0.000000,-0.000007,0.000000,0.000000,0.000000,0.000000,0.000000,0.000000,0.000000,0.000000,0.000000,0.000000,0.000000,0.000000
40,0.035093,-0.098974,-0.006598,0.014332,0.083908,0.071510,-0.088683,-0.002684,0.241938,-0.573661,0.510480,0.547583,-0.032645,-0.017833,0.246875,-0.526874,0.518054,0.462975,1.892836,-0.657503,0.784967,-0.002349,-0.315952,-0.540153,0.383064,-0.451278,0.079959,3.214121,0.167012,-1.145260,0.000000,0.000000,0.000000,0.612063,-0.244132,0.305873,0.037244,-0.553960,-1.119181,0.133391,-0.213589,0.082233,1.410119,0.033653,-1.586726,49.193695,-18.199913,31.449051,5.932775,-11.816263,-24.582584,11.231875,-15.362548,8.656871,106.970856,-4.110209,-28.943703,0.000000,0.000000,0.000000,0.003583,0.020977,0.017878,-0.098812,-0.034914,-0.994493,-0.088683,-0.002684,-0.008062,-0.073661,0.260480,0.547583,-0.032645,-0.017833,-0.003125,-0.026874,0.268054,0.462975,0.094642,-0.032875,0.039248,-0.000117,-0.015798,-0.027008,0.019153,-0.022564,0.003998,0.160706,0.008351,-0.057263,0.612063,-0.244132,0.305873,0.037244,-0.553960,-1.119181,0.133391,-0.213589,0.082233,1.410119,0.033653,-1.586726
60,0.039505,-0.089127,-0.005885,0.148155,0.912864,-0.028875,-0.053306,-0.020325,0.270124,-0.575339,0.525101,0.489819,-0.025550,-0.025454,0.234795,-0.479800,0.471268,0.449792,0.930647,-1.319415,1.789053,-0.056134,1.494193,-4.076938,0.333305,-0.182304,-1.177282,2.170295,-3.400260,-1.388157,0.000000,0.000000,0.000000,0.837377,-0.191670,0.402093,-0.072088,0.064461,-1.308435,0.364137,-0.012591,-0.049062,1.825042,-0.263893,-2.600632,65.760208,-11.382385,33.069263,-2.589697,-4.891074,-24.280905,29.194975,0.667107,2.464880,139.441818,-3.803873,-45.398762,0.000000,0.000000,0.000000,0.037039,0.228216,-0.007219,-0.089009,-0.039338,-0.995254,-0.053306,-0.020325,0.020124,-0.075339,0.275101,0.489819,-0.025550,-0.025454,-0.015205,0.020200,0.221268,0.449792,0.046532,-0.065971,0.089453,-0.002807,0.074710,-0.203847,0.016665,-0.009115,-0.058864,0.108515,-0.170013,-0.069408,0.837377,-0.191670,0.402093,-0.072088,0.064461,-1.308435,0.364137,-0.012591,-0.049062,1.825042,-0.263893,-2.600632
80,0.033751,-0.075016,-0.005935,0.030019,0.384654,0.045869,-0.047889,-0.040603,0.305454,-0.576777,0.595280,0.343660,-0.019223,-0.017689,0.212313,-0.443896,0.463885,0.421078,0.299654,-0.762724,1.636614,-0.000144,4.454153,-8.034177,0.236329,0.776051,-1.059166,2.085447,-0.810325,-2.185060,0.000000,0.000000,0.000000,0.556741,-0.055140,0.146542,0.145034,0.213774,-1.365557,0.507918,0.171872,0.051352,1.527376,-0.032361,-2.864214,45.811722,-0.887853,0.759209,14.638585,-7.118172,-18.089657,40.695744,12.524693,16.105749,115.094330,-3.422606,-47.885548,0.000000,0.000000,0.000000,0.007505,0.096164,0.011467,-0.074945,-0.033650,-0.996620,-0.047889,-0.040603,0.055454,-0.076777,0.345280,0.343660,-0.019223,-0.017689,-0.037687,0.056104,0.213885,0.421078,0.014983,-0.038136,0.081831,-0.000007,0.222708,-0.401709,0.011816,0.038803,-0.052958,0.104272,-0.040516,-0.109253,0.556741,-0.055140,0.146542,0.145034,0.213774,-1.365557,0.507918,0.171872,0.051352,1.527376,-0.032361,-2.864214
100,0.033436,-0.065195,-0.011905,-0.043935,0.587121,-0.769502,-0.034083,-0.056613,0.332347,-0.583488,0.646189,0.151433,-0.018935,0.005513,0.198986,-0.367101,0.422084,0.383927,0.720827,-0.642067,1.000491,-0.458804,0.941960,-8.872498,0.048848,1.541315,-0.205841,4.411921,-1.917764,-1.668060,0.000000,0.000000,0.000000,0.392983,-0.009467,0.025161,0.234608,-0.144718,-1.182937,0.429211,0.258974,0.316344,1.579241,0.018089,-2.851622,31.202480,3.194682,-12.194998,22.830050,-11.756539,-10.788448,35.139484,17.536777,42.741665,111.458069,-0.924280,-47.607323,0.000000,0.000000,0.000000,-0.010984,0.146780,-0.192375,-0.065149,-0.033359,-0.997318,-0.034083,-0.056613,0.082347,-0.083488,0.396189,0.151433,-0.018935,0.005513,-0.051014,0.132899,0.172084,0.383927,0.036041,-0.032103,0.050025,-0.022940,0.047098,-0.443625,0.002442,0.077066,-0.010292,0.220596,-0.095888,-0.083403,0.392983,-0.009467,0.025161,0.234608,-0.144718,-1.182937,0.429211,0.258974,0.316344,1.579241,0.018089,-2.851622
120,0.037818,-0.042730,-0.033309,0.364705,1.214092,-1.216253,-0.028475,-0.065290,0.343660,-0.594226,0.566758,0.042232,-0.021428,0.037583,0.199513,-0.294333,0.385796,0.329231,-0.171135,-0.083266,-0.094819,-0.587563,-5.343431,-3.740996,-0.213319,1.632683,0.143619,3.206931,-1.719305,-2.790119,0.000000,0.000000,0.000000,0.178313,0.127252,-0.302086,0.236075,-0.834110,-0.532218,0.355517,0.204856,0.494497,1.305997,0.030791,-2.759562,15.383609,13.130994,-43.319107,24.337275,-13.351536,-3.732981,29.725477,10.802519,60.330822,88.666801,-0.060489,-43.948647,0.000000,0.000000,0.000000,0.091176,0.303523,-0.304063,-0.042717,-0.037775,-0.998373,-0.028475,-0.065290,0.093660,-0.094226,0.316758,0.042232,-0.021428,0.037583,-0.050487,0.205667,0.135796,0.329231,-0.008557,-0.004163,-0.004741,-0.029378,-0.267172,-0.187050,-0.010666,0.081634,0.007181,0.160347,-0.085965,-0.139506,0.178313,0.127252,-0.302086,0.236075,-0.834110,-0.532218,0.355517,0.204856,0.494497,1.305997,0.030791,-2.759562
140,0.041092,-0.020386,-0.054580,-0.303151,0.925111,-0.710659,-0.032885,-0.061120,0.334120,-0.596623,0.438431,0.015244,-0.020038,0.064331,0.197644,-0.233213,0.333497,0.248649,-0.282828,0.324053,-0.741392,0.092614,-7.699625,-0.040555,0.295052,1.115252,-0.356938,2.620039,-2.776793,-4.490297,0.000000,0.000000,0.000000,0.049786,0.155423,-0.626530,0.236090,-1.456581,0.062009,0.437121,0.137275,0.322206,0.682820,-0.318009,-2.596276,6.107642,14.097850,-74.519615,22.774988,-17.949186,1.544827,35.339607,5.350899,42.966377,37.230900,-2.964968,-38.553009,0.000000,0.000000,0.000000,-0.075788,0.231278,-0.177665,-0.020384,-0.041072,-0.998948,-0.032885,-0.061120,0.084120,-0.096623,0.188431,0.015244,-0.020038,0.064331,-0.052356,0.266787,0.083497,0.248649,-0.014141,0.016203,-0.037070,0.004631,-0.384981,-0.002028,0.014753,0.055763,-0.017847,0.131002,-0.138840,-0.224515,0.049786,0.155423,-0.626530,0.236090,-1.456581,0.062009,0.437121,0.137275,0.322206,0.682820,-0.318009,-2.596276
160,0.030132,-0.003304,-0.049475,-0.695502,0.781375,0.795582,-0.034658,-0.057380,0.319931,-0.581714,0.267440,0.106132,-0.018791,0.080103,0.179620,-0.196397,0.314850,0.133313,0.023154,0.131443,-0.699543,1.097420,-8.907251,5.670024,-0.120753,0.677157,-1.164004,1.383555,-0.783864,-6.040960,0.000000,0.000000,0.000000,0.079431,0.127170,-0.505188,0.286153,-1.483093,0.286234,0.159971,0.144744,0.047981,0.392182,-0.750705,-2.428322,7.658381,12.123543,-59.594021,23.972807,-13.845923,-3.208133,13.854336,6.568735,19.395761,15.604559,-11.471565,-32.480900,0.000000,0.000000,0.000000,-0.173876,0.195344,0.198895,-0.003304,-0.030127,-0.999541,-0.034658,-0.057380,0.069931,-0.081714,0.017440,0.106132,-0.018791,0.080103,-0.070380,0.303603,0.064850,0.133313,0.001158,0.006572,-0.034977,0.054871,-0.445363,0.283501,-0.006038,0.033858,-0.058200,0.069178,-0.039193,-0.302048,0.079431,0.127170,-0.505188,0.286153,-1.483093,0.286234,0.159971,0.144744,0.047981,0.392182,-0.750705,-2.428322
180,0.025895,0.006860,-0.031404,0.020455,0.330523,0.889961,-0.036911,-0.052107,0.309433,-0.532195,0.074782,0.181873,-0.027564,0.098654,0.152008,-0.168834,0.300469,0.004554,-0.064667,0.218832,-0.300900,3.056169,-8.034896,1.821602,-0.733099,1.165586,-1.658904,1.177570,-1.097803,-5.912250,0.000000,0.000000,0.000000,0.362589,0.089980,-0.088042,0.172263,-0.771544,-0.109685,0.008823,0.358644,-0.301860,0.122077,-1.238114,-2.182401,30.651937,8.783287,-13.909386,7.357013,0.428659,-6.854693,3.589273,21.977160,-14.068309,-6.498940,-18.309315,-26.504427,0.000000,0.000000,0.000000,0.005114,0.082631,0.222490,0.006860,-0.025892,-0.999641,-0.036911,-0.052107,0.059433,-0.032195,-0.175218,0.181873,-0.027564,0.098654,-0.097992,0.331166,0.050469,0.004554,-0.003233,0.010942,-0.015045,0.152808,-0.401745,0.091080,-0.036655,0.058279,-0.082945,0.058879,-0.054890,-0.295612,0.362589,0.089980,-0.088042,0.172263,-0.771544,-0.109685,0.008823,0.358644,-0.301860,0.122077,-1.238114,-2.182401
200,0.019005,0.018044,-0.017707,-0.277220,0.529232,0.797349,-0.037583,-0.044821,0.300229,-0.472466,0.095538,0.135613,-0.039117,0.129765,0.119459,-0.155220,0.263365,-0.088731,0.055032,0.320650,-0.193186,2.885514,3.810744,-4.573324,-0.327936,1.872415,-1.535179,0.207471,-2.484905,-3.783276,0.000000,0.000000,0.000000,0.410956,-0.026974,0.065446,0.080854,0.244911,-0.531533,0.214696,0.357943,-0.188453,-0.057045,-1.464177,-1.567374,34.366219,-1.322056,3.562355,-1.637353,5.189181,-8.182447,19.981752,19.409637,1.552651,-19.610188,-20.239769,-17.452930,0.000000,0.000000,0.000000,-0.069305,0.132308,0.199337,0.018043,-0.019001,-0.999657,-0.037583,-0.044821,0.050229,0.027534,-0.154462,0.135613,-0.039117,0.129765,-0.130541,0.344780,0.013365,-0.088731,0.002752,0.016032,-0.009659,0.144276,0.190537,-0.228666,-0.016397,0.093621,-0.076759,0.010374,-0.124245,-0.189164,0.410956,-0.026974,0.065446,0.080854,0.244911,-0.531533,0.214696,0.357943,-0.188453,-0.057045,-1.464177,-1.567374
220,0.012419,0.024426,-0.007423,-0.353920,0.443044,0.213852,-0.031399,-0.040555,0.292942,-0.419256,0.239349,-0.009539,-0.036624,0.175593,0.091559,-0.150330,0.194528,-0.127129,0.486464,0.229282,-0.450703,2.612801,8.053543,-6.933114,0.314131,2.460170,-1.197943,0.376017,-3.319007,-0.644416,0.000000,0.000000,0.000000,0.449615,0.005922,-0.008054,0.067179,0.506490,-0.662481,0.230352,0.338038,-0.246965,-0.227917,-1.545379,-1.176577,36.314651,1.485301,-3.110404,-4.245805,0.083941,-2.590568,19.305099,14.422783,-4.585763,-31.333958,-18.897608,-13.860894,0.000000,0.000000,0.000000,-0.088480,0.110761,0.053463,0.024424,-0.012415,-0.999625,-0.031399,-0.040555,0.042942,0.080744,-0.010651,-0.009539,-0.036624,0.175593,-0.158441,0.349670,-0.055472,-0.127129,0.024323,0.011464,-0.022535,0.130640,0.402677,-0.346656,0.015707,0.123008,-0.059897,0.018801,-0.165950,-0.032221,0.449615,0.005922,-0.008054,0.067179,0.506490,-0.662481,0.230352,0.338038,-0.246965,-0.227917,-1.545379,-1.176577
240,0.005130,0.032209,-0.003963,-0.544873,0.340793,0.181503,-0.019367,-0.033460,0.274678,-0.370265,0.330477,-0.110351,-0.024688,0.226742,0.078329,-0.118931,0.125115,-0.096161,0.505255,0.014237,-1.300912,2.404850,2.374938,-3.511905,0.788370,2.496170,-0.324868,1.370085,-4.133311,1.668252,0.000000,0.000000,0.000000,0.158916,-0.024633,-0.275880,0.124601,0.074716,-0.227717,0.390212,0.203899,-0.192234,-0.308153,-1.519552,-0.723262,12.384997,-0.592896,-26.482586,-1.174811,-3.742820,2.744216,30.256598,1.134953,-2.213790,-43.753815,-17.129251,-11.186789,0.000000,0.000000,0.000000,-0.136218,0.085198,0.045376,0.032203,-0.005127,-0.999468,-0.019367,-0.033460,0.024678,0.129735,0.080477,-0.110351,-0.024688,0.226742,-0.171671,0.381069,-0.124885,-0.096161,0.025263,0.000712,-0.065046,0.120243,0.118747,-0.175595,0.039419,0.124809,-0.016243,0.068504,-0.206666,0.083413,0.158916,-0.024633,-0.275880,0.124601,0.074716,-0.227717,0.390212,0.203899,-0.192234,-0.308153,-1.519552,-0.723262
260,-0.004785,0.040969,-0.005402,-0.538243,0.510418,0.048419,-0.019654,-0.029050,0.238870,-0.324773,0.291984,-0.080726,-0.018456,0.272473,0.077322,-0.102489,0.044581,-0.029961,-0.609038,0.225016,-2.230025,2.276428,-3.035269,3.685149,-0.019798,1.945423,0.127416,0.743549,-3.447958,3.701592,0.000000,0.000000,0.000000,-0.340966,0.044913,-0.472014,0.143500,-0.538540,0.353364,0.500393,0.047711,-0.089010,-0.333672,-1.181604,-0.384410,-25.325554,4.210401,-38.890472,-1.191279,-5.867110,4.015315,40.715866,-12.267541,6.532247,-44.618507,-10.723931,-9.413548,0.000000,0.000000,0.000000,-0.134561,0.127604,0.012105,0.040958,0.004781,-0.999149,-0.019654,-0.029050,-0.011130,0.175227,0.041984,-0.080726,-0.018456,0.272473,-0.172678,0.397511,-0.205419,-0.029961,-0.030452,0.011251,-0.111501,0.113821,-0.151763,0.184257,-0.000990,0.097271,0.006371,0.037177,-0.172398,0.185080,-0.340966,0.044913,-0.472014,0.143500,-0.538540,0.353364,0.500393,0.047711,-0.089010,-0.333672,-1.181604,-0.384410
280,-0.011489,0.049881,-0.001974,-0.112112,0.344138,0.259954,-0.054840,-0.034994,0.187673,-0.281006,0.226598,0.053546,-0.018504,0.294189,0.084129,-0.099038,0.018408,0.036480,-2.900758,-0.041753,-2.695204,2.133096,-4.308281,6.963027,0.017113,0.518294,0.474144,-0.144626,0.386323,3.061155,0.000000,0.000000,0.000000,-0.762449,0.062445,-0.478828,0.205942,-0.947769,0.627807,0.435024,-0.191009,-0.022718,-0.547193,-0.669662,-0.271495,-51.811378,6.446591,-30.806606,2.216039,-9.393891,1.177072,35.511105,-28.589869,11.129395,-59.537769,-6.371056,-8.060341,0.000000,0.000000,0.000000,-0.028028,0.086035,0.064989,0.049861,0.011474,-0.998690,-0.054840,-0.034994,-0.062327,0.218994,-0.023402,0.053546,-0.018504,0.294189,-0.165871,0.400962,-0.231592,0.036480,-0.145038,-0.002088,-0.134760,0.106655,-0.215414,0.348151,0.000856,0.025915,0.023707,-0.007231,0.019316,0.153058,-0.762449,0.062445,-0.478828,0.205942,-0.947769,0.627807,0.435024,-0.191009,-0.022718,-0.547193,-0.669662,-0.271495
300,-0.009293,0.049010,0.009580,0.392834,-0.111935,0.991262,-0.119315,-0.036959,0.138442,-0.234459,0.102249,0.211833,-0.020900,0.282300,0.098175,-0.112987,0.085663,0.070132,-3.249451,-0.068789,-2.068909,2.286974,-6.064497,8.614837,-0.329279,-1.493618,0.781515,-1.199381,4.740480,1.220857,0.000000,0.000000,0.000000,-0.836480,0.087535,-0.185691,0.365202,-1.310475,0.493471,0.294732,-0.431700,-0.017379,-0.783100,-0.106208,-0.357585,-53.560471,8.717146,3.325931,13.305599,-10.406594,-3.166120,24.745247,-43.933083,8.953787,-76.234711,-2.374635,-8.604040,0.000000,0.000000,0.000000,0.098208,-0.027984,0.247815,0.048990,0.009282,-0.998756,-0.119315,-0.036959,-0.111558,0.265541,-0.147751,0.211833,-0.020900,0.282300,-0.151825,0.387013,-0.164337,0.070132,-0.162473,-0.003439,-0.103445,0.114349,-0.303225,0.430742,-0.016464,-0.074681,0.039076,-0.059969,0.237024,0.061043,-0.836480,0.087535,-0.185691,0.365202,-1.310475,0.493471,0.294732,-0.431700,-0.017379,-0.783100,-0.106208,-0.357585
320,0.002093,0.048483,0.035208,0.492516,0.027657,1.410407,-0.143859,-0.039212,0.111214,-0.188344,0.082547,0.417339,-0.029625,0.228276,0.112460,-0.152391,0.213751,0.090217,-0.434500,-0.333976,-0.341167,2.265067,-1.098234,8.461774,-0.380907,-3.171361,0.632719,-2.416739,6.812601,1.693467,0.000000,0.000000,0.000000,-0.172213,-0.084424,0.371111,0.182463,-1.001463,0.255917,0.260824,-0.405535,-0.260709,-0.867246,0.206014,-0.311939,-6.620946,-4.483084,59.501801,-3.136256,-10.724910,-12.952559,23.253992,-34.692417,-19.188162,-78.292587,-3.102690,-7.554754,0.000000,0.000000,0.000000,0.123129,0.006914,0.352602,0.048464,-0.002090,-0.998823,-0.143859,-0.039212,-0.138786,0.311656,-0.167453,0.417339,-0.029625,0.228276,-0.137540,0.347609,-0.036249,0.090217,-0.021725,-0.016699,-0.017058,0.113253,-0.054912,0.423089,-0.019045,-0.158568,0.031636,-0.120837,0.340630,0.084673,-0.172213,-0.084424,0.371111,0.182463,-1.001463,0.255917,0.260824,-0.405535,-0.260709,-0.867246,0.206014,-0.311939
341,0.007773,0.051139,0.054910,0.171276,0.288421,0.409439,-0.137914,-0.015052,0.108194,-0.150762,0.179572,0.517575,-0.035857,0.155316,0.130916,-0.209580,0.262215,0.192946,1.219850,0.749589,0.008245,1.717723,5.351580,1.167311,-0.416236,-3.874644,1.282791,-2.705319,-0.721450,6.545496,0.000000,0.000000,0.000000,0.394661,-0.062427,0.398450,-0.064570,-0.429060,-0.256742,0.046820,-0.324646,-0.383890,-0.659400,-0.022356,-0.321873,34.916054,-5.737634,58.841251,-23.688372,-10.923367,-17.347605,6.293819,-22.827538,-37.611881,-57.661865,-1.546306,-15.012400,0.000000,0.000000,0.000000,0.042819,0.072105,0.102360,0.051117,-0.007763,-0.998663,-0.137914,-0.015052,-0.141806,0.349238,-0.070428,0.517575,-0.035857,0.155316,-0.119084,0.290420,0.012215,0.192946,0.060993,0.037479,0.000412,0.085886,0.267579,0.058366,-0.020812,-0.193732,0.064140,-0.135266,-0.036073,0.327275,0.394661,-0.062427,0.398450,-0.064570,-0.429060,-0.256742,0.046820,-0.324646,-0.383890,-0.659400,-0.022356,-0.321873
361,0.015641,0.040579,0.049814,0.777141,-0.880602,-0.502725,-0.090888,-0.003212,0.111214,-0.130724,0.304447,0.372134,-0.041274,0.090073,0.176072,-0.258907,0.297161,0.216819,3.210334,0.606546,0.260777,0.514603,8.224198,-6.701627,-0.189495,-2.724494,2.394113,-2.071353,3.693538,0.991383,0.000000,0.000000,0.000000,0.646030,-0.022250,0.188462,-0.200786,-0.316120,-0.880456,0.011132,-0.231457,-0.246491,-0.161180,-0.127673,-0.742598,48.300667,-3.280352,33.864174,-32.674873,-12.780535,-11.760206,2.929963,-15.171574,-34.866787,-17.668148,-6.524363,-15.607041,0.000000,0.000000,0.000000,0.194285,-0.220151,-0.125681,0.040568,-0.015627,-0.999055,-0.090888,-0.003212,-0.138786,0.369276,0.054447,0.372134,-0.041274,0.090073,-0.073928,0.241093,0.047161,0.216819,0.160517,0.030327,0.013039,0.025730,0.411210,-0.335081,-0.009475,-0.136225,0.119706,-0.103568,0.184677,0.049569,0.646030,-0.022250,0.188462,-0.200786,-0.316120,-0.880456,0.011132,-0.231457,-0.246491,-0.161180,-0.127673,-0.742598
381,0.020222,0.024115,0.045953,-0.519728,-0.368362,0.359912,-0.042376,-0.002972,0.118212,-0.154692,0.378989,0.386659,-0.040938,0.042184,0.222907,-0.303632,0.328607,0.224249,1.350478,-0.132498,0.271275,-2.297520,0.393945,0.164472,0.414462,-2.032285,2.230456,-2.046474,2.609589,1.049866,0.000000,0.000000,0.000000,0.310479,-0.120583,0.103920,-0.018516,-0.399892,-0.999122,0.372254,-0.025055,0.016297,0.107035,-0.376629,-1.189594,22.751194,-9.266973,23.021507,-9.897213,-9.040285,-21.667831,30.540661,1.617563,-9.324146,5.891798,-9.279431,-22.441891,0.000000,0.000000,0.000000,-0.129932,-0.092091,0.089978,0.024112,-0.020215,-0.999505,-0.042376,-0.002972,-0.131788,0.345308,0.128989,0.386659,-0.040938,0.042184,-0.027093,0.196368,0.078607,0.224249,0.067524,-0.006625,0.013564,-0.114876,0.019697,0.008224,0.020723,-0.101614,0.111523,-0.102324,0.130479,0.052493,0.310479,-0.120583,0.103920,-0.018516,-0.399892,-0.999122,0.372254,-0.025055,0.016297,0.107035,-0.376629,-1.189594
401,0.003055,0.020706,0.061242,-0.793735,-0.488905,0.682487,-0.039931,-0.011745,0.127560,-0.203924,0.377887,0.380955,-0.016682,0.015244,0.261640,-0.341790,0.365183,0.241554,-0.606881,-0.350035,0.504871,-2.549908,0.038541,-0.111405,1.604496,-1.030643,1.650755,-1.404407,0.783193,0.468535,0.000000,0.000000,0.000000,-0.284483,-0.026271,0.133854,0.004569,-0.720181,-1.231351,0.364333,0.097749,-0.219491,0.201341,-0.608111,-1.502323,-20.982183,-0.991518,24.742729,-5.600093,-13.048524,-23.683184,26.597208,10.473594,-36.340652,13.553556,-12.001226,-26.888729,0.000000,0.000000,0.000000,-0.198434,-0.122226,0.170622,0.020704,-0.003054,-0.999781,-0.039931,-0.011745,-0.122440,0.296076,0.127887,0.380955,-0.016682,0.015244,0.011640,0.158210,0.115183,0.241554,-0.030344,-0.017502,0.025244,-0.127495,0.001927,-0.005570,0.080225,-0.051532,0.082538,-0.070220,0.039160,0.023427,-0.284483,-0.026271,0.133854,0.004569,-0.720181,-1.231351,0.364333,0.097749,-0.219491,0.201341,-0.608111,-1.502323
421,-0.006931,0.012313,0.069740,-0.321237,-0.282245,0.160064,-0.062893,-0.019990,0.146016,-0.253922,0.369498,0.385317,-0.007095,0.011409,0.281198,-0.367916,0.379516,0.242848,-1.345924,-0.569538,1.165346,-2.445837,-0.134223,0.377168,-0.224249,0.302626,0.563546,-1.315532,0.265427,0.287621,0.000000,0.000000,0.000000,-0.180728,-0.064420,0.287808,0.009600,-0.800521,-1.381519,0.285828,0.174107,-0.330031,0.420724,-0.825685,-1.766408,-9.173573,-2.920020,36.962379,-3.275242,-13.586794,-27.457731,22.743860,13.470686,-45.287987,31.165672,-14.836845,-30.426058,0.000000,0.000000,0.000000,-0.080309,-0.070561,0.040016,0.012313,0.006931,-0.999900,-0.062893,-0.019990,-0.103984,0.246078,0.119498,0.385317,-0.007095,0.011409,0.031198,0.132084,0.129516,0.242848,-0.067296,-0.028477,0.058267,-0.122292,-0.006711,0.018858,-0.011212,0.015131,0.028177,-0.065777,0.013271,0.014381,-0.180728,-0.064420,0.287808,0.009600,-0.800521,-1.381519,0.285828,0.174107,-0.330031,0.420724,-0.825685,-1.766408
441,-0.007814,0.009996,0.070327,0.104261,-0.171290,-0.084290,-0.079719,-0.031159,0.178229,-0.304303,0.374435,0.383639,-0.008437,0.017497,0.282732,-0.376832,0.381290,0.255120,-0.697290,-0.733626,1.815227,-2.414054,0.199609,-0.211881,0.149419,0.546720,-0.194672,0.308666,0.031351,0.638903,0.000000,0.000000,0.000000,0.081514,-0.127337,0.278816,-0.026642,-0.585772,-1.369635,0.384586,0.152381,-0.308007,0.522178,-1.032426,-1.958123,11.853619,-7.183364,28.054722,-4.134691,-11.198436,-26.851107,30.806725,10.112165,-37.369781,36.854416,-17.565020,-34.368481,0.000000,0.000000,0.000000,0.026065,-0.042823,-0.021073,0.009995,0.007813,-0.999920,-0.079719,-0.031159,-0.071771,0.195697,0.124435,0.383639,-0.008437,0.017497,0.032732,0.123168,0.131290,0.255120,-0.034865,-0.036681,0.090761,-0.120703,0.009980,-0.010594,0.007471,0.027336,-0.009734,0.015433,0.001568,0.031945,0.081514,-0.127337,0.278816,-0.026642,-0.585772,-1.369635,0.384586,0.152381,-0.308007,0.522178,-1.032426,-1.958123
461,-0.004859,0.004021,0.069158,0.302762,-0.334106,-0.018525,-0.076459,-0.042951,0.219551,-0.353391,0.386851,0.366286,-0.008533,0.031015,0.274007,-0.356890,0.378606,0.262119,0.795657,-0.735688,2.177678,-2.440563,1.004182,-1.470800,-0.098319,0.759992,-0.630850,1.099289,-0.391740,0.380092,0.000000,0.000000,0.000000,0.330280,-0.103313,0.205627,-0.067651,-0.225812,-1.356224,0.474117,0.145594,-0.212346,0.690563,-1.041045,-2.107695,27.948465,-4.698319,13.112442,-5.371438,-6.709656,-25.370806,38.466778,8.509541,-22.704327,46.644447,-17.566996,-36.441113,0.000000,0.000000,0.000000,0.075691,-0.083527,-0.004631,0.004021,0.004859,-0.999980,-0.076459,-0.042951,-0.030449,0.146609,0.136851,0.366286,-0.008533,0.031015,0.024007,0.143110,0.128606,0.262119,0.039783,-0.036784,0.108884,-0.122028,0.050209,-0.073540,-0.004916,0.038000,-0.031542,0.054964,-0.019587,0.019005,0.330280,-0.103313,0.205627,-0.067651,-0.225812,-1.356224,0.474117,0.145594,-0.212346,0.690563,-1.041045,-2.107695
481,0.006478,-0.000166,0.069022,0.679317,-0.211873,0.041022,-0.045396,-0.052970,0.261064,-0.410532,0.434308,0.309816,-0.010882,0.045971,0.258044,-0.329374,0.363218,0.255743,2.331891,-0.355356,1.834833,-3.198446,3.072516,-3.570292,-0.061359,0.850928,-0.613496,1.571851,-0.943302,-0.686217,0.000000,0.000000,0.000000,0.492995,-0.043888,0.074985,-0.127552,0.089004,-1.372509,0.541589,0.251221,0.011381,0.956757,-0.766871,-2.253362,35.480877,-0.460452,-4.289074,-5.818675,-4.786078,-22.240673,43.902367,16.136446,4.155815,65.789879,-12.528230,-37.460392,0.000000,0.000000,0.000000,0.169829,-0.052968,0.010256,-0.000166,-0.006478,-0.999979,-0.045396,-0.052970,0.011064,0.089468,0.184308,0.309816,-0.010882,0.045971,0.008044,0.170626,0.113218,0.255743,0.116595,-0.017768,0.091742,-0.159922,0.153626,-0.178515,-0.003068,0.042546,-0.030675,0.078593,-0.047165,-0.034311,0.492995,-0.043888,0.074985,-0.127552,0.089004,-1.372509,0.541589,0.251221,0.011381,0.956757,-0.766871,-2.253362
501,0.013690,0.000320,0.065456,0.154431,0.167388,-0.657818,-0.021092,-0.057524,0.289107,-0.478219,0.506885,0.191891,-0.009731,0.065769,0.251860,-0.298791,0.339729,0.249512,0.302434,-0.211593,0.836930,-3.621777,3.337847,-7.119157,0.269693,1.176276,0.013518,1.534700,-1.136872,-0.121999,0.000000,0.000000,0.000000,0.398361,0.019005,-0.149905,-0.136576,0.119400,-1.362385,0.880069,0.360289,0.283288,1.103170,-0.299268,-2.116307,30.973360,4.876037,-26.898903,-3.199733,-5.848975,-18.051882,70.203712,23.609280,32.564754,76.346024,-5.396024,-35.754467,0.000000,0.000000,0.000000,0.038608,0.041847,-0.164455,0.000320,-0.013690,-0.999906,-0.021092,-0.057524,0.039107,0.021781,0.256885,0.191891,-0.009731,0.065769,0.001860,0.201209,0.089729,0.249512,0.015122,-0.010580,0.041847,-0.181089,0.166892,-0.355958,0.013485,0.058814,0.000676,0.076735,-0.056844,-0.006100,0.398361,0.019005,-0.149905,-0.136576,0.119400,-1.362385,0.880069,0.360289,0.283288,1.103170,-0.299268,-2.116307
521,0.016983,0.006238,0.051099,0.257568,0.407834,-0.786265,-0.018791,-0.056182,0.299078,-0.544036,0.561006,0.023729,-0.012991,0.086238,0.254833,-0.275877,0.335654,0.209388,0.049902,0.512637,-0.071378,-3.099600,2.146662,-8.554436,-0.318876,0.813010,0.252963,1.018899,0.205553,-2.796639,0.000000,0.000000,0.000000,0.112812,0.091474,-0.308780,0.121827,-0.176996,-0.905669,0.805878,0.229813,0.328748,1.050963,0.059642,-1.890870,9.736926,8.309229,-39.741974,19.302174,-10.586440,-5.988210,65.685936,12.628368,35.132275,72.609024,-0.711341,-29.826235,0.000000,0.000000,0.000000,0.064392,0.101959,-0.196566,0.006238,-0.016982,-0.999836,-0.018791,-0.056182,0.049078,-0.044036,0.311006,0.023729,-0.012991,0.086238,0.004833,0.224123,0.085654,0.209388,0.002495,0.025632,-0.003569,-0.154980,0.107333,-0.427722,-0.015944,0.040650,0.012648,0.050945,0.010278,-0.139832,0.112812,0.091474,-0.308780,0.121827,-0.176996,-0.905669,0.805878,0.229813,0.328748,1.050963,0.059642,-1.890870
541,0.018886,0.005439,0.039468,-0.160162,-0.487794,-0.299552,-0.015675,-0.052539,0.298982,-0.593027,0.537085,-0.079096,-0.012751,0.092183,0.254545,-0.260633,0.327361,0.181921,-0.042999,0.508706,0.046595,-2.103807,-2.452787,-2.004434,0.277746,-0.032501,-0.225591,0.501660,-0.689476,-1.453207,0.000000,0.000000,0.000000,0.004032,0.184254,-0.338773,0.358231,-0.943105,-0.153565,0.775138,0.077762,0.203546,0.693445,-0.035726,-1.772879,1.188485,15.601085,-43.179932,37.895485,-16.868023,2.809406,62.128151,2.307316,23.645809,44.644554,-1.093988,-28.315140,0.000000,0.000000,0.000000,-0.040040,-0.121949,-0.074888,0.005439,-0.018885,-0.999807,-0.015675,-0.052539,0.048982,-0.093027,0.287085,-0.079096,-0.012751,0.092183,0.004545,0.239367,0.077361,0.181921,-0.002150,0.025435,0.002330,-0.105190,-0.122639,-0.100222,0.013887,-0.001625,-0.011280,0.025083,-0.034474,-0.072660,0.004032,0.184254,-0.338773,0.358231,-0.943105,-0.153565,0.775138,0.077762,0.203546,0.693445,-0.035726,-1.772879
561,0.010132,-0.003551,0.038556,-0.503529,-0.189294,0.122598,-0.013566,-0.037966,0.300229,-0.617331,0.439246,-0.023729,-0.007574,0.086574,0.250087,-0.246108,0.316863,0.153350,0.056374,0.913677,0.083218,-0.634157,-6.551344,4.368538,0.035521,-0.361588,-0.244430,0.764066,-0.737174,-1.378186,0.000000,0.000000,0.000000,-0.020068,0.259139,-0.180154,0.434009,-1.354967,0.405519,0.647041,0.071692,0.220813,0.647652,-0.361904,-1.614763,-1.243541,20.152163,-25.868904,41.522820,-17.417549,2.556129,51.890194,3.144619,26.384516,39.669147,-5.774001,-25.307880,0.000000,0.000000,0.000000,-0.125882,-0.047324,0.030650,-0.003551,-0.010132,-0.999942,-0.013566,-0.037966,0.050229,-0.117331,0.189246,-0.023729,-0.007574,0.086574,0.000087,0.253892,0.066863,0.153350,0.002819,0.045684,0.004161,-0.031708,-0.327567,0.218427,0.001776,-0.018079,-0.012222,0.038203,-0.036859,-0.068909,-0.020068,0.259139,-0.180154,0.434009,-1.354967,0.405519,0.647041,0.071692,0.220813,0.647652,-0.361904,-1.614763
581,0.004951,-0.004322,0.041822,-0.196298,-0.080127,0.076511,-0.016442,-0.014860,0.301475,-0.610716,0.241794,0.113706,-0.009108,0.079000,0.241218,-0.229522,0.292607,0.129334,0.048560,1.243100,0.102441,0.680992,-10.165164,6.962116,-0.013087,-0.276356,-0.645135,0.787651,-1.833251,-0.722984,0.000000,0.000000,0.000000,0.184087,0.156567,-0.106399,0.278756,-1.162158,0.325645,0.519766,0.156105,0.026343,0.574703,-0.887364,-1.490387,15.147084,9.982173,-17.726282,25.106546,-6.706579,-4.351746,42.062969,10.069277,7.722358,33.090397,-12.079390,-23.602955,0.000000,0.000000,0.000000,-0.049074,-0.020032,0.019128,-0.004322,-0.004950,-0.999978,-0.016442,-0.014860,0.051475,-0.110716,-0.008206,0.113706,-0.009108,0.079000,-0.008782,0.270478,0.042607,0.129334,0.002428,0.062155,0.005122,0.034050,-0.508258,0.348106,-0.000654,-0.013818,-0.032257,0.039383,-0.091663,-0.036149,0.184087,0.156567,-0.106399,0.278756,-1.162158,0.325645,0.519766,0.156105,0.026343,0.574703,-0.887364,-1.490387
601,-0.002454,-0.005253,0.046059,-0.466742,0.131847,0.183934,-0.021620,0.011601,0.302626,-0.590103,0.109009,0.194240,-0.003979,0.078760,0.226262,-0.211737,0.259243,0.132737,-0.239493,0.936735,0.038541,1.187014,-2.589791,2.130316,0.248457,0.181873,-0.865405,0.868665,-1.927063,0.458421,0.000000,0.000000,0.000000,0.316074,-0.042577,-0.046591,0.173734,-0.229911,-0.208447,0.537528,0.225739,-0.005770,0.496597,-1.171637,-1.254442,26.832870,-6.269552,-10.827343,14.934933,6.588662,-10.313967,42.419331,14.726665,6.369204,26.121555,-15.921272,-21.121540,0.000000,0.000000,0.000000,-0.116685,0.032962,0.045983,-0.005253,0.002454,-0.999983,-0.021620,0.011601,0.052626,-0.090103,-0.140991,0.194240,-0.003979,0.078760,-0.023738,0.288263,0.009243,0.132737,-0.011975,0.046837,0.001927,0.059351,-0.129490,0.106516,0.012423,0.009094,-0.043270,0.043433,-0.096353,0.022921,0.316074,-0.042577,-0.046591,0.173734,-0.229911,-0.208447,0.537528,0.225739,-0.005770,0.496597,-1.171637,-1.254442
621,-0.008850,-0.000002,0.055318,-0.124464,0.202867,0.458766,-0.023873,0.017641,0.302194,-0.565560,0.234172,0.102393,-0.004410,0.089019,0.209868,-0.188296,0.240451,0.136428,-0.120370,0.245581,-0.047937,1.371810,8.255166,-6.827701,-0.055607,0.656927,-0.868425,1.234423,-1.215296,0.044965,0.000000,0.000000,0.000000,0.343223,-0.105312,-0.033419,0.138036,0.575915,-0.674336,0.371412,0.325416,-0.060417,0.475626,-0.882220,-1.154730,28.558956,-10.150556,-8.857289,10.486282,1.817226,-6.660183,30.119722,21.063782,2.354569,22.594860,-12.330625,-19.716722,0.000000,0.000000,0.000000,-0.031116,0.050717,0.114691,-0.000002,0.008849,-0.999961,-0.023873,0.017641,0.052194,-0.065560,-0.015828,0.102393,-0.004410,0.089019,-0.040132,0.311704,-0.009549,0.136428,-0.006018,0.012279,-0.002397,0.068591,0.412758,-0.341385,-0.002780,0.032846,-0.043421,0.061721,-0.060765,0.002248,0.343223,-0.105312,-0.033419,0.138036,0.575915,-0.674336,0.371412,0.325416,-0.060417,0.475626,-0.882220,-1.154730
641,-0.005300,0.003978,0.059809,0.431437,0.098107,-0.153264,-0.028858,0.023154,0.297832,-0.537756,0.404348,-0.021236,-0.006424,0.102968,0.197692,-0.165718,0.215476,0.133840,-0.169313,-0.077850,-0.399794,1.441558,7.521012,-4.470500,-0.117445,0.712870,-0.579941,0.925086,-1.443045,-0.375010,0.000000,0.000000,0.000000,0.364404,-0.070558,-0.130094,0.227935,0.395787,-0.647836,0.444433,0.381615,-0.023348,0.507748,-0.493459,-1.101668,30.828154,-6.208831,-17.413395,16.213327,-5.067121,-3.997624,36.197243,24.576332,6.212857,24.663982,-5.916721,-18.528133,0.000000,0.000000,0.000000,0.107859,0.024527,-0.038316,0.003978,0.005300,-0.999978,-0.028858,0.023154,0.047832,-0.037756,0.154348,-0.021236,-0.006424,0.102968,-0.052308,0.334282,-0.034524,0.133840,-0.008466,-0.003892,-0.019990,0.072078,0.376051,-0.223525,-0.005872,0.035643,-0.028997,0.046254,-0.072152,-0.018751,0.364404,-0.070558,-0.130094,0.227935,0.395787,-0.647836,0.444433,0.381615,-0.023348,0.507748,-0.493459,-1.101668
661,0.004849,0.003740,0.053102,0.500670,-0.075918,-0.502076,-0.030967,0.024640,0.281533,-0.505015,0.448881,-0.061647,-0.006280,0.112460,0.189399,-0.146399,0.202533,0.121616,-0.141558,0.155268,-1.099768,1.749745,0.677780,-0.213415,-0.052922,0.311206,-0.032309,0.963580,-0.116966,-0.952123,0.000000,0.000000,0.000000,0.280955,0.024708,-0.340563,0.304808,-0.285603,-0.167580,0.612802,0.221137,0.120380,0.515643,-0.137693,-1.075108,24.065239,0.623182,-35.216942,20.353689,-8.455794,-0.338342,49.299553,12.325630,19.870501,24.662268,-1.131638,-17.407692,0.000000,0.000000,0.000000,0.125167,-0.018980,-0.125519,0.003740,-0.004849,-0.999981,-0.030967,0.024640,0.031533,-0.005015,0.198881,-0.061647,-0.006280,0.112460,-0.060601,0.353601,-0.047467,0.121616,-0.007078,0.007763,-0.054988,0.087487,0.033889,-0.010671,-0.002646,0.015560,-0.001615,0.048179,-0.005848,-0.047606,0.280955,0.024708,-0.340563,0.304808,-0.285603,-0.167580,0.612802,0.221137,0.120380,0.515643,-0.137693,-1.075108
682,0.013077,0.003770,0.041117,0.209276,-0.038178,-0.578552,-0.036049,0.021620,0.255264,-0.466091,0.446436,-0.010115,-0.008485,0.114138,0.189974,-0.138058,0.200424,0.105269,-0.400896,-0.014908,-1.340891,2.035880,-1.141138,2.703833,-0.088492,-0.098079,0.074110,-0.002301,0.302674,-0.741584,0.000000,0.000000,0.000000,0.149304,0.092120,-0.371181,0.311687,-0.883240,0.194556,0.619126,0.087707,0.174121,0.407108,0.013259,-1.093455,14.378299,6.520495,-33.899513,18.523136,-15.617232,0.355648,50.092537,2.644254,25.076027,17.969339,0.768828,-17.454641,0.000000,0.000000,0.000000,0.052319,-0.009545,-0.144638,0.003770,-0.013076,-0.999907,-0.036049,0.021620,0.005264,0.033909,0.196436,-0.010115,-0.008485,0.114138,-0.060026,0.361942,-0.049576,0.105269,-0.020045,-0.000745,-0.067045,0.101794,-0.057057,0.135192,-0.004425,-0.004904,0.003706,-0.000115,0.015134,-0.037079,0.149304,0.092120,-0.371181,0.311687,-0.883240,0.194556,0.619126,0.087707,0.174121,0.407108,0.013259,-1.093455
702,0.013159,0.000649,0.034999,-0.099100,-0.206128,-0.059586,-0.045540,0.022387,0.225927,-0.419208,0.366813,0.083554,-0.008437,0.109967,0.192323,-0.143667,0.208334,0.081109,-0.431624,0.045876,-1.358724,2.202557,-4.616899,5.684981,0.079575,-0.251141,0.155459,-0.516137,0.205218,-1.133516,0.000000,0.000000,0.000000,0.208465,0.081082,-0.336014,0.223561,-1.195887,0.119704,0.453486,0.038906,0.143620,0.316402,-0.019109,-1.145597,19.469517,5.521906,-28.080559,9.573663,-16.626535,-3.467463,36.714951,-0.655163,21.366669,11.612932,0.156870,-17.328989,0.000000,0.000000,0.000000,-0.024775,-0.051532,-0.014897,0.000649,-0.013159,-0.999913,-0.045540,0.022387,-0.024073,0.080792,0.116813,0.083554,-0.008437,0.109967,-0.057677,0.356333,-0.041666,0.081109,-0.021581,0.002294,-0.067936,0.110128,-0.230845,0.284249,0.003979,-0.012557,0.007773,-0.025807,0.010261,-0.056676,0.208465,0.081082,-0.336014,0.223561,-1.195887,0.119704,0.453486,0.038906,0.143620,0.316402,-0.019109,-1.145597
722,0.009038,-0.002218,0.033837,-0.274839,-0.137655,-0.127813,-0.050286,0.025694,0.202006,-0.368922,0.262071,0.189063,-0.008149,0.107714,0.196014,-0.156274,0.205841,0.079048,-0.068981,-0.006711,-1.018420,2.730534,-4.587801,4.357224,0.026797,0.013422,0.186714,-0.567573,-0.249703,0.020421,0.000000,0.000000,0.000000,0.361047,-0.005699,-0.101673,0.079309,-0.970743,-0.258741,0.306035,0.112857,0.034940,0.265558,-0.162041,-1.102055,31.332661,-1.439941,-0.455059,-5.047188,-9.375488,-11.932247,24.937880,4.882228,8.452919,9.040413,-1.361325,-17.699451,0.000000,0.000000,0.000000,-0.068710,-0.034414,-0.031953,-0.002218,-0.009038,-0.999957,-0.050286,0.025694,-0.047994,0.131078,0.012071,0.189063,-0.008149,0.107714,-0.053986,0.343726,-0.044159,0.079048,-0.003449,-0.000336,-0.050921,0.136527,-0.229390,0.217861,0.001340,0.000671,0.009336,-0.028379,-0.012485,0.001021,0.361047,-0.005699,-0.101673,0.079309,-0.970743,-0.258741,0.306035,0.112857,0.034940,0.265558,-0.162041,-1.102055
742,0.000373,-0.002602,0.030099,-0.384215,0.004859,-0.107749,-0.046451,0.020996,0.186570,-0.318061,0.249751,0.208382,-0.007574,0.113467,0.201047,-0.168738,0.203252,0.090984,0.284841,-0.460242,-0.588857,2.549620,1.215919,-0.149611,-0.048944,0.424625,0.053593,-0.717088,-0.212121,0.596575,0.000000,0.000000,0.000000,0.419000,-0.172405,-0.004026,0.009725,-0.325525,-0.743732,0.145183,0.175899,-0.108751,0.134318,-0.342276,-1.017424,34.759693,-13.684404,9.691070,-12.958096,-5.163189,-14.887720,12.090422,8.679001,-7.678635,-1.039766,-4.100449,-17.438129,0.000000,0.000000,0.000000,-0.096054,0.001215,-0.026937,-0.002602,-0.000373,-0.999997,-0.046451,0.020996,-0.063430,0.181939,-0.000249,0.208382,-0.007574,0.113467,-0.048953,0.331262,-0.046748,0.090984,0.014242,-0.023012,-0.029443,0.127481,0.060796,-0.007481,-0.002447,0.021231,0.002680,-0.035854,-0.010606,0.029829,0.419000,-0.172405,-0.004026,0.009725,-0.325525,-0.743732,0.145183,0.175899,-0.108751,0.134318,-0.342276,-1.017424
762,-0.002197,-0.005939,0.029073,0.015750,-0.263068,-0.032458,-0.041801,0.009012,0.176552,-0.271610,0.307563,0.190549,-0.008725,0.124013,0.201623,-0.185324,0.204451,0.095059,0.146160,-0.687511,-0.211737,2.224560,2.963507,-0.334456,-0.183598,0.606066,-0.011265,-1.263569,0.088492,0.033796,0.000000,0.000000,0.000000,0.306991,-0.140491,0.030281,0.148435,-0.008938,-0.935603,0.006217,0.158245,-0.229017,-0.028695,-0.338753,-1.039268,25.861349,-9.978677,12.154296,-2.921430,-4.335473,-16.579323,1.277930,6.180541,-20.901409,-11.863155,-4.407067,-17.236763,0.000000,0.000000,0.000000,0.003937,-0.065767,-0.008114,-0.005939,0.002197,-0.999980,-0.041801,0.009012,-0.073448,0.228390,0.057563,0.190549,-0.008725,0.124013,-0.048377,0.314676,-0.045549,0.095059,0.007308,-0.034376,-0.010587,0.111228,0.148175,-0.016723,-0.009180,0.030303,-0.000563,-0.063178,0.004425,0.001690,0.306991,-0.140491,0.030281,0.148435,-0.008938,-0.935603,0.006217,0.158245,-0.229017,-0.028695,-0.338753,-1.039268
782,0.001161,-0.011484,0.025521,0.300970,-0.265632,-0.435788,-0.043335,-0.007622,0.175880,-0.228180,0.342174,0.202965,-0.011169,0.132785,0.201671,-0.225447,0.204307,0.093381,-0.336134,-0.958882,0.206177,2.123892,1.148376,0.653668,-0.099421,0.302722,0.020373,-2.447658,-0.092950,-0.149467,0.000000,0.000000,0.000000,0.023260,-0.134728,0.131018,0.299722,-0.103802,-0.847969,0.009593,0.076304,-0.224845,-0.219243,-0.243797,-1.066705,4.428966,-8.076057,20.869831,7.697343,-4.393526,-16.753489,1.487613,-0.052071,-20.647688,-22.545185,-2.817232,-17.434822,0.000000,0.000000,0.000000,0.075242,-0.066408,-0.108947,-0.011484,-0.001161,-0.999933,-0.043335,-0.007622,-0.074120,0.271820,0.092174,0.202965,-0.011169,0.132785,-0.048329,0.274553,-0.045693,0.093381,-0.016807,-0.047944,0.010309,0.106195,0.057419,0.032683,-0.004971,0.015136,0.001019,-0.122383,-0.004647,-0.007473,0.023260,-0.134728,0.131018,0.299722,-0.103802,-0.847969,0.009593,0.076304,-0.224845,-0.219243,-0.243797,-1.066705
802,0.009514,-0.015480,0.012833,0.472928,-0.181351,-0.703765,-0.055559,-0.034323,0.185132,-0.187289,0.358280,0.215716,-0.012080,0.135853,0.201766,-0.270029,0.216004,0.091320,-0.905672,-1.435902,0.819913,2.015699,0.608367,0.485936,0.002541,-0.223626,0.032645,-1.459583,1.171722,-0.014046,0.000000,0.000000,0.000000,-0.252129,-0.221719,0.290825,0.427130,-0.156678,-0.656040,0.012394,-0.113851,-0.334512,-0.425887,-0.268992,-0.981647,-16.142435,-13.418652,35.147972,16.515846,-5.033045,-14.146716,1.475897,-14.381821,-32.371651,-37.681263,-3.925271,-16.219053,0.000000,0.000000,0.000000,0.118232,-0.045338,-0.175941,-0.015479,-0.009513,-0.999835,-0.055559,-0.034323,-0.064868,0.312711,0.108280,0.215716,-0.012080,0.135853,-0.048234,0.229971,-0.033996,0.091320,-0.045284,-0.071795,0.040996,0.100785,0.030418,0.024297,0.000127,-0.011181,0.001632,-0.072979,0.058586,-0.000702,-0.252129,-0.221719,0.290825,0.427130,-0.156678,-0.656040,0.012394,-0.113851,-0.334512,-0.425887,-0.268992,-0.981647
822,0.015215,-0.024125,0.002251,0.144186,-0.513966,-0.678561,-0.084513,-0.065098,0.200184,-0.174922,0.361109,0.241842,-0.010594,0.122239,0.205601,-0.297161,0.239876,0.092998,-2.045468,-1.824143,0.679554,-0.360294,-0.241266,2.014692,0.113898,-1.045791,0.308378,-1.613077,0.859077,0.220749,0.000000,0.000000,0.000000,-0.397457,-0.262120,0.359765,0.392301,-0.110667,-0.387719,0.142617,-0.271455,-0.421318,-0.440318,-0.311788,-0.783440,-23.911356,-14.024922,40.828014,17.918606,-3.791186,-11.102398,11.487270,-24.421804,-44.429203,-39.691376,-5.507813,-13.302481,0.000000,0.000000,0.000000,0.036047,-0.128491,-0.169640,-0.024123,-0.015210,-0.999593,-0.084513,-0.065098,-0.049816,0.325078,0.111109,0.241842,-0.010594,0.122239,-0.044399,0.202839,-0.010124,0.092998,-0.102273,-0.091207,0.033978,-0.018015,-0.012063,0.100735,0.005695,-0.052290,0.015419,-0.080654,0.042954,0.011037,-0.397457,-0.262120,0.359765,0.392301,-0.110667,-0.387719,0.142617,-0.271455,-0.421318,-0.440318,-0.311788,-0.783440
842,0.020036,-0.030782,-0.018319,0.233797,-0.333182,-1.511705,-0.126122,-0.100572,0.212552,-0.198938,0.320219,0.291456,-0.010306,0.095490,0.215812,-0.307755,0.263222,0.111022,-2.100355,-1.793224,0.651702,-1.505746,-2.414821,2.032908,-0.048368,-1.586951,0.529751,-0.093956,0.959889,0.615270,0.000000,0.000000,0.000000,-0.312628,-0.188363,0.448227,0.197649,-0.059065,-0.202400,0.221239,-0.268066,-0.402079,-0.230171,-0.231653,-0.757015,-14.735579,-6.597411,50.646301,7.234833,0.193301,-10.351192,18.148014,-21.577173,-45.203156,-26.018173,-4.752770,-13.863760,0.000000,0.000000,0.000000,0.058449,-0.083296,-0.377926,-0.030777,-0.020025,-0.999326,-0.126122,-0.100572,-0.037448,0.301062,0.070219,0.291456,-0.010306,0.095490,-0.034188,0.192245,0.013222,0.111022,-0.105018,-0.089661,0.032585,-0.075287,-0.120741,0.101645,-0.002418,-0.079348,0.026488,-0.004698,0.047994,0.030764,-0.312628,-0.188363,0.448227,0.197649,-0.059065,-0.202400,0.221239,-0.268066,-0.402079,-0.230171,-0.231653,-0.757015
862,0.034867,-0.036870,-0.051255,0.688335,-0.375784,-1.543381,-0.143763,-0.132210,0.230193,-0.241890,0.286471,0.326402,-0.013902,0.057572,0.222571,-0.309145,0.244047,0.152919,0.108961,-1.358724,0.934817,-2.535527,-0.934434,1.572139,-0.210587,-1.963448,0.224153,0.219743,-2.287693,2.329254,0.000000,0.000000,0.000000,0.327794,-0.048809,0.220594,-0.222101,0.054113,-0.420189,0.210531,-0.239405,-0.237479,0.171960,-0.309675,-0.799525,32.278366,4.940425,21.446251,-22.074930,1.527743,-13.480378,17.936073,-16.469109,-25.675787,5.606880,-2.730838,-16.851810,0.000000,0.000000,0.000000,0.172084,-0.093946,-0.385845,-0.036862,-0.034836,-0.998713,-0.143763,-0.132210,-0.019807,0.258110,0.036471,0.326402,-0.013902,0.057572,-0.027429,0.190855,-0.005953,0.152919,0.005448,-0.067936,0.046741,-0.126776,-0.046722,0.078607,-0.010529,-0.098172,0.011208,0.010987,-0.114385,0.116463,0.327794,-0.048809,0.220594,-0.222101,0.054113,-0.420189,0.210531,-0.239405,-0.237479,0.171960,-0.309675,-0.799525
882,0.045127,-0.045923,-0.072604,0.335690,-0.507523,-0.692732,-0.107618,-0.154644,0.250998,-0.302913,0.326211,0.339010,-0.018887,0.031063,0.231104,-0.286087,0.251573,0.182688,3.581126,-0.237623,0.699975,-3.597329,3.386550,0.152008,-0.235370,-0.750884,0.804525,2.494732,1.368838,0.466091,0.000000,0.000000,0.000000,1.133985,0.234032,-0.075602,-0.665190,0.426400,-0.856028,0.194842,-0.070610,0.143815,0.908930,-0.118503,-1.257956,86.565659,25.716764,-12.985474,-52.257175,1.675585,-18.726572,16.926418,-4.765371,13.361897,58.265190,-3.281205,-22.548920,0.000000,0.000000,0.000000,0.083923,-0.126881,-0.173183,-0.045907,-0.045064,-0.997929,-0.107618,-0.154644,0.000998,0.197087,0.076211,0.339010,-0.018887,0.031063,-0.018896,0.213913,0.001573,0.182688,0.179056,-0.011881,0.034999,-0.179866,0.169328,0.007600,-0.011769,-0.037544,0.040226,0.124737,0.068442,0.023305,1.133985,0.234032,-0.075602,-0.665190,0.426400,-0.856028,0.194842,-0.070610,0.143815,0.908930,-0.118503,-1.257956
902,0.049633,-0.057559,-0.081528,-0.047488,-0.529502,-0.422198,-0.039884,-0.150857,0.260633,-0.390302,0.401328,0.305358,-0.022147,0.042328,0.251477,-0.261544,0.250326,0.195487,1.862013,0.882375,0.170080,-4.757738,3.491820,-2.662511,0.044102,1.328907,1.394628,-0.381434,-0.113515,1.706602,0.000000,0.000000,0.000000,1.038345,0.351943,-0.327877,-0.740922,0.576756,-1.176593,0.339196,0.145628,0.539943,1.405447,0.555835,-1.823509,75.374893,32.025078,-38.869583,-53.033649,2.504376,-21.058184,28.401903,8.013523,52.403427,99.896507,7.716354,-30.962055,0.000000,0.000000,0.000000,-0.011872,-0.132376,-0.105549,-0.057527,-0.049531,-0.997114,-0.039884,-0.150857,0.010633,0.109698,0.151328,0.305358,-0.022147,0.042328,0.001477,0.238456,0.000326,0.195487,0.093101,0.044119,0.008504,-0.237887,0.174591,-0.133126,0.002205,0.066445,0.069731,-0.019072,-0.005676,0.085330,1.038345,0.351943,-0.327877,-0.740922,0.576756,-1.176593,0.339196,0.145628,0.539943,1.405447,0.555835,-1.823509
922,0.045762,-0.058029,-0.084346,-0.168029,0.017572,0.646988,-0.044485,-0.112124,0.260633,-0.482820,0.556643,0.161212,-0.001103,0.079192,0.282780,-0.281150,0.271754,0.159246,-0.309720,2.270963,-0.304927,-4.567811,9.627600,-8.395525,1.326606,2.340759,1.904437,-0.495044,1.461548,-3.684191,0.000000,0.000000,0.000000,0.477918,0.311994,-0.455322,-0.430751,0.424040,-1.147215,0.763844,0.294060,0.726029,1.511998,1.198010,-1.657491,41.513596,24.588213,-50.770435,-23.387798,-7.615367,-12.516433,56.984276,14.924937,67.970535,114.367905,15.712372,-25.011036,0.000000,0.000000,0.000000,-0.042007,0.004393,0.161747,-0.057996,-0.045669,-0.997272,-0.044485,-0.112124,0.010633,0.017180,0.306643,0.161212,-0.001103,0.079192,0.032780,0.218850,0.021754,0.159246,-0.015486,0.113548,-0.015246,-0.228391,0.481380,-0.419776,0.066330,0.117038,0.095222,-0.024752,0.073077,-0.184210,0.477918,0.311994,-0.455322,-0.430751,0.424040,-1.147215,0.763844,0.294060,0.726029,1.511998,1.198010,-1.657491
942,0.041702,-0.062171,-0.072807,-0.014876,-0.505003,0.734529,-0.045971,-0.068742,0.264851,-0.533346,0.611387,-0.040794,-0.004410,0.126218,0.309960,-0.290306,0.325108,0.090361,-0.017209,2.336636,0.585933,-1.526215,-1.094783,-9.663504,-0.184653,2.503361,0.908884,-0.773941,2.380019,-2.991263,0.000000,0.000000,0.000000,0.243729,0.243349,-0.379586,-0.039040,-0.017018,-0.830765,0.782119,0.417939,0.513495,1.294294,1.323303,-1.418326,21.696301,16.472712,-46.876038,2.533096,-7.214781,-1.548539,63.871128,22.445208,45.167919,96.736183,16.156338,-19.878986,0.000000,0.000000,0.000000,-0.003719,-0.126251,0.183632,-0.062131,-0.041609,-0.997200,-0.045971,-0.068742,0.014851,-0.033346,0.361387,-0.040794,-0.004410,0.126218,0.059960,0.209694,0.075108,0.090361,-0.000860,0.116832,0.029297,-0.076311,-0.054739,-0.483175,-0.009233,0.125168,0.045444,-0.038697,0.119001,-0.149563,0.243729,0.243349,-0.379586,-0.039040,-0.017018,-0.830765,0.782119,0.417939,0.513495,1.294294,1.323303,-1.418326
963,0.034315,-0.067052,-0.045240,-0.644293,-0.017973,1.834725,-0.027372,-0.017689,0.281054,-0.552665,0.553144,-0.087389,-0.000575,0.171758,0.318780,-0.303393,0.412976,-0.010834,0.958307,2.662416,0.807545,-0.548686,-2.626319,1.187301,0.126410,1.975192,0.378941,-0.526347,4.369305,-5.701423,0.000000,0.000000,0.000000,0.172671,0.304127,-0.332447,0.162047,-0.617291,-0.195546,0.806894,0.345782,0.571777,1.155378,1.058409,-1.221141,13.006433,18.622900,-45.531296,16.973183,-11.701842,-1.583655,64.097725,15.950033,55.241341,85.889465,8.695352,-12.803694,0.000000,0.000000,0.000000,-0.161073,-0.004493,0.458681,-0.067002,-0.034231,-0.997165,-0.027372,-0.017689,0.031054,-0.052665,0.303144,-0.087389,-0.000575,0.171758,0.068780,0.196607,0.162976,-0.010834,0.047915,0.133121,0.040377,-0.027434,-0.131316,0.059365,0.006320,0.098760,0.018947,-0.026317,0.218465,-0.285071,0.172671,0.304127,-0.332447,0.162047,-0.617291,-0.195546,0.806894,0.345782,0.571777,1.155378,1.058409,-1.221141
983,0.026882,-0.067642,-0.014568,-0.082525,-0.003730,1.372822,-0.012464,0.044390,0.294716,-0.551274,0.498736,-0.073152,-0.002205,0.211689,0.322615,-0.304447,0.468583,-0.121808,0.763731,3.177881,0.650072,0.321800,-4.245819,0.428364,-0.160493,2.104670,-0.128950,0.326354,1.616049,-4.329038,0.000000,0.000000,0.000000,0.080203,0.247287,-0.094189,0.179025,-0.724719,0.041213,0.742350,0.432230,0.112170,0.953279,0.461886,-0.754399,4.646469,10.266378,-19.123104,15.703300,-11.500557,1.559989,59.944801,20.827812,5.969713,67.974205,1.185949,-4.113466,0.000000,0.000000,0.000000,-0.020631,-0.000933,0.343206,-0.067591,-0.026818,-0.997353,-0.012464,0.044390,0.044716,-0.051274,0.248736,-0.073152,-0.002205,0.211689,0.072615,0.195553,0.218583,-0.121808,0.038187,0.158894,0.032504,0.016090,-0.212291,0.021418,-0.008025,0.105233,-0.006448,0.016318,0.080802,-0.216452,0.080203,0.247287,-0.094189,0.179025,-0.724719,0.041213,0.742350,0.432230,0.112170,0.953279,0.461886,-0.754399
1004,0.016097,-0.069289,0.011384,-0.587850,0.003114,0.915883,-0.019846,0.112748,0.303393,-0.538811,0.387666,-0.035329,0.002541,0.253155,0.317294,-0.292415,0.426351,-0.134080,-0.880074,3.237802,0.319739,0.846566,-4.329038,2.184820,0.234507,1.711683,-0.380235,0.296250,-3.952206,1.039847,0.000000,0.000000,0.000000,-0.177438,0.149125,-0.029949,0.410460,-0.524786,0.027294,0.978908,0.209756,0.046923,0.508194,-0.303159,-0.078660,-11.433891,-0.654718,-10.884706,32.372276,-5.686927,-1.359789,77.327774,2.111744,0.750039,31.537321,-4.020102,0.537230,0.000000,0.000000,0.000000,-0.146963,0.000778,0.228971,-0.069234,-0.016058,-0.997471,-0.019846,0.112748,0.053393,-0.038811,0.137666,-0.035329,0.002541,0.253155,0.067294,0.207585,0.176351,-0.134080,-0.044004,0.161890,0.015987,0.042328,-0.216452,0.109241,0.011725,0.085584,-0.019012,0.014813,-0.197610,0.051992,-0.177438,0.149125,-0.029949,0.410460,-0.524786,0.027294,0.978908,0.209756,0.046923,0.508194,-0.303159,-0.078660
1025,0.005377,-0.072128,0.021089,-0.271723,-0.231883,0.283907,-0.050430,0.173292,0.306988,-0.513979,0.326786,-0.007047,0.004266,0.285464,0.309864,-0.278753,0.317198,-0.049806,-2.128974,2.459978,0.069317,1.457857,-1.084476,1.321908,0.310104,1.224261,-0.645231,0.791534,-4.857686,4.824801,0.000000,0.000000,0.000000,-0.417003,-0.032920,-0.006829,0.497688,0.072241,-0.050955,0.737954,0.111027,-0.096963,0.375153,-0.501346,0.263788,-26.417988,-15.901371,-6.980600,36.869545,1.634517,-1.911567,58.249393,-5.768852,-12.977252,19.232998,-3.678467,0.007052,0.000000,0.000000,0.000000,-0.067931,-0.057971,0.070977,-0.072065,-0.005363,-0.997386,-0.050430,0.173292,0.056988,-0.013979,0.076786,-0.007047,0.004266,0.285464,0.059864,0.221247,0.067198,-0.049806,-0.106449,0.122999,0.003466,0.072893,-0.054224,0.066095,0.015505,0.061213,-0.032262,0.039577,-0.242884,0.241240,-0.417003,-0.032920,-0.006829,0.497688,0.072241,-0.050955,0.737954,0.111027,-0.096963,0.375153,-0.501346,0.263788
1046,0.002307,-0.078662,0.028064,0.075049,-0.278234,0.223429,-0.096641,0.210491,0.306844,-0.472898,0.396822,0.008772,0.003931,0.299941,0.294428,-0.254161,0.217921,0.042376,-1.891686,0.996848,-0.070659,2.233812,5.367543,0.710521,-0.155364,0.493942,-0.821351,1.263089,-4.177749,3.857195,0.000000,0.000000,0.000000,-0.057451,-0.234754,-0.020909,0.583330,0.723486,-0.038997,0.371782,0.058106,-0.141116,0.359863,-0.219083,0.150338,4.290224,-30.021772,-7.501133,40.195217,3.447521,-1.560979,30.180885,-8.826921,-15.262725,15.750165,1.406477,-2.275884,0.000000,0.000000,0.000000,0.018762,-0.069559,0.055857,-0.078581,-0.002300,-0.996905,-0.096641,0.210491,0.056844,0.027102,0.146822,0.008772,0.003931,0.299941,0.044428,0.245839,-0.032079,0.042376,-0.094584,0.049842,-0.003533,0.111691,0.268377,0.035526,-0.007768,0.024697,-0.041068,0.063154,-0.208887,0.192860,-0.057451,-0.234754,-0.020909,0.583330,0.723486,-0.038997,0.371782,0.058106,-0.141116,0.359863,-0.219083,0.150338
1067,0.017387,-0.084645,0.034969,0.970140,-0.259431,0.509332,-0.107139,0.206992,0.306125,-0.419352,0.541064,0.026413,-0.001582,0.301427,0.275925,-0.228323,0.138346,0.066872,0.498304,-0.786980,-0.018504,2.827702,6.528287,1.485085,-0.578598,-0.085328,-1.025131,1.058495,-2.314441,-0.693983,0.000000,0.000000,0.000000,0.491469,-0.315687,-0.001205,0.508291,0.729257,-0.025532,-0.041823,0.152912,-0.192459,0.399700,0.274144,-0.250008,42.957905,-32.080711,-5.632135,30.515472,-0.838665,-1.786594,-1.977297,0.285702,-18.297802,18.202356,9.201672,-4.799297,0.000000,0.000000,0.000000,0.242535,-0.064858,0.127333,-0.084544,-0.017324,-0.996269,-0.107139,0.206992,0.056125,0.080648,0.291064,0.026413,-0.001582,0.301427,0.025925,0.271677,-0.111654,0.066872,0.024915,-0.039349,-0.000925,0.141385,0.326414,0.074254,-0.028930,-0.004266,-0.051257,0.052925,-0.115722,-0.034699,0.491469,-0.315687,-0.001205,0.508291,0.729257,-0.025532,-0.041823,0.152912,-0.192459,0.399700,0.274144,-0.250008
1088,0.045078,-0.091579,0.051276,1.524296,-0.550406,0.962351,-0.080486,0.164999,0.301283,-0.363601,0.623036,0.145441,-0.020421,0.296346,0.254257,-0.233165,0.147118,0.042951,1.808659,-2.142396,-0.032597,2.607192,1.948299,6.792371,-1.239936,-0.283595,-0.996944,-0.871876,0.074446,-1.254125,0.000000,0.000000,0.000000,0.662838,-0.326504,0.076147,0.756910,0.351076,0.068370,-0.113104,0.147963,-0.189078,0.099393,0.620064,-0.524638,51.285175,-27.987782,3.309810,48.385460,-4.272614,-8.311908,-5.253006,0.564791,-15.438744,-0.790904,10.930120,-7.105269,0.000000,0.000000,0.000000,0.381074,-0.137602,0.240588,-0.091451,-0.044874,-0.994798,-0.080486,0.164999,0.051283,0.136399,0.373036,0.145441,-0.020421,0.296346,0.004257,0.266835,-0.102882,0.042951,0.090433,-0.107120,-0.001630,0.130360,0.097415,0.339619,-0.061997,-0.014180,-0.049847,-0.043594,0.003722,-0.062706,0.662838,-0.326504,0.076147,0.756910,0.351076,0.068370,-0.113104,0.147963,-0.189078,0.099393,0.620064,-0.524638
1109,0.051959,-0.102116,0.061478,-0.395858,-0.628152,0.472128,-0.077370,0.127704,0.302865,-0.348118,0.529415,0.169409,-0.036911,0.287717,0.237192,-0.268590,0.133600,0.031447,-0.617427,-2.513332,0.538715,-0.099229,-3.223037,-0.961902,-0.530662,-0.958211,-0.704768,-2.826120,-0.620208,-0.892585,0.000000,0.000000,0.000000,0.420800,-0.300954,0.609379,1.334406,0.347612,0.201551,-0.119849,-0.096872,-0.538414,-0.509148,0.505359,-0.649656,37.914650,-22.591721,60.773872,100.475044,5.359528,0.426011,-6.162311,-17.407129,-54.658184,-44.143143,10.287724,-9.521792,0.000000,0.000000,0.000000,-0.098964,-0.157038,0.118032,-0.101938,-0.051665,-0.993448,-0.077370,0.127704,0.052865,0.151882,0.279415,0.169409,-0.036911,0.287717,-0.012808,0.231410,-0.116400,0.031447,-0.030871,-0.125667,0.026936,-0.004961,-0.161152,-0.048095,-0.026533,-0.047911,-0.035238,-0.141306,-0.031010,-0.044629,0.420800,-0.300954,0.609379,1.334406,0.347612,0.201551,-0.119849,-0.096872,-0.538414,-0.509148,0.505359,-0.649656
1129,0.047975,-0.120534,0.075863,0.108570,-0.601181,0.762010,-0.103448,0.079575,0.318349,-0.347399,0.559232,0.183119,-0.037822,0.258236,0.228899,-0.321992,0.171231,0.008629,-2.087748,-2.589791,0.865645,0.141797,2.396653,1.842311,-0.056422,-1.778411,-0.169505,-1.528995,3.933702,-0.690100,0.000000,0.000000,0.000000,-0.289872,-0.366968,0.736586,1.245265,0.603885,0.500788,-0.369495,-0.240772,-0.723946,-0.864778,0.571049,-0.704108,-14.139561,-26.317127,70.843246,93.045029,1.291613,2.833803,-27.924387,-25.456503,-77.548836,-71.165283,6.807116,-10.070423,0.000000,0.000000,0.000000,0.027143,-0.150295,0.190503,-0.120242,-0.047608,-0.991602,-0.103448,0.079575,0.068349,0.152601,0.309232,0.183119,-0.037822,0.258236,-0.021101,0.178008,-0.078769,0.008629,-0.104387,-0.129490,0.043282,0.007090,0.119833,0.092116,-0.002821,-0.088921,-0.008475,-0.076450,0.196685,-0.034505,-0.289872,-0.366968,0.736586,1.245265,0.603885,0.500788,-0.369495,-0.240772,-0.723946,-0.864778,0.571049,-0.704108
1150,0.051908,-0.133191,0.077721,0.495225,-0.070029,-1.047546,-0.146735,0.013902,0.333209,-0.356986,0.549645,0.227556,-0.038493,0.211066,0.232734,-0.367197,0.322999,-0.044965,-2.312620,-3.403568,0.672123,-0.699447,-2.134918,2.244933,0.228995,-2.550004,0.243903,-3.027359,7.089580,-1.359443,0.000000,0.000000,0.000000,-0.319228,-0.360838,0.779872,1.303585,0.476981,0.632925,-0.087037,-0.349401,-0.701349,-0.926026,0.672991,-0.592593,-13.738609,-21.083801,75.730194,100.289284,3.840722,3.452170,-6.103664,-30.215269,-78.753601,-72.017586,0.787760,-5.595149,0.000000,0.000000,0.000000,0.123806,-0.017507,-0.261886,-0.132798,-0.051426,-0.989808,-0.146735,0.013902,0.083209,0.143014,0.299645,0.227556,-0.038493,0.211066,-0.017266,0.132803,0.072999,-0.044965,-0.115631,-0.170178,0.033606,-0.034972,-0.106746,0.112247,0.011450,-0.127500,0.012195,-0.151368,0.354479,-0.067972,-0.319228,-0.360838,0.779872,1.303585,0.476981,0.632925,-0.087037,-0.349401,-0.701349,-0.926026,0.672991,-0.592593
1171,0.059555,-0.135168,0.060962,0.032966,-0.143744,-0.956616,-0.187673,-0.067495,0.356986,-0.363170,0.525868,0.300277,-0.030728,0.142948,0.238822,-0.420167,0.371559,-0.034227,-1.800414,-4.261686,1.350718,-0.148844,-0.262646,3.791473,0.844648,-3.870857,0.278274,-2.802151,0.168546,0.246875,0.000000,0.000000,0.000000,-0.382495,-0.501985,0.755902,0.725715,0.423897,0.653695,0.433965,-0.512034,-0.654316,-0.636105,-0.016942,-0.036912,-18.224455,-27.059786,66.390053,52.997112,2.353022,1.055727,34.082184,-37.607372,-74.369804,-47.826893,-2.917440,-0.370395,0.000000,0.000000,0.000000,0.008241,-0.035936,-0.239154,-0.134757,-0.058977,-0.989122,-0.187673,-0.067495,0.106986,0.136830,0.275868,0.300277,-0.030728,0.142948,-0.011178,0.079833,0.121559,-0.034227,-0.090021,-0.213084,0.067536,-0.007442,-0.013132,0.189574,0.042232,-0.193543,0.013914,-0.140108,0.008427,0.012344,-0.382495,-0.501985,0.755902,0.725715,0.423897,0.653695,0.433965,-0.512034,-0.654316,-0.636105,-0.016942,-0.036912
1192,0.066085,-0.136071,0.034757,-0.146436,0.100259,-1.312691,-0.184126,-0.162075,0.388145,-0.377935,0.504919,0.323910,-0.013518,0.045252,0.243519,-0.456982,0.386228,0.028187,1.567728,-3.626091,1.431252,-1.450043,-2.480830,-1.238066,0.605539,-5.149334,0.193905,-0.319020,2.061430,4.508993,0.000000,0.000000,0.000000,0.411545,-0.024244,0.433708,-0.543820,0.066663,-0.002079,0.594941,-0.475470,-0.356148,0.364747,-0.020505,-0.093010,37.172199,13.680573,26.501390,-44.977791,-1.338491,-4.879039,46.373501,-27.260090,-40.998756,28.856293,-4.497452,-6.208028,0.000000,0.000000,0.000000,-0.036609,0.025065,-0.328173,-0.135652,-0.065427,-0.988594,-0.184126,-0.162075,0.138145,0.122065,0.254919,0.323910,-0.013518,0.045252,-0.006481,0.043018,0.136228,0.028187,0.078386,-0.181305,0.071563,-0.072502,-0.124042,-0.061903,0.030277,-0.257467,0.009695,-0.015951,0.103072,0.225450,0.411545,-0.024244,0.433708,-0.543820,0.066663,-0.002079,0.594941,-0.475470,-0.356148,0.364747,-0.020505,-0.093010
1212,0.055496,-0.128285,0.009809,-0.776937,0.772793,-1.404155,-0.168450,-0.185612,0.398212,-0.390398,0.478602,0.300660,-0.010019,0.008820,0.243759,-0.457558,0.395048,0.056182,2.423834,-3.425763,1.570269,-1.727023,-3.342688,-2.902004,0.335319,-5.213090,-0.000911,0.372086,1.211365,3.931257,0.000000,0.000000,0.000000,1.552742,0.589039,-0.209256,-1.355565,0.491832,-0.979862,0.198836,-0.259747,0.445277,2.045920,0.276574,-0.854137,120.000000,63.343613,-48.135468,-108.430511,7.111841,-16.642775,15.451550,-7.798956,50.717655,150.000000,0.421180,-17.953014,0.000000,0.000000,0.000000,-0.194234,0.193198,-0.351039,-0.127934,-0.055012,-0.990256,-0.168450,-0.185612,0.148212,0.109602,0.228602,0.300660,-0.010019,0.008820,-0.006241,0.042442,0.145048,0.056182,0.121192,-0.171288,0.078513,-0.086351,-0.167134,-0.145100,0.016766,-0.260655,-0.000046,0.018604,0.060568,0.196563,1.552742,0.589039,-0.209256,-1.355565,0.491832,-0.979862,0.198836,-0.259747,0.445277,2.045920,0.276574,-0.854137
1232,0.046638,-0.105905,-0.016915,-0.537187,1.135439,-1.428735,-0.168450,-0.185612,0.398212,-0.390398,0.478602,0.300660,-0.010019,0.008820,0.243759,-0.457558,0.395048,0.056182,2.423834,-3.425763,1.570269,-1.727023,-3.342688,-2.902004,0.335319,-5.213090,-0.000911,0.372086,1.211365,3.931257,0.000000,0.000000,0.000000,1.440496,0.603386,-0.161351,-1.130984,0.459867,-0.799649,-0.450329,-0.409966,0.714179,2.074266,1.025844,-1.708210,115.806999,64.491386,-42.746269,-90.464142,6.632382,-13.939632,-36.481327,-19.816435,80.968964,150.000000,11.660013,-30.763855,0.000000,0.000000,0.000000,-0.134297,0.283860,-0.357184,-0.105707,-0.046359,-0.993316,-0.168450,-0.185612,0.148212,0.109602,0.228602,0.300660,-0.010019,0.008820,-0.006241,0.042442,0.145048,0.056182,0.121192,-0.171288,0.078513,-0.086351,-0.167134,-0.145100,0.016766,-0.260655,-0.000046,0.018604,0.060568,0.196563,1.440496,0.603386,-0.161351,-1.130984,0.459867,-0.799649,-0.450329,-0.409966,0.714179,2.074266,1.025844,-1.708210
1252,0.030017,-0.089293,-0.032648,-1.239803,0.908935,0.264948,-0.168450,-0.185612,0.398212,-0.390398,0.478602,0.300660,-0.010019,0.008820,0.243759,-0.457558,0.395048,0.056182,2.423834,-3.425763,1.570269,-1.727023,-3.342688,-2.902004,0.335319,-5.213090,-0.000911,0.372086,1.211365,3.931257,0.000000,0.000000,0.000000,1.410129,0.482763,-0.264774,-1.270780,0.391987,-0.670533,-0.369118,-0.283834,0.715172,2.204434,1.414105,-2.161865,113.377686,54.841576,-54.381325,-101.647781,5.614202,-12.002933,-29.984432,-9.725933,81.080650,150.000000,17.483803,-37.568542,0.000000,0.000000,0.000000,-0.309951,0.227234,0.066237,-0.089174,-0.029893,-0.995567,-0.168450,-0.185612,0.148212,0.109602,0.228602,0.300660,-0.010019,0.008820,-0.006241,0.042442,0.145048,0.056182,0.121192,-0.171288,0.078513,-0.086351,-0.167134,-0.145100,0.016766,-0.260655,-0.000046,0.018604,0.060568,0.196563,1.410129,0.482763,-0.264774,-1.270780,0.391987,-0.670533,-0.369118,-0.283834,0.715172,2.204434,1.414105,-2.161865
1272,0.015002,-0.070212,-0.016107,-0.271945,1.066861,0.680773,-0.168450,-0.185612,0.398212,-0.390398,0.478602,0.300660,-0.010019,0.008820,0.243759,-0.457558,0.395048,0.056182,2.423834,-3.425763,1.570269,-1.727023,-3.342688,-2.902004,0.335319,-5.213090,-0.000911,0.372086,1.211365,3.931257,0.000000,0.000000,0.000000,1.322673,0.437374,-0.077834,-1.120065,0.321756,-0.634846,-0.759793,-0.032060,0.585014,2.302823,1.950588,-2.413115,106.381241,51.210464,-33.350559,-89.590652,4.560748,-11.467648,-61.238270,10.415936,66.438026,150.000000,25.530891,-41.337219,0.000000,0.000000,0.000000,-0.067986,0.266715,0.170193,-0.070155,-0.014965,-0.997424,-0.168450,-0.185612,0.148212,0.109602,0.228602,0.300660,-0.010019,0.008820,-0.006241,0.042442,0.145048,0.056182,0.121192,-0.171288,0.078513,-0.086351,-0.167134,-0.145100,0.016766,-0.260655,-0.000046,0.018604,0.060568,0.196563,1.322673,0.437374,-0.077834,-1.120065,0.321756,-0.634846,-0.759793,-0.032060,0.585014,2.302823,1.950588,-2.413115
1292,0.014576,-0.047849,-0.008848,0.019864,1.110902,0.167637,-0.168450,-0.185612,0.398212,-0.390398,0.478602,0.300660,-0.010019,0.008820,0.243759,-0.457558,0.395048,0.056182,2.423834,-3.425763,1.570269,-1.727023,-3.342688,-2.902004,0.335319,-5.213090,-0.000911,0.372086,1.211365,3.931257,0.000000,0.000000,0.000000,1.356912,0.404403,-0.124659,-1.178583,0.299303,-0.683472,-0.291344,0.086227,0.574196,2.226914,2.133175,-2.456564,109.120316,48.572845,-38.618374,-94.272057,4.223962,-12.197020,-23.762571,19.878817,65.220970,150.000000,28.269646,-41.988945,0.000000,0.000000,0.000000,0.004966,0.277726,0.041909,-0.047831,-0.014559,-0.998749,-0.168450,-0.185612,0.148212,0.109602,0.228602,0.300660,-0.010019,0.008820,-0.006241,0.042442,0.145048,0.056182,0.121192,-0.171288,0.078513,-0.086351,-0.167134,-0.145100,0.016766,-0.260655,-0.000046,0.018604,0.060568,0.196563,1.356912,0.404403,-0.124659,-1.178583,0.299303,-0.683472,-0.291344,0.086227,0.574196,2.226914,2.133175,-2.456564
1312,0.017041,-0.029480,-0.009283,0.322453,0.970341,-0.567029,-0.168450,-0.185612,0.398212,-0.390398,0.478602,0.300660,-0.010019,0.008820,0.243759,-0.457558,0.395048,0.056182,2.423834,-3.425763,1.570269,-1.727023,-3.342688,-2.902004,0.335319,-5.213090,-0.000911,0.372086,1.211365,3.931257,0.000000,0.000000,0.000000,1.271821,0.365552,-0.140524,-1.123318,0.273204,-0.720212,-0.078373,0.013291,0.568020,2.136887,2.175860,-2.379047,102.313057,45.464821,-40.403152,-89.850868,3.832479,-12.748102,-6.725018,14.043941,64.526146,150.000000,28.909916,-40.826210,0.000000,0.000000,0.000000,0.080613,0.242585,-0.141757,-0.029475,-0.017033,-0.999420,-0.168450,-0.185612,0.148212,0.109602,0.228602,0.300660,-0.010019,0.008820,-0.006241,0.042442,0.145048,0.056182,0.121192,-0.171288,0.078513,-0.086351,-0.167134,-0.145100,0.016766,-0.260655,-0.000046,0.018604,0.060568,0.196563,1.271821,0.365552,-0.140524,-1.123318,0.273204,-0.720212,-0.078373,0.013291,0.568020,2.136887,2.175860,-2.379047
1332,0.028612,-0.009323,-0.028375,0.715232,0.923027,-1.087839,-0.168450,-0.185612,0.398212,-0.390398,0.478602,0.300660,-0.010019,0.008820,0.243759,-0.457558,0.395048,0.056182,2.423834,-3.425763,1.570269,-1.727023,-3.342688,-2.902004,0.335319,-5.213090,-0.000911,0.372086,1.211365,3.931257,0.000000,0.000000,0.000000,1.247066,0.358343,-0.201396,-1.158672,0.276139,-0.719681,0.127149,-0.075786,0.613147,2.098793,2.123628,-2.317868,100.332657,44.888054,-47.251266,-92.679161,3.876513,-12.740146,9.716621,6.917807,69.602928,150.000000,28.126440,-39.908543,0.000000,0.000000,0.000000,0.178808,0.230757,-0.271960,-0.009323,-0.028607,-0.999547,-0.168450,-0.185612,0.148212,0.109602,0.228602,0.300660,-0.010019,0.008820,-0.006241,0.042442,0.145048,0.056182,0.121192,-0.171288,0.078513,-0.086351,-0.167134,-0.145100,0.016766,-0.260655,-0.000046,0.018604,0.060568,0.196563,1.247066,0.358343,-0.201396,-1.158672,0.276139,-0.719681,0.127149,-0.075786,0.613147,2.098793,2.123628,-2.317868
1352,0.040820,0.010810,-0.051532,0.457378,0.980640,-1.140051,-0.168450,-0.185612,0.398212,-0.390398,0.478602,0.300660,-0.010019,0.008820,0.243759,-0.457558,0.395048,0.056182,2.423834,-3.425763,1.570269,-1.727023,-3.342688,-2.902004,0.335319,-5.213090,-0.000911,0.372086,1.211365,3.931257,0.000000,0.000000,0.000000,1.251125,0.351408,-0.258115,-1.166592,0.265776,-0.740968,0.318913,-0.114222,0.636179,2.032430,2.016055,-2.263983,100.657387,44.333282,-53.632172,-93.312805,3.721067,-13.059435,25.057686,3.842983,72.193993,150.000000,26.512877,-39.100281,0.000000,0.000000,0.000000,0.114345,0.245160,-0.285013,0.010810,-0.040807,-0.999109,-0.168450,-0.185612,0.148212,0.109602,0.228602,0.300660,-0.010019,0.008820,-0.006241,0.042442,0.145048,0.056182,0.121192,-0.171288,0.078513,-0.086351,-0.167134,-0.145100,0.016766,-0.260655,-0.000046,0.018604,0.060568,0.196563,1.251125,0.351408,-0.258115,-1.166592,0.265776,-0.740968,0.318913,-0.114222,0.636179,2.032430,2.016055,-2.263983
1372,0.048091,0.029929,-0.076550,0.382102,0.944542,-1.469672,-0.168450,-0.185612,0.398212,-0.390398,0.478602,0.300660,-0.010019,0.008820,0.243759,-0.457558,0.395048,0.056182,2.423834,-3.425763,1.570269,-1.727023,-3.342688,-2.902004,0.335319,-5.213090,-0.000911,0.372086,1.211365,3.931257,0.000000,0.000000,0.000000,1.204574,0.330982,-0.234453,-1.121724,0.269347,-0.727798,0.233960,-0.140160,0.542094,1.957055,1.850137,-2.262154,96.933380,42.699188,-50.970207,-89.723335,3.774630,-12.861899,18.261473,1.767942,61.609524,150.000000,24.024166,-39.072861,0.000000,0.000000,0.000000,0.095526,0.236136,-0.367418,0.029925,-0.048051,-0.998397,-0.168450,-0.185612,0.148212,0.109602,0.228602,0.300660,-0.010019,0.008820,-0.006241,0.042442,0.145048,0.056182,0.121192,-0.171288,0.078513,-0.086351,-0.167134,-0.145100,0.016766,-0.260655,-0.000046,0.018604,0.060568,0.196563,1.204574,0.330982,-0.234453,-1.121724,0.269347,-0.727798,0.233960,-0.140160,0.542094,1.957055,1.850137,-2.262154
1393,0.052393,0.049180,-0.102897,0.011337,0.993735,-1.279337,-0.168450,-0.185612,0.398212,-0.390398,0.478602,0.300660,-0.010019,0.008820,0.243759,-0.457558,0.395048,0.056182,2.423834,-3.425763,1.570269,-1.727023,-3.342688,-2.902004,0.335319,-5.213090,-0.000911,0.372086,1.211365,3.931257,0.000000,0.000000,0.000000,1.216778,0.334806,-0.252506,-1.124087,0.293184,-0.711513,0.201220,-0.187923,0.501469,1.895452,1.586452,-2.300800,97.909630,43.005089,-53.001167,-89.912437,4.132184,-12.617630,15.642270,-2.053076,57.039207,148.978195,20.068968,-39.652531,0.000000,0.000000,0.000000,0.002834,0.248434,-0.319834,0.049160,-0.052306,-0.997420,-0.168450,-0.185612,0.148212,0.109602,0.228602,0.300660,-0.010019,0.008820,-0.006241,0.042442,0.145048,0.056182,0.121192,-0.171288,0.078513,-0.086351,-0.167134,-0.145100,0.016766,-0.260655,-0.000046,0.018604,0.060568,0.196563,1.216778,0.334806,-0.252506,-1.124087,0.293184,-0.711513,0.201220,-0.187923,0.501469,1.895452,1.586452,-2.300800
1413,0.047914,0.072459,-0.127436,-0.231453,1.148812,-1.207102,-0.168450,-0.185612,0.398212,-0.390398,0.478602,0.300660,-0.010019,0.008820,0.243759,-0.457558,0.395048,0.056182,2.423834,-3.425763,1.570269,-1.727023,-3.342688,-2.902004,0.335319,-5.213090,-0.000911,0.372086,1.211365,3.931257,0.000000,0.000000,0.000000,1.219135,0.337283,-0.198816,-1.117052,0.319336,-0.676831,0.024965,-0.211747,0.380139,1.814813,1.321713,-2.383955,98.098228,43.203232,-46.961029,-89.349594,4.524446,-12.097397,1.541984,-3.958956,43.389698,142.527084,16.097950,-40.899837,0.000000,0.000000,0.000000,-0.057863,0.287203,-0.301775,0.072395,-0.047770,-0.996231,-0.168450,-0.185612,0.148212,0.109602,0.228602,0.300660,-0.010019,0.008820,-0.006241,0.042442,0.145048,0.056182,0.121192,-0.171288,0.078513,-0.086351,-0.167134,-0.145100,0.016766,-0.260655,-0.000046,0.018604,0.060568,0.196563,1.219135,0.337283,-0.198816,-1.117052,0.319336,-0.676831,0.024965,-0.211747,0.380139,1.814813,1.321713,-2.383955
1433,0.040445,0.093322,-0.147984,-0.411403,0.951854,-0.942247,-0.168450,-0.185612,0.398212,-0.390398,0.478602,0.300660,-0.010019,0.008820,0.243759,-0.457558,0.395048,0.056182,2.423834,-3.425763,1.570269,-1.727023,-3.342688,-2.902004,0.335319,-5.213090,-0.000911,0.372086,1.211365,3.931257,0.000000,0.000000,0.000000,1.267908,0.350333,-0.160760,-1.126585,0.370587,-0.652190,-0.124341,-0.243139,0.238877,1.696352,0.982210,-2.495459,102.000031,44.247299,-42.679802,-90.112206,5.293196,-11.727798,-10.402432,-6.470343,27.497801,133.050232,11.005508,-42.572361,0.000000,0.000000,0.000000,-0.102851,0.237964,-0.235562,0.093187,-0.040258,-0.994834,-0.168450,-0.185612,0.148212,0.109602,0.228602,0.300660,-0.010019,0.008820,-0.006241,0.042442,0.145048,0.056182,0.121192,-0.171288,0.078513,-0.086351,-0.167134,-0.145100,0.016766,-0.260655,-0.000046,0.018604,0.060568,0.196563,1.267908,0.350333,-0.160760,-1.126585,0.370587,-0.652190,-0.124341,-0.243139,0.238877,1.696352,0.982210,-2.495459
1453,0.030015,0.109135,-0.165042,-0.505135,0.663941,-0.814396,-0.168450,-0.185612,0.398212,-0.390398,0.478602,0.300660,-0.010019,0.008820,0.243759,-0.457558,0.395048,0.056182,2.423834,-3.425763,1.570269,-1.727023,-3.342688,-2.902004,0.335319,-5.213090,-0.000911,0.372086,1.211365,3.931257,0.000000,0.000000,0.000000,1.305665,0.359776,-0.096305,-1.125217,0.419101,-0.667324,-0.226945,-0.231808,0.166936,1.636238,0.723628,-2.588866,105.020576,45.002693,-35.428543,-90.002769,6.020904,-11.954803,-18.610674,-5.563864,19.404377,128.241165,7.126857,-43.973438,0.000000,0.000000,0.000000,-0.126284,0.165985,-0.203599,0.108919,-0.029832,-0.993603,-0.168450,-0.185612,0.148212,0.109602,0.228602,0.300660,-0.010019,0.008820,-0.006241,0.042442,0.145048,0.056182,0.121192,-0.171288,0.078513,-0.086351,-0.167134,-0.145100,0.016766,-0.260655,-0.000046,0.018604,0.060568,0.196563,1.305665,0.359776,-0.096305,-1.125217,0.419101,-0.667324,-0.226945,-0.231808,0.166936,1.636238,0.723628,-2.588866
1473,0.018974,0.119436,-0.181629,-0.410504,0.380076,-0.829826,-0.168450,-0.185612,0.398212,-0.390398,0.478602,0.300660,-0.010019,0.008820,0.243759,-0.457558,0.395048,0.056182,2.423834,-3.425763,1.570269,-1.727023,-3.342688,-2.902004,0.335319,-5.213090,-0.000911,0.372086,1.211365,3.931257,0.000000,0.000000,0.000000,1.323730,0.362096,-0.056398,-1.120951,0.449553,-0.698202,-0.274950,-0.211636,0.156806,1.629598,0.576491,-2.656104,106.465805,45.188301,-30.939043,-89.661514,6.477667,-12.417960,-22.451105,-3.950121,18.264826,127.709991,4.919847,-44.981979,0.000000,0.000000,0.000000,-0.102626,0.095019,-0.207457,0.119153,-0.018837,-0.992697,-0.168450,-0.185612,0.148212,0.109602,0.228602,0.300660,-0.010019,0.008820,-0.006241,0.042442,0.145048,0.056182,0.121192,-0.171288,0.078513,-0.086351,-0.167134,-0.145100,0.016766,-0.260655,-0.000046,0.018604,0.060568,0.196563,1.323730,0.362096,-0.056398,-1.120951,0.449553,-0.698202,-0.274950,-0.211636,0.156806,1.629598,0.576491,-2.656104
1493,0.010118,0.124420,-0.197942,-0.367864,0.170962,-0.815351,-0.168450,-0.185612,0.398212,-0.390398,0.478602,0.300660,-0.010019,0.008820,0.243759,-0.457558,0.395048,0.056182,2.423834,-3.425763,1.570269,-1.727023,-3.342688,-2.902004,0.335319,-5.213090,-0.000911,0.372086,1.211365,3.931257,0.000000,0.000000,0.000000,1.331237,0.358625,-0.049557,-1.126085,0.451153,-0.727112,-0.241287,-0.201495,0.194975,1.655368,0.533283,-2.690171,107.066307,44.910637,-30.169458,-90.072243,6.501667,-12.851605,-19.758057,-3.138805,22.558750,129.771591,4.271741,-45.492989,0.000000,0.000000,0.000000,-0.091966,0.042741,-0.203838,0.124099,-0.010040,-0.992219,-0.168450,-0.185612,0.148212,0.109602,0.228602,0.300660,-0.010019,0.008820,-0.006241,0.042442,0.145048,0.056182,0.121192,-0.171288,0.078513,-0.086351,-0.167134,-0.145100,0.016766,-0.260655,-0.000046,0.018604,0.060568,0.196563,1.331237,0.358625,-0.049557,-1.126085,0.451153,-0.727112,-0.241287,-0.201495,0.194975,1.655368,0.533283,-2.690171
1513,0.001665,0.126137,-0.216379,-0.279657,-0.030375,-0.991823,-0.168450,-0.185612,0.398212,-0.390398,0.478602,0.300660,-0.010019,0.008820,0.243759,-0.457558,0.395048,0.056182,2.423834,-3.425763,1.570269,-1.727023,-3.342688,-2.902004,0.335319,-5.213090,-0.000911,0.372086,1.211365,3.931257,0.000000,0.000000,0.000000,1.318713,0.354375,-0.042373,-1.120323,0.445348,-0.742516,-0.221612,-0.187144,0.234173,1.695018,0.577731,-2.704290,106.064407,44.570641,-29.361280,-89.611320,6.414598,-13.082653,-18.184059,-1.990750,26.968519,132.943527,4.938441,-45.704762,0.000000,0.000000,0.000000,-0.069914,-0.007594,-0.247956,0.125803,-0.001652,-0.992054,-0.168450,-0.185612,0.148212,0.109602,0.228602,0.300660,-0.010019,0.008820,-0.006241,0.042442,0.145048,0.056182,0.121192,-0.171288,0.078513,-0.086351,-0.167134,-0.145100,0.016766,-0.260655,-0.000046,0.018604,0.060568,0.196563,1.318713,0.354375,-0.042373,-1.120323,0.445348,-0.742516,-0.221612,-0.187144,0.234173,1.695018,0.577731,-2.704290
1533,-0.005541,0.123400,-0.235311,-0.282414,-0.207996,-0.875450,-0.168450,-0.185612,0.398212,-0.390398,0.478602,0.300660,-0.010019,0.008820,0.243759,-0.457558,0.395048,0.056182,2.423834,-3.425763,1.570269,-1.727023,-3.342688,-2.902004,0.335319,-5.213090,-0.000911,0.372086,1.211365,3.931257,0.000000,0.000000,0.000000,1.311783,0.350137,-0.057040,-1.129268,0.435998,-0.740061,-0.172085,-0.200445,0.301473,1.758404,0.665369,-2.695997,105.510056,44.231560,-31.011251,-90.326912,6.274347,-13.045828,-14.221900,-3.054829,34.539768,138.014404,6.252982,-45.580368,0.000000,0.000000,0.000000,-0.070604,-0.051999,-0.218863,0.123088,0.005499,-0.992381,-0.168450,-0.185612,0.148212,0.109602,0.228602,0.300660,-0.010019,0.008820,-0.006241,0.042442,0.145048,0.056182,0.121192,-0.171288,0.078513,-0.086351,-0.167134,-0.145100,0.016766,-0.260655,-0.000046,0.018604,0.060568,0.196563,1.311783,0.350137,-0.057040,-1.129268,0.435998,-0.740061,-0.172085,-0.200445,0.301473,1.758404,0.665369,-2.695997
1553,-0.014634,0.117278,-0.252228,-0.443123,-0.381758,-0.832734,-0.168450,-0.185612,0.398212,-0.390398,0.478602,0.300660,-0.010019,0.008820,0.243759,-0.457558,0.395048,0.056182,2.423834,-3.425763,1.570269,-1.727023,-3.342688,-2.902004,0.335319,-5.213090,-0.000911,0.372086,1.211365,3.931257,0.000000,0.000000,0.000000,1.289253,0.347761,-0.048328,-1.121566,0.418507,-0.733661,-0.176558,-0.169479,0.354500,1.825932,0.842477,-2.695139,103.707649,44.041534,-30.031231,-89.710732,6.011992,-12.949842,-14.579781,-0.577521,40.505314,143.416565,8.909560,-45.567505,0.000000,0.000000,0.000000,-0.110781,-0.095439,-0.208184,0.117009,0.014533,-0.993024,-0.168450,-0.185612,0.148212,0.109602,0.228602,0.300660,-0.010019,0.008820,-0.006241,0.042442,0.145048,0.056182,0.121192,-0.171288,0.078513,-0.086351,-0.167134,-0.145100,0.016766,-0.260655,-0.000046,0.018604,0.060568,0.196563,1.289253,0.347761,-0.048328,-1.121566,0.418507,-0.733661,-0.176558,-0.169479,0.354500,1.825932,0.842477,-2.695139
1573,-0.025087,0.107306,-0.268398,-0.390125,-0.539881,-0.824591,-0.168450,-0.185612,0.398212,-0.390398,0.478602,0.300660,-0.010019,0.008820,0.243759,-0.457558,0.395048,0.056182,2.423834,-3.425763,1.570269,-1.727023,-3.342688,-2.902004,0.335319,-5.213090,-0.000911,0.372086,1.211365,3.931257,0.000000,0.000000,0.000000,1.263767,0.346830,-0.044967,-1.114712,0.404970,-0.705986,-0.239255,-0.146767,0.418959,1.923200,1.069344,-2.696483,101.668747,43.967018,-29.653040,-89.162369,5.808945,-12.534724,-19.595448,1.239396,47.756832,150.000000,12.312495,-45.587658,0.000000,0.000000,0.000000,-0.097531,-0.134970,-0.206148,0.107101,0.024940,-0.993935,-0.168450,-0.185612,0.148212,0.109602,0.228602,0.300660,-0.010019,0.008820,-0.006241,0.042442,0.145048,0.056182,0.121192,-0.171288,0.078513,-0.086351,-0.167134,-0.145100,0.016766,-0.260655,-0.000046,0.018604,0.060568,0.196563,1.263767,0.346830,-0.044967,-1.114712,0.404970,-0.705986,-0.239255,-0.146767,0.418959,1.923200,1.069344,-2.696483
1593,-0.033767,0.094715,-0.284024,-0.349400,-0.645042,-0.756016,-0.168450,-0.185612,0.398212,-0.390398,0.478602,0.300660,-0.010019,0.008820,0.243759,-0.457558,0.395048,0.056182,2.423834,-3.425763,1.570269,-1.727023,-3.342688,-2.902004,0.335319,-5.213090,-0.000911,0.372086,1.211365,3.931257,0.000000,0.000000,0.000000,1.253371,0.348111,-0.063472,-1.124757,0.379170,-0.683590,-0.224169,-0.128105,0.508679,2.025781,1.338062,-2.684438,100.837051,44.069496,-31.734943,-89.965988,5.421942,-12.198785,-18.388601,2.732312,57.850288,150.000000,16.343191,-45.406986,0.000000,0.000000,0.000000,-0.087350,-0.161261,-0.189004,0.094573,0.033609,-0.994950,-0.168450,-0.185612,0.148212,0.109602,0.228602,0.300660,-0.010019,0.008820,-0.006241,0.042442,0.145048,0.056182,0.121192,-0.171288,0.078513,-0.086351,-0.167134,-0.145100,0.016766,-0.260655,-0.000046,0.018604,0.060568,0.196563,1.253371,0.348111,-0.063472,-1.124757,0.379170,-0.683590,-0.224169,-0.128105,0.508679,2.025781,1.338062,-2.684438
1613,-0.041831,0.079936,-0.298655,-0.316066,-0.770148,-0.771535,-0.168450,-0.185612,0.398212,-0.390398,0.478602,0.300660,-0.010019,0.008820,0.243759,-0.457558,0.395048,0.056182,2.423834,-3.425763,1.570269,-1.727023,-3.342688,-2.902004,0.335319,-5.213090,-0.000911,0.372086,1.211365,3.931257,0.000000,0.000000,0.000000,1.230071,0.349459,-0.076281,-1.119348,0.351815,-0.664877,-0.205725,-0.106043,0.583091,2.113636,1.631163,-2.652677,98.973083,44.177322,-33.175873,-89.533264,5.011629,-11.918092,-16.913061,4.497281,66.221626,150.000000,20.739620,-44.930576,0.000000,0.000000,0.000000,-0.079017,-0.192537,-0.192884,0.079851,0.041686,-0.995935,-0.168450,-0.185612,0.148212,0.109602,0.228602,0.300660,-0.010019,0.008820,-0.006241,0.042442,0.145048,0.056182,0.121192,-0.171288,0.078513,-0.086351,-0.167134,-0.145100,0.016766,-0.260655,-0.000046,0.018604,0.060568,0.196563,1.230071,0.349459,-0.076281,-1.119348,0.351815,-0.664877,-0.205725,-0.106043,0.583091,2.113636,1.631163,-2.652677
1633,-0.048700,0.062412,-0.313657,-0.270507,-0.890394,-0.798434,-0.168450,-0.185612,0.398212,-0.390398,0.478602,0.300660,-0.010019,0.008820,0.243759,-0.457558,0.395048,0.056182,2.423834,-3.425763,1.570269,-1.727023,-3.342688,-2.902004,0.335319,-5.213090,-0.000911,0.372086,1.211365,3.931257,0.000000,0.000000,0.000000,1.208733,0.353674,-0.091730,-1.119436,0.333574,-0.641144,-0.171715,-0.101272,0.664939,2.206421,1.921805,-2.597804,97.266090,44.514542,-34.913857,-89.540344,4.738023,-11.562102,-14.192343,4.879016,75.429474,150.000000,25.099159,-44.107498,0.000000,0.000000,0.000000,-0.067627,-0.222599,-0.199609,0.062372,0.048586,-0.996870,-0.168450,-0.185612,0.148212,0.109602,0.228602,0.300660,-0.010019,0.008820,-0.006241,0.042442,0.145048,0.056182,0.121192,-0.171288,0.078513,-0.086351,-0.167134,-0.145100,0.016766,-0.260655,-0.000046,0.018604,0.060568,0.196563,1.208733,0.353674,-0.091730,-1.119436,0.333574,-0.641144,-0.171715,-0.101272,0.664939,2.206421,1.921805,-2.597804
1653,-0.054385,0.043888,-0.328727,-0.212166,-0.905945,-0.792884,-0.168450,-0.185612,0.398212,-0.390398,0.478602,0.300660,-0.010019,0.008820,0.243759,-0.457558,0.395048,0.056182,2.423834,-3.425763,1.570269,-1.727023,-3.342688,-2.902004,0.335319,-5.213090,-0.000911,0.372086,1.211365,3.931257,0.000000,0.000000,0.000000,1.192748,0.366634,-0.107100,-1.126351,0.316152,-0.615638,-0.131646,-0.101067,0.750832,2.296922,2.206897,-2.523645,95.987267,45.551300,-36.643013,-90.093552,4.476686,-11.179524,-10.986810,4.895409,85.092468,150.000000,29.375450,-42.995144,0.000000,0.000000,0.000000,-0.053042,-0.226486,-0.198221,0.043874,0.054306,-0.997560,-0.168450,-0.185612,0.148212,0.109602,0.228602,0.300660,-0.010019,0.008820,-0.006241,0.042442,0.145048,0.056182,0.121192,-0.171288,0.078513,-0.086351,-0.167134,-0.145100,0.016766,-0.260655,-0.000046,0.018604,0.060568,0.196563,1.192748,0.366634,-0.107100,-1.126351,0.316152,-0.615638,-0.131646,-0.101067,0.750832,2.296922,2.206897,-2.523645
1673,-0.059476,0.024945,-0.343564,-0.221467,-0.893840,-0.793653,-0.168450,-0.185612,0.398212,-0.390398,0.478602,0.300660,-0.010019,0.008820,0.243759,-0.457558,0.395048,0.056182,2.423834,-3.425763,1.570269,-1.727023,-3.342688,-2.902004,0.335319,-5.213090,-0.000911,0.372086,1.211365,3.931257,0.000000,0.000000,0.000000,1.184445,0.383100,-0.119578,-1.139050,0.297283,-0.591560,-0.096124,-0.098088,0.816205,2.367109,2.454064,-2.444048,95.323029,46.868576,-38.046776,-91.109459,4.193663,-10.818362,-8.145077,5.133698,92.446823,150.000000,33.082890,-41.801212,0.000000,0.000000,0.000000,-0.055367,-0.223460,-0.198413,0.024943,0.059423,-0.997921,-0.168450,-0.185612,0.148212,0.109602,0.228602,0.300660,-0.010019,0.008820,-0.006241,0.042442,0.145048,0.056182,0.121192,-0.171288,0.078513,-0.086351,-0.167134,-0.145100,0.016766,-0.260655,-0.000046,0.018604,0.060568,0.196563,1.184445,0.383100,-0.119578,-1.139050,0.297283,-0.591560,-0.096124,-0.098088,0.816205,2.367109,2.454064,-2.444048
1694,-0.062176,0.004987,-0.358036,-0.007659,-0.948206,-0.818316,-0.168450,-0.185612,0.398212,-0.390398,0.478602,0.300660,-0.010019,0.008820,0.243759,-0.457558,0.395048,0.056182,2.423834,-3.425763,1.570269,-1.727023,-3.342688,-2.902004,0.335319,-5.213090,-0.000911,0.372086,1.211365,3.931257,0.000000,0.000000,0.000000,1.181195,0.399631,-0.125494,-1.151432,0.282211,-0.565490,-0.097574,-0.100250,0.867965,2.429987,2.655561,-2.371114,95.063072,48.191048,-38.712334,-92.099953,3.967582,-10.427322,-8.261087,4.960701,98.269821,150.000000,36.105289,-40.707222,0.000000,0.000000,0.000000,-0.001915,-0.237052,-0.204579,0.004987,0.062135,-0.998055,-0.168450,-0.185612,0.148212,0.109602,0.228602,0.300660,-0.010019,0.008820,-0.006241,0.042442,0.145048,0.056182,0.121192,-0.171288,0.078513,-0.086351,-0.167134,-0.145100,0.016766,-0.260655,-0.000046,0.018604,0.060568,0.196563,1.181195,0.399631,-0.125494,-1.151432,0.282211,-0.565490,-0.097574,-0.100250,0.867965,2.429987,2.655561,-2.371114
1714,-0.060802,-0.015879,-0.374320,0.103180,-0.837398,-0.786778,-0.168450,-0.185612,0.398212,-0.390398,0.478602,0.300660,-0.010019,0.008820,0.243759,-0.457558,0.395048,0.056182,2.423834,-3.425763,1.570269,-1.727023,-3.342688,-2.902004,0.335319,-5.213090,-0.000911,0.372086,1.211365,3.931257,0.000000,0.000000,0.000000,1.197204,0.429375,-0.152449,-1.192088,0.256355,-0.560030,0.006622,-0.096447,0.959946,2.493198,2.830205,-2.285337,96.343758,50.570549,-41.744789,-95.352425,3.579760,-10.345419,0.074530,5.265013,108.617645,150.000000,38.724895,-39.420601,0.000000,0.000000,0.000000,0.025795,-0.209349,-0.196695,-0.015879,0.060757,-0.998026,-0.168450,-0.185612,0.148212,0.109602,0.228602,0.300660,-0.010019,0.008820,-0.006241,0.042442,0.145048,0.056182,0.121192,-0.171288,0.078513,-0.086351,-0.167134,-0.145100,0.016766,-0.260655,-0.000046,0.018604,0.060568,0.196563,1.197204,0.429375,-0.152449,-1.192088,0.256355,-0.560030,0.006622,-0.096447,0.959946,2.493198,2.830205,-2.285337
1734,-0.057945,-0.032628,-0.386869,0.191539,-0.761324,-0.573057,-0.168450,-0.185612,0.398212,-0.390398,0.478602,0.300660,-0.010019,0.008820,0.243759,-0.457558,0.395048,0.056182,2.423834,-3.425763,1.570269,-1.727023,-3.342688,-2.902004,0.335319,-5.213090,-0.000911,0.372086,1.211365,3.931257,0.000000,0.000000,0.000000,1.197376,0.446089,-0.172646,-1.217031,0.230697,-0.560378,0.067293,-0.083666,1.007445,2.530712,2.975904,-2.196607,96.357475,51.907669,-44.016922,-97.347916,3.194894,-10.350641,4.928216,6.287468,113.961212,150.000000,40.910336,-38.089664,0.000000,0.000000,0.000000,0.047885,-0.190331,-0.143264,-0.032622,0.057882,-0.997790,-0.168450,-0.185612,0.148212,0.109602,0.228602,0.300660,-0.010019,0.008820,-0.006241,0.042442,0.145048,0.056182,0.121192,-0.171288,0.078513,-0.086351,-0.167134,-0.145100,0.016766,-0.260655,-0.000046,0.018604,0.060568,0.196563,1.197376,0.446089,-0.172646,-1.217031,0.230697,-0.560378,0.067293,-0.083666,1.007445,2.530712,2.975904,-2.196607
1754,-0.052967,-0.047778,-0.398091,0.273987,-0.663606,-0.634467,-0.168450,-0.185612,0.398212,-0.390398,0.478602,0.300660,-0.010019,0.008820,0.243759,-0.457558,0.395048,0.056182,2.423834,-3.425763,1.570269,-1.727023,-3.342688,-2.902004,0.335319,-5.213090,-0.000911,0.372086,1.211365,3.931257,0.000000,0.000000,0.000000,1.200983,0.463079,-0.178412,-1.241220,0.203340,-0.568602,0.116848,-0.049497,1.038294,2.558074,3.090301,-2.118599,96.646088,53.266869,-44.665604,-99.282951,2.784553,-10.474005,8.892598,9.020943,117.431786,150.000000,42.626251,-36.919575,0.000000,0.000000,0.000000,0.068497,-0.165902,-0.158617,-0.047760,0.052882,-0.997458,-0.168450,-0.185612,0.148212,0.109602,0.228602,0.300660,-0.010019,0.008820,-0.006241,0.042442,0.145048,0.056182,0.121192,-0.171288,0.078513,-0.086351,-0.167134,-0.145100,0.016766,-0.260655,-0.000046,0.018604,0.060568,0.196563,1.200983,0.463079,-0.178412,-1.241220,0.203340,-0.568602,0.116848,-0.049497,1.038294,2.558074,3.090301,-2.118599
1774,-0.046910,-0.060220,-0.409312,0.307848,-0.560931,-0.542798,-0.168450,-0.185612,0.398212,-0.390398,0.478602,0.300660,-0.010019,0.008820,0.243759,-0.457558,0.395048,0.056182,2.423834,-3.425763,1.570269,-1.727023,-3.342688,-2.902004,0.335319,-5.213090,-0.000911,0.372086,1.211365,3.931257,0.000000,0.000000,0.000000,1.208834,0.479516,-0.201910,-1.276492,0.187600,-0.575606,0.180688,-0.048344,1.079182,2.579575,3.158544,-2.042353,97.274178,54.581856,-47.309105,-102.104736,2.548446,-10.579056,13.999731,9.113232,120.000000,150.000000,43.649883,-35.775906,0.000000,0.000000,0.000000,0.076962,-0.140233,-0.135699,-0.060183,0.046808,-0.997089,-0.168450,-0.185612,0.148212,0.109602,0.228602,0.300660,-0.010019,0.008820,-0.006241,0.042442,0.145048,0.056182,0.121192,-0.171288,0.078513,-0.086351,-0.167134,-0.145100,0.016766,-0.260655,-0.000046,0.018604,0.060568,0.196563,1.208834,0.479516,-0.201910,-1.276492,0.187600,-0.575606,0.180688,-0.048344,1.079182,2.579575,3.158544,-2.042353
1794,-0.039862,-0.071156,-0.418599,0.368610,-0.570318,-0.475721,-0.168450,-0.185612,0.398212,-0.390398,0.478602,0.300660,-0.010019,0.008820,0.243759,-0.457558,0.395048,0.056182,2.423834,-3.425763,1.570269,-1.727023,-3.342688,-2.902004,0.335319,-5.213090,-0.000911,0.372086,1.211365,3.931257,0.000000,0.000000,0.000000,1.209667,0.489753,-0.210034,-1.292955,0.169825,-0.585527,0.207689,-0.032588,1.092622,2.588523,3.207474,-1.983264,97.340820,55.400764,-48.223068,-103.421745,2.281836,-10.727864,16.159792,10.373676,120.000000,150.000000,44.383816,-34.889580,0.000000,0.000000,0.000000,0.092153,-0.142580,-0.118930,-0.071096,0.039751,-0.996677,-0.168450,-0.185612,0.148212,0.109602,0.228602,0.300660,-0.010019,0.008820,-0.006241,0.042442,0.145048,0.056182,0.121192,-0.171288,0.078513,-0.086351,-0.167134,-0.145100,0.016766,-0.260655,-0.000046,0.018604,0.060568,0.196563,1.209667,0.489753,-0.210034,-1.292955,0.169825,-0.585527,0.207689,-0.032588,1.092622,2.588523,3.207474,-1.983264
1814,-0.031569,-0.083515,-0.429113,0.417415,-0.531921,-0.585164,-0.168450,-0.185612,0.398212,-0.390398,0.478602,0.300660,-0.010019,0.008820,0.243759,-0.457558,0.395048,0.056182,2.423834,-3.425763,1.570269,-1.727023,-3.342688,-2.902004,0.335319,-5.213090,-0.000911,0.372086,1.211365,3.931257,0.000000,0.000000,0.000000,1.215845,0.508236,-0.224828,-1.328531,0.151501,-0.602522,0.264206,-0.015778,1.132536,2.611483,3.235461,-1.927971,97.835052,56.879417,-49.887314,-106.267822,2.006983,-10.982798,20.681137,11.718494,120.000000,150.000000,44.803623,-34.060196,0.000000,0.000000,0.000000,0.104354,-0.132980,-0.146291,-0.083418,0.031454,-0.996018,-0.168450,-0.185612,0.148212,0.109602,0.228602,0.300660,-0.010019,0.008820,-0.006241,0.042442,0.145048,0.056182,0.121192,-0.171288,0.078513,-0.086351,-0.167134,-0.145100,0.016766,-0.260655,-0.000046,0.018604,0.060568,0.196563,1.215845,0.508236,-0.224828,-1.328531,0.151501,-0.602522,0.264206,-0.015778,1.132536,2.611483,3.235461,-1.927971
1834,-0.022493,-0.091459,-0.439786,0.431477,-0.293892,-0.476796,-0.168450,-0.185612,0.398212,-0.390398,0.478602,0.300660,-0.010019,0.008820,0.243759,-0.457558,0.395048,0.056182,2.423834,-3.425763,1.570269,-1.727023,-3.342688,-2.902004,0.335319,-5.213090,-0.000911,0.372086,1.211365,3.931257,0.000000,0.000000,0.000000,1.221081,0.525395,-0.252099,-1.367721,0.139324,-0.618555,0.317817,-0.019031,1.177943,2.631406,3.243405,-1.873402,98.253891,58.252136,-52.955315,-109.403030,1.824332,-11.223279,24.969982,11.458252,120.000000,150.000000,44.922768,-33.241692,0.000000,0.000000,0.000000,0.107869,-0.073473,-0.119199,-0.091331,0.022398,-0.995569,-0.168450,-0.185612,0.148212,0.109602,0.228602,0.300660,-0.010019,0.008820,-0.006241,0.042442,0.145048,0.056182,0.121192,-0.171288,0.078513,-0.086351,-0.167134,-0.145100,0.016766,-0.260655,-0.000046,0.018604,0.060568,0.196563,1.221081,0.525395,-0.252099,-1.367721,0.139324,-0.618555,0.317817,-0.019031,1.177943,2.631406,3.243405,-1.873402
1854,-0.012700,-0.096890,-0.448308,0.517127,-0.241399,-0.408335,-0.168450,-0.185612,0.398212,-0.390398,0.478602,0.300660,-0.010019,0.008820,0.243759,-0.457558,0.395048,0.056182,2.423834,-3.425763,1.570269,-1.727023,-3.342688,-2.902004,0.335319,-5.213090,-0.000911,0.372086,1.211365,3.931257,0.000000,0.000000,0.000000,1.219192,0.519171,-0.256524,-1.362250,0.131502,-0.630365,0.323482,-0.002776,1.144071,2.602935,3.235864,-1.841375,98.102783,57.754265,-53.453194,-108.965370,1.706998,-11.400427,25.423176,12.758581,120.000000,150.000000,44.809658,-32.761292,0.000000,0.000000,0.000000,0.129282,-0.060350,-0.102084,-0.096738,0.012640,-0.995230,-0.168450,-0.185612,0.148212,0.109602,0.228602,0.300660,-0.010019,0.008820,-0.006241,0.042442,0.145048,0.056182,0.121192,-0.171288,0.078513,-0.086351,-0.167134,-0.145100,0.016766,-0.260655,-0.000046,0.018604,0.060568,0.196563,1.219192,0.519171,-0.256524,-1.362250,0.131502,-0.630365,0.323482,-0.002776,1.144071,2.602935,3.235864,-1.841375
1874,-0.001607,-0.100540,-0.455582,0.532865,-0.143174,-0.316427,-0.168450,-0.185612,0.398212,-0.390398,0.478602,0.300660,-0.010019,0.008820,0.243759,-0.457558,0.395048,0.056182,2.423834,-3.425763,1.570269,-1.727023,-3.342688,-2.902004,0.335319,-5.213090,-0.000911,0.372086,1.211365,3.931257,0.000000,0.000000,0.000000,1.229888,0.526086,-0.268380,-1.383603,0.123693,-0.656698,0.386209,0.013529,1.149514,2.595164,3.200720,-1.812595,98.958450,58.307449,-54.786942,-110.673576,1.589872,-11.795421,30.441362,14.062999,120.000000,150.000000,44.282505,-32.329601,0.000000,0.000000,0.000000,0.133216,-0.035794,-0.079107,-0.100371,0.001599,-0.994949,-0.168450,-0.185612,0.148212,0.109602,0.228602,0.300660,-0.010019,0.008820,-0.006241,0.042442,0.145048,0.056182,0.121192,-0.171288,0.078513,-0.086351,-0.167134,-0.145100,0.016766,-0.260655,-0.000046,0.018604,0.060568,0.196563,1.229888,0.526086,-0.268380,-1.383603,0.123693,-0.656698,0.386209,0.013529,1.149514,2.595164,3.200720,-1.812595
1894,0.007776,-0.102759,-0.461119,0.406466,-0.086084,-0.254284,-0.168450,-0.185612,0.398212,-0.390398,0.478602,0.300660,-0.010019,0.008820,0.243759,-0.457558,0.395048,0.056182,2.423834,-3.425763,1.570269,-1.727023,-3.342688,-2.902004,0.335319,-5.213090,-0.000911,0.372086,1.211365,3.931257,0.000000,0.000000,0.000000,1.224237,0.522827,-0.272658,-1.385269,0.115051,-0.678514,0.422231,0.030516,1.135774,2.577417,3.169289,-1.784489,98.506386,58.046730,-55.268227,-110.806870,1.460232,-12.122651,33.323116,15.421945,120.000000,150.000000,43.811054,-31.908016,0.000000,0.000000,0.000000,0.101616,-0.021521,-0.063571,-0.102578,-0.007735,-0.994695,-0.168450,-0.185612,0.148212,0.109602,0.228602,0.300660,-0.010019,0.008820,-0.006241,0.042442,0.145048,0.056182,0.121192,-0.171288,0.078513,-0.086351,-0.167134,-0.145100,0.016766,-0.260655,-0.000046,0.018604,0.060568,0.196563,1.224237,0.522827,-0.272658,-1.385269,0.115051,-0.678514,0.422231,0.030516,1.135774,2.577417,3.169289,-1.784489
1914,0.015543,-0.104003,-0.465834,0.405945,-0.050572,-0.218389,-0.168450,-0.185612,0.398212,-0.390398,0.478602,0.300660,-0.010019,0.008820,0.243759,-0.457558,0.395048,0.056182,2.423834,-3.425763,1.570269,-1.727023,-3.342688,-2.902004,0.335319,-5.213090,-0.000911,0.372086,1.211365,3.931257,0.000000,0.000000,0.000000,1.208643,0.516922,-0.266681,-1.380295,0.111224,-0.682529,0.395987,0.033916,1.113026,2.567726,3.143626,-1.768996,97.258850,57.574287,-54.595818,-110.408951,1.402838,-12.182876,31.223577,15.693950,120.000000,150.000000,43.426109,-31.675629,0.000000,0.000000,0.000000,0.101486,-0.012643,-0.054597,-0.103815,-0.015459,-0.994476,-0.168450,-0.185612,0.148212,0.109602,0.228602,0.300660,-0.010019,0.008820,-0.006241,0.042442,0.145048,0.056182,0.121192,-0.171288,0.078513,-0.086351,-0.167134,-0.145100,0.016766,-0.260655,-0.000046,0.018604,0.060568,0.196563,1.208643,0.516922,-0.266681,-1.380295,0.111224,-0.682529,0.395987,0.033916,1.113026,2.567726,3.143626,-1.768996
1934,0.023844,-0.103819,-0.468860,0.403192,0.011904,-0.090863,-0.168450,-0.185612,0.398212,-0.390398,0.478602,0.300660,-0.010019,0.008820,0.243759,-0.457558,0.395048,0.056182,2.423834,-3.425763,1.570269,-1.727023,-3.342688,-2.902004,0.335319,-5.213090,-0.000911,0.372086,1.211365,3.931257,0.000000,0.000000,0.000000,1.213501,0.518745,-0.272333,-1.390437,0.109297,-0.691914,0.413660,0.040446,1.107127,2.559040,3.114056,-1.761502,97.647514,57.720169,-55.231651,-111.220314,1.373924,-12.323641,32.637409,16.216316,120.000000,150.000000,42.982571,-31.563221,0.000000,0.000000,0.000000,0.100798,0.002976,-0.022716,-0.103632,-0.023713,-0.994333,-0.168450,-0.185612,0.148212,0.109602,0.228602,0.300660,-0.010019,0.008820,-0.006241,0.042442,0.145048,0.056182,0.121192,-0.171288,0.078513,-0.086351,-0.167134,-0.145100,0.016766,-0.260655,-0.000046,0.018604,0.060568,0.196563,1.213501,0.518745,-0.272333,-1.390437,0.109297,-0.691914,0.413660,0.040446,1.107127,2.559040,3.114056,-1.761502
1954,0.031070,-0.103142,-0.470301,0.364047,0.032801,-0.196841,-0.168450,-0.185612,0.398212,-0.390398,0.478602,0.300660,-0.010019,0.008820,0.243759,-0.457558,0.395048,0.056182,2.423834,-3.425763,1.570269,-1.727023,-3.342688,-2.902004,0.335319,-5.213090,-0.000911,0.372086,1.211365,3.931257,0.000000,0.000000,0.000000,1.209179,0.512109,-0.268166,-1.384338,0.102816,-0.704165,0.430311,0.057923,1.085063,2.541145,3.089703,-1.751262,97.301720,57.189255,-54.762901,-110.732361,1.276712,-12.507412,33.969471,17.614525,120.000000,150.000000,42.617279,-31.409626,0.000000,0.000000,0.000000,0.091012,0.008200,-0.049210,-0.102960,-0.030900,-0.994205,-0.168450,-0.185612,0.148212,0.109602,0.228602,0.300660,-0.010019,0.008820,-0.006241,0.042442,0.145048,0.056182,0.121192,-0.171288,0.078513,-0.086351,-0.167134,-0.145100,0.016766,-0.260655,-0.000046,0.018604,0.060568,0.196563,1.209179,0.512109,-0.268166,-1.384338,0.102816,-0.704165,0.430311,0.057923,1.085063,2.541145,3.089703,-1.751262
1974,0.037608,-0.102216,-0.474690,0.249556,0.040762,-0.214239,-0.168450,-0.185612,0.398212,-0.390398,0.478602,0.300660,-0.010019,0.008820,0.243759,-0.457558,0.395048,0.056182,2.423834,-3.425763,1.570269,-1.727023,-3.342688,-2.902004,0.335319,-5.213090,-0.000911,0.372086,1.211365,3.931257,0.000000,0.000000,0.000000,1.203331,0.509145,-0.277182,-1.391786,0.105678,-0.708580,0.440628,0.045797,1.085144,2.532405,3.053903,-1.742921,96.833893,56.952156,-55.777214,-111.328209,1.319644,-12.573628,34.794807,16.644464,120.000000,150.000000,42.080296,-31.284512,0.000000,0.000000,0.000000,0.062389,0.010190,-0.053560,-0.102038,-0.037402,-0.994077,-0.168450,-0.185612,0.148212,0.109602,0.228602,0.300660,-0.010019,0.008820,-0.006241,0.042442,0.145048,0.056182,0.121192,-0.171288,0.078513,-0.086351,-0.167134,-0.145100,0.016766,-0.260655,-0.000046,0.018604,0.060568,0.196563,1.203331,0.509145,-0.277182,-1.391786,0.105678,-0.708580,0.440628,0.045797,1.085144,2.532405,3.053903,-1.742921
1995,0.041530,-0.100829,-0.478318,0.165526,0.035180,-0.173251,-0.168450,-0.185612,0.398212,-0.390398,0.478602,0.300660,-0.010019,0.008820,0.243759,-0.457558,0.395048,0.056182,2.423834,-3.425763,1.570269,-1.727023,-3.342688,-2.902004,0.335319,-5.213090,-0.000911,0.372086,1.211365,3.931257,0.000000,0.000000,0.000000,1.191665,0.504327,-0.273667,-1.388436,0.103771,-0.702593,0.406205,0.037849,1.073925,2.529411,3.037667,-1.743782,95.900627,56.566757,-55.381744,-111.060234,1.291047,-12.483825,32.040993,16.008617,120.000000,150.000000,41.836765,-31.297424,0.000000,0.000000,0.000000,0.041382,0.008795,-0.043313,-0.100658,-0.041307,-0.994063,-0.168450,-0.185612,0.148212,0.109602,0.228602,0.300660,-0.010019,0.008820,-0.006241,0.042442,0.145048,0.056182,0.121192,-0.171288,0.078513,-0.086351,-0.167134,-0.145100,0.016766,-0.260655,-0.000046,0.018604,0.060568,0.196563,1.191665,0.504327,-0.273667,-1.388436,0.103771,-0.702593,0.406205,0.037849,1.073925,2.529411,3.037667,-1.743782
2015,0.044953,-0.100401,-0.481264,0.153757,-0.027758,-0.109417,-0.168450,-0.185612,0.398212,-0.390398,0.478602,0.300660,-0.010019,0.008820,0.243759,-0.457558,0.395048,0.056182,2.423834,-3.425763,1.570269,-1.727023,-3.342688,-2.902004,0.335319,-5.213090,-0.000911,0.372086,1.211365,3.931257,0.000000,0.000000,0.000000,1.188040,0.501881,-0.267913,-1.386618,0.102326,-0.695661,0.375336,0.037763,1.062207,2.527949,3.030504,-1.752247,95.610626,56.371002,-54.734352,-110.914780,1.269369,-12.379856,29.571531,16.001745,120.000000,150.000000,41.729324,-31.424389,0.000000,0.000000,0.000000,0.038439,-0.006939,-0.027354,-0.100232,-0.044712,-0.993959,-0.168450,-0.185612,0.148212,0.109602,0.228602,0.300660,-0.010019,0.008820,-0.006241,0.042442,0.145048,0.056182,0.121192,-0.171288,0.078513,-0.086351,-0.167134,-0.145100,0.016766,-0.260655,-0.000046,0.018604,0.060568,0.196563,1.188040,0.501881,-0.267913,-1.386618,0.102326,-0.695661,0.375336,0.037763,1.062207,2.527949,3.030504,-1.752247
2035,0.047555,-0.101015,-0.479911,0.063466,-0.078912,0.073267,-0.168450,-0.185612,0.398212,-0.390398,0.478602,0.300660,-0.010019,0.008820,0.243759,-0.457558,0.395048,0.056182,2.423834,-3.425763,1.570269,-1.727023,-3.342688,-2.902004,0.335319,-5.213090,-0.000911,0.372086,1.211365,3.931257,0.000000,0.000000,0.000000,1.189987,0.507148,-0.268091,-1.397943,0.095581,-0.698021,0.382801,0.046698,1.072125,2.537078,3.030988,-1.754205,95.766396,56.792412,-54.754379,-111.820724,1.168198,-12.415244,30.168732,16.716496,120.000000,150.000000,41.736588,-31.453766,0.000000,0.000000,0.000000,0.015866,-0.019728,0.018317,-0.100844,-0.047295,-0.993778,-0.168450,-0.185612,0.148212,0.109602,0.228602,0.300660,-0.010019,0.008820,-0.006241,0.042442,0.145048,0.056182,0.121192,-0.171288,0.078513,-0.086351,-0.167134,-0.145100,0.016766,-0.260655,-0.000046,0.018604,0.060568,0.196563,1.189987,0.507148,-0.268091,-1.397943,0.095581,-0.698021,0.382801,0.046698,1.072125,2.537078,3.030988,-1.754205
